; generated by PrusaSlicer 2.7.4+win64 on 2024-07-06 at 11:53:23 UTC

; 

; external perimeters extrusion width = 0.42mm
; perimeters extrusion width = 0.44mm
; infill extrusion width = 0.44mm
; solid infill extrusion width = 0.44mm
; top infill extrusion width = 0.40mm
; support material extrusion width = 0.36mm
; first layer extrusion width = 0.42mm

; external perimeters extrusion width = 0.42mm
; perimeters extrusion width = 0.44mm
; infill extrusion width = 0.44mm
; solid infill extrusion width = 0.44mm
; top infill extrusion width = 0.40mm
; support material extrusion width = 0.36mm
; first layer extrusion width = 0.42mm

; external perimeters extrusion width = 0.42mm
; perimeters extrusion width = 0.44mm
; infill extrusion width = 0.44mm
; solid infill extrusion width = 0.44mm
; top infill extrusion width = 0.40mm
; support material extrusion width = 0.36mm
; first layer extrusion width = 0.42mm

M201 X500 Y500 Z100 E5000 ; sets maximum accelerations, mm/sec^2
M203 X500 Y500 Z10 E60 ; sets maximum feedrates, mm / sec
M204 S500 T1000 ; sets acceleration (S) and retract acceleration (R), mm/sec^2
M205 X8.00 Y8.00 Z0.40 E5.00 ; sets the jerk limits, mm/sec
M205 S0 T0 ; sets the minimum extruding and travel feed rate, mm/sec

; printing object Mamiya127镜头盖.STL id:0 copy 0
; stop printing object Mamiya127镜头盖.STL id:0 copy 0
; printing object Mamiya127镜头盖后盖.STL id:1 copy 0
; stop printing object Mamiya127镜头盖后盖.STL id:1 copy 0
; printing object Mamiya127铭牌.STL id:2 copy 0
; stop printing object Mamiya127铭牌.STL id:2 copy 0

;TYPE:Custom
G90 ; use absolute coordinates
M83 ; extruder relative mode
M104 S150 ; set temporary nozzle temp to prevent oozing during homing
M140 S60 ; set final bed temp
G4 S30 ; allow partial nozzle warmup
G28 ; home all axis
G1 Z50 F240
G1 X2.0 Y10 F3000
M104 S205 ; set final nozzle temp
M190 S60 ; wait for bed temp to stabilize
M109 S205 ; wait for nozzle temp to stabilize
G1 Z0.28 F240
G92 E0
G1 X2.0 Y140 E10 F1500 ; prime the nozzle
G1 X2.3 Y140 F5000
G92 E0
G1 X2.3 Y10 E10 F1200 ; prime the nozzle
G92 E0
G21 ; set units to millimeters
G90 ; use absolute coordinates
M83 ; use relative distances for extrusion
; Filament gcode
M107
;LAYER_CHANGE
;Z:0.2
;HEIGHT:0.2
G1 E-12.5 F2700
G1 Z.2 F9000
G1 X78.015 Y61.317
G1 Z.2
G1 E12.5 F2400
M204 S500
;TYPE:Skirt/Brim
;WIDTH:0.42
G1 F1200
G1 X79.471 Y59.543 E.07196
G1 X81.364 Y57.699 E.08286
G1 X82.892 Y56.49 E.06109
G1 X84.819 Y55.243 E.07197
G1 X87.183 Y54.061 E.08287
G1 X89.006 Y53.374 E.06108
G1 X91.221 Y52.772 E.07197
G1 X93.833 Y52.365 E.08289
G1 X95.778 Y52.265 E.06106
G1 X98.072 Y52.365 E.072
G1 X100.683 Y52.772 E.08285
G1 X102.898 Y53.374 E.07197
G1 X104.897 Y54.133 E.06704
G1 X144.002 Y71.45 E1.34095
G1 X145.698 Y72.243 E.0587
G1 X147.55 Y73.334 E.06739
G1 X149.279 Y74.61 E.06738
G1 X151.111 Y76.305 E.07826
G1 X152.517 Y77.931 E.0674
G1 X153.561 Y79.4 E.05651
G1 X154.635 Y81.261 E.06737
G1 X155.634 Y83.549 E.07828
G1 X156.271 Y85.601 E.06737
G1 X156.693 Y87.709 E.06741
G1 X156.918 Y90.662 E.09286
G1 X156.878 Y91.997 E.04188
G1 X156.693 Y93.789 E.05649
G1 X156.271 Y95.896 E.06738
G1 X155.634 Y97.949 E.0674
G1 X154.709 Y100.097 E.07333
G1 X129.92 Y149.102 E1.72191
G1 X128.123 Y152.112 E.10992
G1 X125.972 Y155.009 E.11313
G1 X123.534 Y157.669 E.11313
G1 X120.563 Y160.28 E.12401
G1 X117.611 Y162.356 E.11315
G1 X114.462 Y164.118 E.11314
G1 X111.149 Y165.547 E.11313
G1 X107.706 Y166.627 E.11314
G1 X104.171 Y167.347 E.11311
G1 X100.927 Y167.683 E.10226
G1 X99.036 Y167.742 E.05932
G1 X96.971 Y167.683 E.06477
G1 X93.384 Y167.294 E.11313
G1 X89.856 Y166.538 E.11313
G1 X86.424 Y165.424 E.11313
G1 X83.125 Y163.963 E.11313
G1 X79.994 Y162.17 E.11313
G1 X77.063 Y160.065 E.11314
G1 X74.365 Y157.669 E.11314
G1 X71.927 Y155.009 E.11313
G1 X69.97 Y152.401 E.10223
G1 X68.097 Y149.317 E.11313
G1 X66.551 Y146.056 E.11315
G1 X65.349 Y142.654 E.11313
G1 X64.502 Y139.146 E.11315
G1 X64.021 Y135.57 E.11313
G1 X63.911 Y131.964 E.11312
G1 X64.209 Y128.057 E.12286
G1 X73.863 Y71.525 E1.79818
G1 X74.212 Y69.609 E.06106
G1 X74.837 Y67.4 E.07198
G1 X75.685 Y65.267 E.07197
G1 X76.927 Y62.934 E.08287
G1 X77.981 Y61.367 E.05921
G1 E-8.75 F2700
;WIPE_START
G1 F7200
G1 X78.015 Y61.317 E-.02154
G1 X79.471 Y59.543 E-.81759
G1 X81.364 Y57.699 E-.94146
G1 X82.892 Y56.49 E-.69414
G1 X84.819 Y55.243 E-.8177
G1 X85.968 Y54.669 E-.45757
;WIPE_END
; printing object Mamiya127镜头盖.STL id:0 copy 0
G1 X89.676 Y103.644 F9000
G1 E12.5 F2400
;TYPE:Perimeter
;WIDTH:0.419999
G1 F1200
G1 X92.712 Y102.845 E.09843
G1 X95.814 Y102.362 E.09843
G1 X98.949 Y102.2 E.09843
G1 X102.084 Y102.362 E.09843
G1 X105.186 Y102.845 E.09843
G1 X108.222 Y103.644 E.09843
G1 X111.16 Y104.752 E.09845
G1 X113.968 Y106.155 E.09842
G1 X116.617 Y107.84 E.09844
G1 X119.079 Y109.789 E.09845
G1 X121.327 Y111.98 E.09842
G1 X123.338 Y114.391 E.09844
G1 X125.091 Y116.995 E.09842
G1 X126.566 Y119.766 E.09842
G1 X127.749 Y122.674 E.09843
G1 X128.626 Y125.689 E.09845
G1 X129.189 Y128.777 E.09842
G1 X129.403 Y131.541 E.08692
G1 X129.422 Y132.274 E.02299
G1 X129.35 Y135.046 E.08694
G1 X128.947 Y138.159 E.09842
G1 X128.226 Y141.214 E.09842
G1 X127.195 Y144.18 E.09845
G1 X125.864 Y147.023 E.09843
G1 X124.248 Y149.714 E.09842
G1 X122.364 Y152.225 E.09843
G1 X120.231 Y154.529 E.09844
G1 X117.873 Y156.602 E.09844
G1 X115.314 Y158.421 E.09844
G1 X112.582 Y159.967 E.09842
G1 X109.705 Y161.224 E.09844
G1 X106.715 Y162.179 E.09842
G1 X103.642 Y162.821 E.09843
G1 X100.505 Y163.145 E.09888
G1 X98.949 Y163.186 E.0488
G1 X97.393 Y163.145 E.0488
G1 X94.257 Y162.821 E.09885
G1 X91.184 Y162.179 E.09843
G1 X88.193 Y161.224 E.09844
G1 X85.316 Y159.967 E.09844
G1 X82.584 Y158.421 E.09842
G1 X80.025 Y156.602 E.09844
G1 X77.667 Y154.529 E.09844
G1 X75.535 Y152.225 E.09842
G1 X73.651 Y149.714 E.09843
G1 X72.034 Y147.023 E.09844
G1 X70.704 Y144.18 E.09841
G1 X69.672 Y141.214 E.09847
G1 X68.951 Y138.159 E.09842
G1 X68.548 Y135.046 E.09842
G1 X68.467 Y131.907 E.09845
G1 X68.709 Y128.777 E.09843
G1 X69.272 Y125.689 E.09842
G1 X70.15 Y122.674 E.09846
G1 X71.332 Y119.766 E.09842
G1 X72.808 Y116.995 E.09844
G1 X74.56 Y114.391 E.09841
G1 X76.571 Y111.98 E.09844
G1 X78.82 Y109.789 E.09845
G1 X81.281 Y107.84 E.09843
G1 X83.93 Y106.155 E.09844
G1 X86.738 Y104.752 E.09842
G1 X89.62 Y103.666 E.09657
G1 X89.62 Y103.666 F9000
G1 X89.561 Y103.285
G1 F1200
G1 X92.635 Y102.475 E.09967
G1 X95.775 Y101.986 E.09964
G1 X98.949 Y101.823 E.09965
G1 X102.123 Y101.986 E.09965
G1 X105.264 Y102.475 E.09967
G1 X108.337 Y103.285 E.09964
G1 X111.311 Y104.406 E.09965
G1 X114.154 Y105.827 E.09965
G1 X116.836 Y107.533 E.09966
G1 X119.328 Y109.505 E.09964
G1 X121.604 Y111.723 E.09964
G1 X123.64 Y114.164 E.09966
G1 X125.414 Y116.801 E.09965
G1 X126.908 Y119.606 E.09965
G1 X128.105 Y122.55 E.09965
G1 X128.994 Y125.602 E.09967
G1 X129.563 Y128.729 E.09965
G1 X129.779 Y131.512 E.08752
G1 X129.799 Y132.284 E.02421
G1 X129.727 Y135.075 E.08754
G1 X129.319 Y138.227 E.09965
G1 X128.589 Y141.32 E.09964
G1 X127.545 Y144.322 E.09965
G1 X126.197 Y147.2 E.09965
G1 X124.561 Y149.925 E.09966
G1 X122.653 Y152.467 E.09966
G1 X120.495 Y154.8 E.09964
G1 X118.107 Y156.898 E.09967
G1 X115.517 Y158.739 E.09963
G1 X112.751 Y160.305 E.09966
G1 X109.839 Y161.578 E.09965
G1 X106.811 Y162.544 E.09965
G1 X103.7 Y163.194 E.09965
G1 X100.53 Y163.522 E.09992
G1 X98.949 Y163.563 E.04959
G1 X97.369 Y163.522 E.04956
G1 X94.199 Y163.194 E.09992
G1 X91.088 Y162.544 E.09965
G1 X88.06 Y161.578 E.09965
G1 X85.148 Y160.305 E.09965
G1 X82.381 Y158.739 E.09969
G1 X79.791 Y156.898 E.09963
G1 X77.404 Y154.8 E.09964
G1 X75.245 Y152.467 E.09967
G1 X73.337 Y149.925 E.09966
G1 X71.701 Y147.2 E.09966
G1 X70.354 Y144.322 E.09963
G1 X69.31 Y141.32 E.09965
G1 X68.58 Y138.227 E.09964
G1 X68.172 Y135.075 E.09965
G1 X68.09 Y131.898 E.09965
G1 X68.335 Y128.729 E.09966
G1 X68.905 Y125.602 E.09966
G1 X69.793 Y122.55 E.09966
G1 X70.99 Y119.606 E.09965
G1 X72.484 Y116.801 E.09965
G1 X74.258 Y114.164 E.09965
G1 X76.294 Y111.723 E.09966
G1 X78.57 Y109.505 E.09964
G1 X81.063 Y107.533 E.09966
G1 X83.744 Y105.827 E.09964
G1 X86.587 Y104.406 E.09965
G1 X89.505 Y103.306 E.09778
G1 X89.505 Y103.306 F9000
G1 X89.446 Y102.925
;TYPE:External perimeter
G1 F1200
G1 X92.557 Y102.106 E.10087
G1 X95.736 Y101.611 E.10088
G1 X98.949 Y101.445 E.10088
G1 X102.162 Y101.611 E.10088
G1 X105.341 Y102.106 E.10088
G1 X108.452 Y102.925 E.10087
G1 X111.462 Y104.06 E.10086
G1 X114.34 Y105.498 E.10087
G1 X117.055 Y107.225 E.10089
G1 X119.577 Y109.221 E.10084
G1 X121.881 Y111.467 E.10089
G1 X123.942 Y113.937 E.10086
G1 X125.738 Y116.606 E.10087
G1 X127.25 Y119.446 E.10088
G1 X128.462 Y122.426 E.10087
G1 X129.361 Y125.515 E.10087
G1 X129.938 Y128.68 E.10087
G1 X130.155 Y131.483 E.08815
G1 X130.176 Y132.294 E.02544
G1 X130.103 Y135.104 E.08814
G1 X129.69 Y138.294 E.10085
G1 X128.951 Y141.426 E.1009
G1 X127.894 Y144.464 E.10085
G1 X126.531 Y147.378 E.10087
G1 X124.874 Y150.136 E.10088
G1 X122.943 Y152.709 E.10087
G1 X120.758 Y155.07 E.10086
G1 X118.342 Y157.194 E.10086
G1 X115.72 Y159.058 E.10087
G1 X112.92 Y160.643 E.10088
G1 X109.972 Y161.931 E.10087
G1 X106.907 Y162.909 E.10087
G1 X103.758 Y163.567 E.10087
G1 X100.554 Y163.899 E.101
G1 X98.949 Y163.94 E.05034
G1 X97.345 Y163.899 E.05031
G1 X94.141 Y163.567 E.101
G1 X90.991 Y162.909 E.1009
G1 X87.927 Y161.931 E.10084
G1 X84.979 Y160.643 E.10087
G1 X82.179 Y159.058 E.10088
G1 X79.557 Y157.194 E.10087
G1 X77.14 Y155.07 E.10089
G1 X74.955 Y152.709 E.10086
G1 X73.024 Y150.136 E.10087
G1 X71.368 Y147.378 E.10087
G1 X70.004 Y144.464 E.10088
G1 X68.947 Y141.426 E.10085
G1 X68.208 Y138.294 E.1009
G1 X67.795 Y135.104 E.10085
G1 X67.712 Y131.888 E.10087
G1 X67.961 Y128.68 E.10089
G1 X68.537 Y125.515 E.10087
G1 X69.436 Y122.426 E.10087
G1 X70.648 Y119.446 E.10087
G1 X72.16 Y116.606 E.10088
G1 X73.956 Y113.937 E.10087
G1 X76.017 Y111.467 E.10086
G1 X78.321 Y109.221 E.10089
G1 X80.844 Y107.225 E.10087
G1 X83.558 Y105.498 E.10086
G1 X86.436 Y104.06 E.10087
G1 X89.39 Y102.946 E.09899
G1 E-8.75 F2700
;WIPE_START
G1 F7200
G1 X89.446 Y102.925 E-.02131
G1 X92.557 Y102.106 E-1.14606
G1 X95.736 Y101.611 E-1.14617
G1 X98.949 Y101.445 E-1.14616
G1 X99.763 Y101.487 E-.2903
;WIPE_END
G1 X89.783 Y119.267 F9000
G1 E12.5 F2400
;TYPE:Perimeter
G1 F1200
G1 X89.847 Y119.216 E.00257
G1 X91.83 Y118.071 E.0718
G1 X94.089 Y117.174 E.07621
G1 X96.456 Y116.623 E.0762
G1 X99.02 Y116.43 E.08062
G1 X101.303 Y116.602 E.07178
G1 X102.14 Y116.782 E.02684
G1 X103.81 Y117.174 E.05378
G1 X105.941 Y118.01 E.07177
G1 X108.168 Y119.296 E.08063
G1 X109.958 Y120.724 E.0718
G1 X111.619 Y122.498 E.0762
G1 X113 Y124.505 E.07639
G1 X114.061 Y126.686 E.07605
G1 X114.205 Y127.117 E.01425
G1 X114.819 Y129.142 E.06635
G1 X115.16 Y131.407 E.07182
G1 X115.16 Y133.978 E.08061
G1 X114.819 Y136.242 E.07179
G1 X114.56 Y137.118 E.02864
G1 X114.061 Y138.699 E.05198
G1 X113.068 Y140.762 E.07179
G1 X111.707 Y142.776 E.07621
G1 X109.958 Y144.661 E.08063
G1 X108.168 Y146.089 E.0718
G1 X107.928 Y146.24 E.00889
G1 X105.941 Y147.374 E.07173
G1 X103.81 Y148.211 E.07178
G1 X101.443 Y148.762 E.0762
G1 X99.02 Y148.954 E.07621
G1 X96.456 Y148.762 E.08062
G1 X94.223 Y148.252 E.07182
G1 X91.957 Y147.374 E.0762
G1 X89.73 Y146.089 E.08062
G1 X87.837 Y144.565 E.0762
G1 X86.278 Y142.886 E.07184
G1 X84.901 Y140.884 E.07619
G1 X83.786 Y138.568 E.08059
G1 X83.111 Y136.38 E.07179
G1 X83.015 Y135.818 E.01788
G1 X82.728 Y133.837 E.06276
G1 X82.728 Y131.547 E.0718
G1 X83.111 Y129.005 E.0806
G1 X83.786 Y126.817 E.07179
G1 X84.222 Y125.886 E.03223
G1 X84.901 Y124.5 E.04839
G1 X86.143 Y122.679 E.06911
G1 X86.279 Y122.498 E.0071
G1 X87.837 Y120.819 E.07182
G1 X89.736 Y119.304 E.07617
G1 X89.736 Y119.304 F9000
G1 X89.994 Y119.576
G1 F1200
G1 X90.035 Y119.543 E.00165
G1 X92.018 Y118.398 E.0718
G1 X94.226 Y117.525 E.07444
G1 X96.54 Y116.99 E.07447
G1 X98.991 Y116.807 E.07706
G1 X101.275 Y116.978 E.07181
G1 X102.056 Y117.149 E.02507
G1 X103.672 Y117.525 E.05202
G1 X105.804 Y118.361 E.0718
G1 X107.933 Y119.591 E.07709
G1 X109.785 Y121.076 E.07443
G1 X111.343 Y122.755 E.07182
G1 X112.688 Y124.716 E.07456
G1 X113.721 Y126.849 E.07431
G1 X113.845 Y127.228 E.0125
G1 X114.446 Y129.199 E.06461
G1 X114.787 Y131.463 E.07179
G1 X114.787 Y133.922 E.0771
G1 X114.446 Y136.186 E.07179
G1 X114.2 Y137.007 E.02687
G1 X113.721 Y138.535 E.05021
G1 X112.728 Y140.599 E.07182
G1 X111.396 Y142.564 E.07443
G1 X109.723 Y144.366 E.0771
G1 X107.933 Y145.794 E.0718
G1 X107.74 Y145.913 E.00711
G1 X105.876 Y146.989 E.06748
G1 X103.672 Y147.86 E.07431
G1 X101.359 Y148.394 E.07443
G1 X98.991 Y148.578 E.07447
G1 X96.54 Y148.394 E.07707
G1 X94.307 Y147.885 E.07181
G1 X92.095 Y147.023 E.07444
G1 X89.965 Y145.794 E.0771
G1 X88.113 Y144.309 E.07443
G1 X86.555 Y142.63 E.07182
G1 X85.213 Y140.672 E.07443
G1 X84.146 Y138.457 E.07709
G1 X83.471 Y136.268 E.07182
G1 X83.388 Y135.762 E.01608
G1 X83.105 Y133.837 E.06101
G1 X83.105 Y131.547 E.0718
G1 X83.471 Y129.116 E.07708
G1 X84.146 Y126.928 E.07179
G1 X84.562 Y126.05 E.03046
G1 X85.213 Y124.713 E.04663
G1 X86.455 Y122.891 E.06914
G1 X86.555 Y122.755 E.00529
G1 X88.113 Y121.076 E.07182
G1 X89.947 Y119.613 E.07356
G1 X89.947 Y119.613 F9000
G1 X90.205 Y119.885
;TYPE:External perimeter
G1 F1200
G1 X90.224 Y119.87 E.00076
G1 X92.207 Y118.725 E.0718
G1 X92.472 Y118.618 E.00896
G1 X94.367 Y117.875 E.06382
G1 X96.624 Y117.358 E.0726
G1 X98.963 Y117.183 E.07354
G1 X101.247 Y117.354 E.07181
G1 X101.972 Y117.517 E.0233
G1 X103.534 Y117.876 E.05025
G1 X105.666 Y118.712 E.0718
G1 X107.698 Y119.885 E.07357
G1 X109.488 Y121.313 E.0718
G1 X111.066 Y123.011 E.07268
G1 X112.375 Y124.926 E.07273
G1 X113.382 Y127.013 E.07266
G1 X113.485 Y127.34 E.01075
G1 X114.068 Y129.23 E.06201
G1 X114.415 Y131.519 E.07259
G1 X114.415 Y133.865 E.07356
G1 X114.073 Y136.13 E.07182
G1 X113.839 Y136.896 E.02511
G1 X113.382 Y138.372 E.04845
G1 X112.388 Y140.435 E.0718
G1 X111.084 Y142.352 E.07269
G1 X109.488 Y144.071 E.07355
G1 X107.698 Y145.499 E.0718
G1 X107.551 Y145.586 E.00536
G1 X105.69 Y146.661 E.06739
G1 X103.534 Y147.509 E.07264
G1 X101.271 Y148.028 E.0728
G1 X98.963 Y148.202 E.07257
G1 X98.441 Y148.165 E.01641
G1 X96.624 Y148.027 E.05713
G1 X94.391 Y147.517 E.07182
G1 X92.232 Y146.672 E.07269
G1 X90.201 Y145.499 E.07354
G1 X88.39 Y144.052 E.07268
G1 X86.831 Y142.372 E.07186
G1 X85.524 Y140.459 E.07264
G1 X84.506 Y138.346 E.07354
G1 X83.831 Y136.157 E.07182
G1 X83.761 Y135.706 E.01431
G1 X83.482 Y133.837 E.05925
G1 X83.482 Y131.547 E.0718
G1 X83.831 Y129.227 E.07356
G1 X84.506 Y127.039 E.07179
G1 X84.902 Y126.213 E.02872
G1 X85.524 Y124.925 E.04485
G1 X86.766 Y123.104 E.06911
G1 X86.832 Y123.011 E.00358
G1 X88.39 Y121.332 E.07182
G1 X90.158 Y119.922 E.0709
G1 E-8.75 F2700
;WIPE_START
G1 F7200
G1 X90.205 Y119.885 E-.02131
G1 X90.224 Y119.87 E-.00862
G1 X92.207 Y118.725 E-.81575
G1 X92.472 Y118.618 E-.10181
G1 X94.367 Y117.875 E-.72513
G1 X96.624 Y117.358 E-.82488
G1 X98.963 Y117.183 E-.8356
G1 X100.13 Y117.27 E-.4169
;WIPE_END
G1 X118.12 Y109.184 F9000
G1 E12.5 F2400
;TYPE:Solid infill
;WIDTH:0.420281
G1 F1200
G1 X121.114 Y112.178 E.13286
G1 X123.105 Y114.565 E.09753
G1 X123.389 Y114.987 E.01596
G1 X116.598 Y108.196 E.30135
G1 X116.449 Y108.077 E.00598
G1 X115.068 Y107.199 E.05135
G1 X124.487 Y116.618 E.41797
G1 X124.841 Y117.145 E.01992
G1 X125.253 Y117.918 E.02749
G1 X113.662 Y106.327 E.51435
G1 X112.595 Y105.794 E.03742
G1 X125.861 Y119.059 E.58865
G1 X126.303 Y119.89 E.02953
G1 X126.402 Y120.135 E.00829
G1 X111.528 Y105.261 E.66003
G1 X111.043 Y105.018 E.01702
G1 X110.576 Y104.842 E.01566
G1 X126.768 Y121.034 E.71852
G1 X127.134 Y121.933 E.03046
G1 X109.72 Y104.519 E.77274
G1 X108.863 Y104.196 E.02874
G1 X127.489 Y122.823 E.82655
G1 X127.709 Y123.575 E.02459
G1 X108.026 Y103.893 E.87341
G1 X107.302 Y103.702 E.02349
G1 X127.928 Y124.328 E.91527
G1 X128.147 Y125.081 E.02461
G1 X106.577 Y103.511 E.95716
G1 X105.853 Y103.321 E.02349
G1 X128.356 Y125.823 E.99854
G1 X128.474 Y126.476 E.02082
G1 X105.128 Y103.13 E1.03597
G1 X104.496 Y103.031 E.02007
G1 X128.593 Y127.129 E1.06932
G1 X128.712 Y127.781 E.0208
