; generated by PrusaSlicer 2.9.0 on 2025-02-23 at 03:43:16 UTC

; 

; external perimeters extrusion width = 0.42mm
; perimeters extrusion width = 0.44mm
; infill extrusion width = 0.44mm
; solid infill extrusion width = 0.44mm
; top infill extrusion width = 0.40mm
; support material extrusion width = 0.36mm
; first layer extrusion width = 0.42mm

M201 X500 Y500 Z100 E5000 ; sets maximum accelerations, mm/sec^2
M203 X500 Y500 Z10 E60 ; sets maximum feedrates, mm / sec
M204 S500 T1000 ; sets acceleration (S) and retract acceleration (R), mm/sec^2
M205 X8.00 Y8.00 Z0.40 E5.00 ; sets the jerk limits, mm/sec
M205 S0 T0 ; sets the minimum extruding and travel feed rate, mm/sec

; printing object 10片仓地板.STL id:0 copy 0
; stop printing object 10片仓地板.STL id:0 copy 0

;TYPE:Custom
G90 ; use absolute coordinates
M83 ; extruder relative mode
M104 S160 ; set temporary nozzle temp to prevent oozing during homing
M140 S70 ; set final bed temp
G4 S30 ; allow partial nozzle warmup
G28 ; home all axis
G1 Z50 F240
G1 X2.0 Y10 F3000
M104 S240 ; set final nozzle temp
M190 S70 ; wait for bed temp to stabilize
M109 S240 ; wait for nozzle temp to stabilize
G1 Z0.28 F240
G92 E0
G1 X2.0 Y140 E10 F1500 ; prime the nozzle
G1 X2.3 Y140 F5000
G92 E0
G1 X2.3 Y10 E10 F1200 ; prime the nozzle
G92 E0
G21 ; set units to millimeters
G90 ; use absolute coordinates
M83 ; use relative distances for extrusion
; Filament gcode
M107
;LAYER_CHANGE
;Z:0.2
;HEIGHT:0.2
G1 E-12.5 F2400
G1 Z.2 F9000
G1 X51.357 Y50.871
G1 Z.2
G1 E12.5 F2400
M204 S500
;TYPE:Skirt/Brim
;WIDTH:0.42
G1 F1200
G1 X58.811 Y44.105 E.31564
G1 X60.954 Y43.277 E.07203
G1 X157.729 Y43.277 E3.03431
G1 X159.264 Y43.671 E.04969
G1 X160.621 Y45.123 E.06231
G1 X169.392 Y64.014 E.65304
G1 X169.689 Y65.356 E.0431
G1 X169.689 Y166.232 E3.1629
G1 X169.295 Y167.767 E.04969
G1 X168.211 Y168.923 E.04969
G1 X166.881 Y169.398 E.04428
G1 X134.232 Y173.325 E1.03106
G1 X133 Y173.421 E.03875
G1 X84.727 Y173.409 E1.51357
G1 X53.095 Y169.395 E.99975
G1 X51.622 Y168.809 E.04971
G1 X50.614 Y167.587 E.04967
G1 X50.311 Y166.232 E.04353
G1 X50.311 Y53.232 E3.54304
G1 X50.705 Y51.697 E.04969
G1 X51.32 Y50.918 E.03112
G1 E-8.75 F2400
;WIPE_START
G1 F7200
G1 X51.357 Y50.871 E-.01894
G1 X58.811 Y44.105 E-3.18783
G1 X60.411 Y43.487 E-.54323
;WIPE_END
; printing object 10片仓地板.STL id:0 copy 0
G1 X157.729 Y52.77 F9000
G1 E12.5 F2400
;TYPE:Support material
G1 F1200
G1 X60.954 Y52.77 E3.03431
G1 X60.954 Y46.466 E.19766
G1 X157.729 Y46.466 E3.03431
G1 X157.729 Y52.713 E.19587
G1 X157.729 Y52.713 F9000
G1 X157.344 Y52.6
G1 F1200
G1 X157.344 Y46.805 E.1817
G1 X156.925 Y46.805 E.01314
G1 X156.925 Y52.431 E.1764
G1 X156.506 Y52.431 E.01314
G1 X156.506 Y46.805 E.1764
G1 X156.087 Y46.805 E.01314
G1 X156.087 Y52.431 E.1764
G1 X155.668 Y52.431 E.01314
G1 X155.668 Y46.805 E.1764
G1 X155.25 Y46.805 E.01311
G1 X155.25 Y52.431 E.1764
G1 X154.831 Y52.431 E.01314
G1 X154.831 Y46.805 E.1764
G1 X154.412 Y46.805 E.01314
G1 X154.412 Y52.431 E.1764
G1 X153.993 Y52.431 E.01314
G1 X153.993 Y46.805 E.1764
G1 X153.574 Y46.805 E.01314
G1 X153.574 Y52.431 E.1764
G1 X153.155 Y52.431 E.01314
G1 X153.155 Y46.805 E.1764
G1 X152.736 Y46.805 E.01314
G1 X152.736 Y52.431 E.1764
G1 X152.317 Y52.431 E.01314
G1 X152.317 Y46.805 E.1764
G1 X151.898 Y46.805 E.01314
G1 X151.898 Y52.431 E.1764
G1 X151.479 Y52.431 E.01314
G1 X151.479 Y46.805 E.1764
G1 X151.06 Y46.805 E.01314
G1 X151.06 Y52.431 E.1764
G1 X150.641 Y52.431 E.01314
G1 X150.641 Y46.805 E.1764
G1 X150.222 Y46.805 E.01314
G1 X150.222 Y52.431 E.1764
G1 X149.803 Y52.431 E.01314
G1 X149.803 Y46.805 E.1764
G1 X149.384 Y46.805 E.01314
G1 X149.384 Y52.431 E.1764
G1 X148.965 Y52.431 E.01314
G1 X148.965 Y46.805 E.1764
G1 X148.546 Y46.805 E.01314
G1 X148.546 Y52.431 E.1764
G1 X148.127 Y52.431 E.01314
G1 X148.127 Y46.805 E.1764
G1 X147.708 Y46.805 E.01314
G1 X147.708 Y52.431 E.1764
G1 X147.289 Y52.431 E.01314
G1 X147.289 Y46.805 E.1764
G1 X146.87 Y46.805 E.01314
G1 X146.87 Y52.431 E.1764
G1 X146.451 Y52.431 E.01314
G1 X146.451 Y46.805 E.1764
G1 X146.032 Y46.805 E.01314
G1 X146.032 Y52.431 E.1764
G1 X145.613 Y52.431 E.01314
G1 X145.613 Y46.805 E.1764
G1 X145.194 Y46.805 E.01314
G1 X145.194 Y52.431 E.1764
G1 X144.775 Y52.431 E.01314
G1 X144.775 Y46.805 E.1764
G1 X144.356 Y46.805 E.01314
G1 X144.356 Y52.431 E.1764
G1 X143.937 Y52.431 E.01314
G1 X143.937 Y46.805 E.1764
G1 X143.518 Y46.805 E.01314
G1 X143.518 Y52.431 E.1764
G1 X143.099 Y52.431 E.01314
G1 X143.099 Y46.805 E.1764
G1 X142.68 Y46.805 E.01314
G1 X142.68 Y52.431 E.1764
G1 X142.261 Y52.431 E.01314
G1 X142.261 Y46.805 E.1764
G1 X141.842 Y46.805 E.01314
G1 X141.842 Y52.431 E.1764
G1 X141.423 Y52.431 E.01314
G1 X141.423 Y46.805 E.1764
G1 X141.004 Y46.805 E.01314
G1 X141.004 Y52.431 E.1764
G1 X140.585 Y52.431 E.01314
G1 X140.585 Y46.805 E.1764
G1 X140.166 Y46.805 E.01314
G1 X140.166 Y52.431 E.1764
G1 X139.747 Y52.431 E.01314
G1 X139.747 Y46.805 E.1764
G1 X139.328 Y46.805 E.01314
G1 X139.328 Y52.431 E.1764
G1 X138.909 Y52.431 E.01314
G1 X138.909 Y46.805 E.1764
G1 X138.49 Y46.805 E.01314
G1 X138.49 Y52.431 E.1764
G1 X138.071 Y52.431 E.01314
G1 X138.071 Y46.805 E.1764
G1 X137.652 Y46.805 E.01314
G1 X137.652 Y52.431 E.1764
G1 X137.234 Y52.431 E.01311
G1 X137.234 Y46.805 E.1764
G1 X136.815 Y46.805 E.01314
G1 X136.815 Y52.431 E.1764
G1 X136.396 Y52.431 E.01314
G1 X136.396 Y46.805 E.1764
G1 X135.977 Y46.805 E.01314
G1 X135.977 Y52.431 E.1764
G1 X135.558 Y52.431 E.01314
G1 X135.558 Y46.805 E.1764
G1 X135.139 Y46.805 E.01314
G1 X135.139 Y52.431 E.1764
G1 X134.72 Y52.431 E.01314
G1 X134.72 Y46.805 E.1764
G1 X134.301 Y46.805 E.01314
G1 X134.301 Y52.431 E.1764
G1 X133.882 Y52.431 E.01314
G1 X133.882 Y46.805 E.1764
G1 X133.463 Y46.805 E.01314
G1 X133.463 Y52.431 E.1764
G1 X133.044 Y52.431 E.01314
G1 X133.044 Y46.805 E.1764
G1 X132.625 Y46.805 E.01314
G1 X132.625 Y52.431 E.1764
G1 X132.206 Y52.431 E.01314
G1 X132.206 Y46.805 E.1764
G1 X131.787 Y46.805 E.01314
G1 X131.787 Y52.431 E.1764
G1 X131.368 Y52.431 E.01314
G1 X131.368 Y46.805 E.1764
G1 X130.949 Y46.805 E.01314
G1 X130.949 Y52.431 E.1764
G1 X130.53 Y52.431 E.01314
G1 X130.53 Y46.805 E.1764
G1 X130.111 Y46.805 E.01314
G1 X130.111 Y52.431 E.1764
G1 X129.692 Y52.431 E.01314
G1 X129.692 Y46.805 E.1764
G1 X129.273 Y46.805 E.01314
G1 X129.273 Y52.431 E.1764
G1 X128.854 Y52.431 E.01314
G1 X128.854 Y46.805 E.1764
G1 X128.435 Y46.805 E.01314
G1 X128.435 Y52.431 E.1764
G1 X128.016 Y52.431 E.01314
G1 X128.016 Y46.805 E.1764
G1 X127.597 Y46.805 E.01314
G1 X127.597 Y52.431 E.1764
G1 X127.178 Y52.431 E.01314
G1 X127.178 Y46.805 E.1764
G1 X126.759 Y46.805 E.01314
G1 X126.759 Y52.431 E.1764
G1 X126.34 Y52.431 E.01314
G1 X126.34 Y46.805 E.1764
G1 X125.921 Y46.805 E.01314
G1 X125.921 Y52.431 E.1764
G1 X125.502 Y52.431 E.01314
G1 X125.502 Y46.805 E.1764
G1 X125.083 Y46.805 E.01314
G1 X125.083 Y52.431 E.1764
G1 X124.664 Y52.431 E.01314
G1 X124.664 Y46.805 E.1764
G1 X124.245 Y46.805 E.01314
G1 X124.245 Y52.431 E.1764
G1 X123.826 Y52.431 E.01314
G1 X123.826 Y46.805 E.1764
G1 X123.407 Y46.805 E.01314
G1 X123.407 Y52.431 E.1764
G1 X122.988 Y52.431 E.01314
G1 X122.988 Y46.805 E.1764
G1 X122.569 Y46.805 E.01314
G1 X122.569 Y52.431 E.1764
G1 X122.15 Y52.431 E.01314
G1 X122.15 Y46.805 E.1764
G1 X121.731 Y46.805 E.01314
G1 X121.731 Y52.431 E.1764
G1 X121.312 Y52.431 E.01314
G1 X121.312 Y46.805 E.1764
G1 X120.893 Y46.805 E.01314
G1 X120.893 Y52.431 E.1764
G1 X120.474 Y52.431 E.01314
G1 X120.474 Y46.805 E.1764
G1 X120.055 Y46.805 E.01314
G1 X120.055 Y52.431 E.1764
G1 X119.636 Y52.431 E.01314
G1 X119.636 Y46.805 E.1764
G1 X119.218 Y46.805 E.01311
G1 X119.217 Y52.431 E.1764
G1 X118.799 Y52.431 E.01311
G1 X118.799 Y46.805 E.1764
G1 X118.38 Y46.805 E.01314
G1 X118.38 Y52.431 E.1764
G1 X117.961 Y52.431 E.01314
G1 X117.961 Y46.805 E.1764
G1 X117.542 Y46.805 E.01314
G1 X117.542 Y52.431 E.1764
G1 X117.123 Y52.431 E.01314
G1 X117.123 Y46.805 E.1764
G1 X116.704 Y46.805 E.01314
G1 X116.704 Y52.431 E.1764
G1 X116.285 Y52.431 E.01314
G1 X116.285 Y46.805 E.1764
G1 X115.866 Y46.805 E.01314
G1 X115.866 Y52.431 E.1764
G1 X115.447 Y52.431 E.01314
G1 X115.447 Y46.805 E.1764
G1 X115.028 Y46.805 E.01314
G1 X115.028 Y52.431 E.1764
G1 X114.609 Y52.431 E.01314
G1 X114.609 Y46.805 E.1764
G1 X114.19 Y46.805 E.01314
G1 X114.19 Y52.431 E.1764
G1 X113.771 Y52.431 E.01314
G1 X113.771 Y46.805 E.1764
G1 X113.352 Y46.805 E.01314
G1 X113.352 Y52.431 E.1764
G1 X112.933 Y52.431 E.01314
G1 X112.933 Y46.805 E.1764
G1 X112.514 Y46.805 E.01314
G1 X112.514 Y52.431 E.1764
G1 X112.095 Y52.431 E.01314
G1 X112.095 Y46.805 E.1764
G1 X111.676 Y46.805 E.01314
G1 X111.676 Y52.431 E.1764
G1 X111.257 Y52.431 E.01314
G1 X111.257 Y46.805 E.1764
G1 X110.838 Y46.805 E.01314
G1 X110.838 Y52.431 E.1764
G1 X110.419 Y52.431 E.01314
G1 X110.419 Y46.805 E.1764
G1 X110 Y46.805 E.01314
G1 X110 Y52.431 E.1764
G1 X109.581 Y52.431 E.01314
G1 X109.581 Y46.805 E.1764
G1 X109.162 Y46.805 E.01314
G1 X109.162 Y52.431 E.1764
G1 X108.743 Y52.431 E.01314
G1 X108.743 Y46.805 E.1764
G1 X108.324 Y46.805 E.01314
G1 X108.324 Y52.431 E.1764
G1 X107.905 Y52.431 E.01314
G1 X107.905 Y46.805 E.1764
G1 X107.486 Y46.805 E.01314
G1 X107.486 Y52.431 E.1764
G1 X107.067 Y52.431 E.01314
G1 X107.067 Y46.805 E.1764
G1 X106.648 Y46.805 E.01314
G1 X106.648 Y52.431 E.1764
G1 X106.229 Y52.431 E.01314
G1 X106.229 Y46.805 E.1764
G1 X105.81 Y46.805 E.01314
G1 X105.81 Y52.431 E.1764
G1 X105.391 Y52.431 E.01314
G1 X105.391 Y46.805 E.1764
G1 X104.972 Y46.805 E.01314
G1 X104.972 Y52.431 E.1764
G1 X104.553 Y52.431 E.01314
G1 X104.553 Y46.805 E.1764
G1 X104.134 Y46.805 E.01314
G1 X104.134 Y52.431 E.1764
G1 X103.715 Y52.431 E.01314
G1 X103.715 Y46.805 E.1764
G1 X103.296 Y46.805 E.01314
G1 X103.296 Y52.431 E.1764
G1 X102.877 Y52.431 E.01314
G1 X102.877 Y46.805 E.1764
G1 X102.458 Y46.805 E.01314
G1 X102.458 Y52.431 E.1764
G1 X102.039 Y52.431 E.01314
G1 X102.039 Y46.805 E.1764
G1 X101.62 Y46.805 E.01314
G1 X101.62 Y52.431 E.1764
G1 X101.201 Y52.431 E.01314
G1 X101.201 Y46.805 E.1764
G1 X100.783 Y46.805 E.01311
G1 X100.783 Y52.431 E.1764
G1 X100.364 Y52.431 E.01314
G1 X100.364 Y46.805 E.1764
G1 X99.945 Y46.805 E.01314
G1 X99.945 Y52.431 E.1764
G1 X99.526 Y52.431 E.01314
G1 X99.526 Y46.805 E.1764
G1 X99.107 Y46.805 E.01314
G1 X99.107 Y52.431 E.1764
G1 X98.688 Y52.431 E.01314
G1 X98.688 Y46.805 E.1764
G1 X98.269 Y46.805 E.01314
G1 X98.269 Y52.431 E.1764
G1 X97.85 Y52.431 E.01314
G1 X97.85 Y46.805 E.1764
G1 X97.431 Y46.805 E.01314
G1 X97.431 Y52.431 E.1764
G1 X97.012 Y52.431 E.01314
G1 X97.012 Y46.805 E.1764
G1 X96.593 Y46.805 E.01314
G1 X96.593 Y52.431 E.1764
G1 X96.174 Y52.431 E.01314
G1 X96.174 Y46.805 E.1764
G1 X95.755 Y46.805 E.01314
G1 X95.755 Y52.431 E.1764
G1 X95.336 Y52.431 E.01314
G1 X95.336 Y46.805 E.1764
G1 X94.917 Y46.805 E.01314
G1 X94.917 Y52.431 E.1764
G1 X94.498 Y52.431 E.01314
G1 X94.498 Y46.805 E.1764
G1 X94.079 Y46.805 E.01314
G1 X94.079 Y52.431 E.1764
G1 X93.66 Y52.431 E.01314
G1 X93.66 Y46.805 E.1764
G1 X93.241 Y46.805 E.01314
G1 X93.241 Y52.431 E.1764
G1 X92.822 Y52.431 E.01314
G1 X92.822 Y46.805 E.1764
G1 X92.403 Y46.805 E.01314
G1 X92.403 Y52.431 E.1764
G1 X91.984 Y52.431 E.01314
G1 X91.984 Y46.805 E.1764
G1 X91.565 Y46.805 E.01314
G1 X91.565 Y52.431 E.1764
G1 X91.146 Y52.431 E.01314
G1 X91.146 Y46.805 E.1764
G1 X90.727 Y46.805 E.01314
G1 X90.727 Y52.431 E.1764
G1 X90.308 Y52.431 E.01314
G1 X90.308 Y46.805 E.1764
G1 X89.889 Y46.805 E.01314
G1 X89.889 Y52.431 E.1764
G1 X89.47 Y52.431 E.01314
G1 X89.47 Y46.805 E.1764
G1 X89.051 Y46.805 E.01314
G1 X89.051 Y52.431 E.1764
G1 X88.632 Y52.431 E.01314
G1 X88.632 Y46.805 E.1764
G1 X88.213 Y46.805 E.01314
G1 X88.213 Y52.431 E.1764
G1 X87.794 Y52.431 E.01314
G1 X87.794 Y46.805 E.1764
G1 X87.375 Y46.805 E.01314
G1 X87.375 Y52.431 E.1764
G1 X86.956 Y52.431 E.01314
G1 X86.956 Y46.805 E.1764
G1 X86.537 Y46.805 E.01314
G1 X86.537 Y52.431 E.1764
G1 X86.118 Y52.431 E.01314
G1 X86.118 Y46.805 E.1764
G1 X85.699 Y46.805 E.01314
G1 X85.699 Y52.431 E.1764
G1 X85.28 Y52.431 E.01314
G1 X85.28 Y46.805 E.1764
G1 X84.861 Y46.805 E.01314
G1 X84.861 Y52.431 E.1764
G1 X84.442 Y52.431 E.01314
G1 X84.442 Y46.805 E.1764
G1 X84.023 Y46.805 E.01314
G1 X84.023 Y52.431 E.1764
G1 X83.604 Y52.431 E.01314
G1 X83.604 Y46.805 E.1764
G1 X83.185 Y46.805 E.01314
G1 X83.185 Y52.431 E.1764
G1 X82.767 Y52.431 E.01311
G1 X82.767 Y46.805 E.1764
G1 X82.348 Y46.805 E.01314
G1 X82.348 Y52.431 E.1764
G1 X81.929 Y52.431 E.01314
G1 X81.929 Y46.805 E.1764
G1 X81.51 Y46.805 E.01314
G1 X81.51 Y52.431 E.1764
G1 X81.091 Y52.431 E.01314
G1 X81.091 Y46.805 E.1764
G1 X80.672 Y46.805 E.01314
G1 X80.672 Y52.431 E.1764
G1 X80.253 Y52.431 E.01314
G1 X80.253 Y46.805 E.1764
G1 X79.834 Y46.805 E.01314
G1 X79.834 Y52.431 E.1764
G1 X79.415 Y52.431 E.01314
G1 X79.415 Y46.805 E.1764
G1 X78.996 Y46.805 E.01314
G1 X78.996 Y52.431 E.1764
G1 X78.577 Y52.431 E.01314
G1 X78.577 Y46.805 E.1764
G1 X78.158 Y46.805 E.01314
G1 X78.158 Y52.431 E.1764
G1 X77.739 Y52.431 E.01314
G1 X77.739 Y46.805 E.1764
G1 X77.32 Y46.805 E.01314
G1 X77.32 Y52.431 E.1764
G1 X76.901 Y52.431 E.01314
G1 X76.901 Y46.805 E.1764
G1 X76.482 Y46.805 E.01314
G1 X76.482 Y52.431 E.1764
G1 X76.063 Y52.431 E.01314
G1 X76.063 Y46.805 E.1764
G1 X75.644 Y46.805 E.01314
G1 X75.644 Y52.431 E.1764
G1 X75.225 Y52.431 E.01314
G1 X75.225 Y46.805 E.1764
G1 X74.806 Y46.805 E.01314
G1 X74.806 Y52.431 E.1764
G1 X74.387 Y52.431 E.01314
G1 X74.387 Y46.805 E.1764
G1 X73.968 Y46.805 E.01314
G1 X73.968 Y52.431 E.1764
G1 X73.549 Y52.431 E.01314
G1 X73.549 Y46.805 E.1764
G1 X73.13 Y46.805 E.01314
G1 X73.13 Y52.431 E.1764
G1 X72.711 Y52.431 E.01314
G1 X72.711 Y46.805 E.1764
G1 X72.292 Y46.805 E.01314
G1 X72.292 Y52.431 E.1764
G1 X71.873 Y52.431 E.01314
G1 X71.873 Y46.805 E.1764
G1 X71.454 Y46.805 E.01314
G1 X71.454 Y52.431 E.1764
G1 X71.035 Y52.431 E.01314
G1 X71.035 Y46.805 E.1764
G1 X70.616 Y46.805 E.01314
G1 X70.616 Y52.431 E.1764
G1 X70.197 Y52.431 E.01314
G1 X70.197 Y46.805 E.1764
G1 X69.778 Y46.805 E.01314
G1 X69.778 Y52.431 E.1764
G1 X69.359 Y52.431 E.01314
G1 X69.359 Y46.805 E.1764
G1 X68.94 Y46.805 E.01314
G1 X68.94 Y52.431 E.1764
G1 X68.521 Y52.431 E.01314
G1 X68.521 Y46.805 E.1764
G1 X68.102 Y46.805 E.01314
G1 X68.102 Y52.431 E.1764
G1 X67.683 Y52.431 E.01314
G1 X67.683 Y46.805 E.1764
G1 X67.264 Y46.805 E.01314
G1 X67.264 Y52.431 E.1764
G1 X66.845 Y52.431 E.01314
G1 X66.845 Y46.805 E.1764
G1 X66.426 Y46.805 E.01314
G1 X66.426 Y52.431 E.1764
G1 X66.007 Y52.431 E.01314
G1 X66.007 Y46.805 E.1764
G1 X65.588 Y46.805 E.01314
G1 X65.588 Y52.431 E.1764
G1 X65.169 Y52.431 E.01314
G1 X65.169 Y46.805 E.1764
G1 X64.75 Y46.805 E.01314
G1 X64.75 Y52.431 E.1764
G1 X64.332 Y52.431 E.01311
G1 X64.332 Y46.805 E.1764
G1 X63.913 Y46.805 E.01314
G1 X63.913 Y52.431 E.1764
G1 X63.494 Y52.431 E.01314
G1 X63.494 Y46.805 E.1764
G1 X63.075 Y46.805 E.01314
G1 X63.075 Y52.431 E.1764
G1 X62.656 Y52.431 E.01314
G1 X62.656 Y46.805 E.1764
G1 X62.237 Y46.805 E.01314
G1 X62.237 Y52.431 E.1764
G1 X61.818 Y52.431 E.01314
G1 X61.818 Y46.805 E.1764
G1 X61.399 Y46.805 E.01314
G1 X61.399 Y52.6 E.1817
G1 E-8.75 F2400
;WIPE_START
G1 F7200
G1 X61.399 Y46.805 E-1.83508
G1 X61.818 Y46.805 E-.13268
G1 X61.818 Y52.431 E-1.78157
G1 X61.82 Y52.431 E-.00067
;WIPE_END
G1 X136.931 Y81.411 F9000
G1 E12.5 F2400
;TYPE:Perimeter
;WIDTH:0.419999
G1 F1200
G1 X136.98 Y81.348 E.0025
G1 X137.328 Y81.034 E.0147
G1 X137.723 Y80.782 E.01469
G1 X138.156 Y80.602 E.0147
G1 X138.692 Y80.494 E.01714
G1 X139.308 Y80.494 E.01931
G1 X139.844 Y80.602 E.01714
G1 X140.326 Y80.806 E.01641
G1 X140.754 Y81.095 E.01619
G1 X141.126 Y81.468 E.01652
G1 X141.393 Y81.852 E.01466
G1 X141.592 Y82.277 E.01471
G1 X141.716 Y82.729 E.0147
G1 X141.762 Y83.195 E.01468
G1 X141.729 Y83.662 E.01468
G1 X141.617 Y84.117 E.01469
G1 X141.418 Y84.566 E.0154
G1 X141.172 Y84.938 E.01398
G1 X140.853 Y85.281 E.01469
G1 X140.48 Y85.565 E.0147
G1 X140.064 Y85.781 E.0147
G1 X139.618 Y85.924 E.01469
G1 X139.157 Y85.99 E.0146
G1 X138.684 Y85.976 E.01484
G1 X138.227 Y85.884 E.01462
G1 X137.79 Y85.715 E.01469
G1 X137.388 Y85.475 E.01468
G1 X137.032 Y85.17 E.0147
G1 X136.732 Y84.809 E.01472
