; generated by PrusaSlicer 2.9.0 on 2025-02-23 at 15:51:05 UTC

; 

; external perimeters extrusion width = 0.42mm
; perimeters extrusion width = 0.44mm
; infill extrusion width = 0.44mm
; solid infill extrusion width = 0.44mm
; top infill extrusion width = 0.40mm
; support material extrusion width = 0.36mm
; first layer extrusion width = 0.42mm

M201 X500 Y500 Z100 E5000 ; sets maximum accelerations, mm/sec^2
M203 X500 Y500 Z10 E60 ; sets maximum feedrates, mm / sec
M204 S500 T1000 ; sets acceleration (S) and retract acceleration (R), mm/sec^2
M205 X8.00 Y8.00 Z0.40 E5.00 ; sets the jerk limits, mm/sec
M205 S0 T0 ; sets the minimum extruding and travel feed rate, mm/sec

; printing object 10片仓地板.STL id:0 copy 0
; stop printing object 10片仓地板.STL id:0 copy 0

;TYPE:Custom
G90 ; use absolute coordinates
M83 ; extruder relative mode
M104 S160 ; set temporary nozzle temp to prevent oozing during homing
M140 S70 ; set final bed temp
G4 S30 ; allow partial nozzle warmup
G28 ; home all axis
G1 Z50 F240
G1 X2.0 Y10 F3000
M104 S240 ; set final nozzle temp
M190 S70 ; wait for bed temp to stabilize
M109 S240 ; wait for nozzle temp to stabilize
G1 Z0.28 F240
G92 E0
G1 X2.0 Y140 E10 F1500 ; prime the nozzle
G1 X2.3 Y140 F5000
G92 E0
G1 X2.3 Y10 E10 F1200 ; prime the nozzle
G92 E0
G21 ; set units to millimeters
G90 ; use absolute coordinates
M83 ; use relative distances for extrusion
; Filament gcode
M107
;LAYER_CHANGE
;Z:0.2
;HEIGHT:0.2
G1 E-12.5 F2400
G1 Z.2 F9000
G1 X47.622 Y48.882
G1 Z.2
G1 E12.5 F2400
M204 S500
;TYPE:Skirt/Brim
;WIDTH:0.42
G1 F1200
G1 X49.298 Y47.432 E.06949
G1 X59.834 Y43.48 E.35282
G1 X60.954 Y43.277 E.03569
G1 X157.729 Y43.277 E3.03431
G1 X159.37 Y43.732 E.05339
G1 X165.955 Y47.683 E.24078
G1 X167.069 Y48.81 E.04969
G1 X167.408 Y49.642 E.02817
G1 X168.807 Y55.389 E.18546
G1 X169.676 Y65.072 E.30482
G1 X169.689 Y166.232 E3.1718
G1 X169.295 Y167.767 E.04969
G1 X168.211 Y168.923 E.04969
G1 X166.881 Y169.398 E.04428
G1 X134.232 Y173.325 E1.03106
G1 X133 Y173.421 E.03875
G1 X84.727 Y173.409 E1.51357
G1 X53.095 Y169.395 E.99975
G1 X51.622 Y168.809 E.04971
G1 X50.614 Y167.587 E.04967
G1 X50.313 Y166.326 E.04065
G1 X47.23 Y61.676 E3.28265
G1 X47.229 Y50.417 E.35302
G1 X47.607 Y48.94 E.0478
G1 E-8.75 F2400
;WIPE_START
G1 F7200
G1 X47.622 Y48.882 E-.01897
G1 X49.298 Y47.432 E-.70179
G1 X58.255 Y44.073 E-3.02924
;WIPE_END
; printing object 10片仓地板.STL id:0 copy 0
G1 X157.729 Y50.417 F9000
G1 E12.5 F2400
;TYPE:Support material
G1 F1200
G1 X164.315 Y50.417 E.2065
G1 X164.315 Y55.673 E.1648
G1 X165.632 Y55.673 E.04129
G1 X165.632 Y60.657 E.15627
G1 X164.496 Y60.961 E.03687
G1 X163.052 Y58.46 E.09055
G1 X163.052 Y55.631 E.0887
G1 X52.997 Y55.631 E3.4507
G1 X53.038 Y61.582 E.18659
G1 X50.417 Y61.582 E.08218
G1 X50.417 Y50.417 E.35007
G1 X60.954 Y50.417 E.33038
G1 X60.954 Y46.466 E.12388
G1 X157.729 Y46.466 E3.03431
G1 X157.729 Y50.361 E.12212
G1 E-8.75 F2400
;WIPE_START
G1 F7200
G1 X157.729 Y46.466 E-1.23342
G1 X149.782 Y46.466 E-2.51658
;WIPE_END
G1 X164.886 Y60.681 F9000
G1 E12.5 F2400
G1 F1200
G1 X164.886 Y56.013 E.14636
G1 X164.467 Y56.013 E.01314
G1 X164.467 Y60.232 E.13228
G1 X164.048 Y59.507 E.02626
G1 X163.975 Y50.757 E.27436
G1 X163.629 Y50.757 E.01085
G1 X163.629 Y58.781 E.25159
G1 X163.391 Y58.369 E.01492
G1 X163.391 Y55.292 E.09648
G1 X163.21 Y55.292 E.00568
G1 X163.21 Y50.757 E.14219
G1 X162.791 Y50.757 E.01314
G1 X162.791 Y55.292 E.14219
G1 X162.372 Y55.292 E.01314
G1 X162.372 Y50.757 E.14219
G1 X161.953 Y50.757 E.01314
G1 X161.953 Y55.292 E.14219
G1 X161.534 Y55.292 E.01314
G1 X161.534 Y50.757 E.14219
G1 X161.115 Y50.757 E.01314
G1 X161.115 Y55.292 E.14219
G1 X160.696 Y55.292 E.01314
G1 X160.696 Y50.757 E.14219
G1 X160.277 Y50.757 E.01314
G1 X160.277 Y55.292 E.14219
G1 X159.858 Y55.292 E.01314
G1 X159.858 Y50.757 E.14219
G1 X159.439 Y50.757 E.01314
G1 X159.439 Y55.292 E.14219
G1 X159.02 Y55.292 E.01314
G1 X159.02 Y50.757 E.14219
G1 X158.601 Y50.757 E.01314
G1 X158.601 Y55.292 E.14219
G1 X158.182 Y55.292 E.01314
G1 X158.182 Y50.757 E.14219
G1 X157.763 Y50.757 E.01314
G1 X157.763 Y55.292 E.14219
G1 X157.344 Y55.292 E.01314
G1 X157.344 Y46.805 E.2661
G1 X156.925 Y46.805 E.01314
G1 X156.925 Y55.292 E.2661
G1 X156.506 Y55.292 E.01314
G1 X156.506 Y46.805 E.2661
G1 X156.087 Y46.805 E.01314
G1 X156.087 Y55.292 E.2661
G1 X155.668 Y55.292 E.01314
G1 X155.668 Y46.805 E.2661
G1 X155.25 Y46.805 E.01311
G1 X155.25 Y55.292 E.2661
G1 X154.831 Y55.292 E.01314
G1 X154.831 Y46.805 E.2661
G1 X154.412 Y46.805 E.01314
G1 X154.412 Y55.292 E.2661
G1 X153.993 Y55.292 E.01314
G1 X153.993 Y46.805 E.2661
G1 X153.574 Y46.805 E.01314
G1 X153.574 Y55.292 E.2661
G1 X153.155 Y55.292 E.01314
G1 X153.155 Y46.805 E.2661
G1 X152.736 Y46.805 E.01314
G1 X152.736 Y55.292 E.2661
G1 X152.317 Y55.292 E.01314
G1 X152.317 Y46.805 E.2661
G1 X151.898 Y46.805 E.01314
G1 X151.898 Y55.292 E.2661
G1 X151.479 Y55.292 E.01314
G1 X151.479 Y46.805 E.2661
G1 X151.06 Y46.805 E.01314
G1 X151.06 Y55.292 E.2661
G1 X150.641 Y55.292 E.01314
G1 X150.641 Y46.805 E.2661
G1 X150.222 Y46.805 E.01314
G1 X150.222 Y55.292 E.2661
G1 X149.803 Y55.292 E.01314
G1 X149.803 Y46.805 E.2661
G1 X149.384 Y46.805 E.01314
G1 X149.384 Y55.292 E.2661
G1 X148.965 Y55.292 E.01314
G1 X148.965 Y46.805 E.2661
G1 X148.546 Y46.805 E.01314
G1 X148.546 Y55.292 E.2661
G1 X148.127 Y55.292 E.01314
G1 X148.127 Y46.805 E.2661
G1 X147.708 Y46.805 E.01314
G1 X147.708 Y55.292 E.2661
G1 X147.289 Y55.292 E.01314
G1 X147.289 Y46.805 E.2661
G1 X146.87 Y46.805 E.01314
G1 X146.87 Y55.292 E.2661
G1 X146.451 Y55.292 E.01314
G1 X146.451 Y46.805 E.2661
G1 X146.032 Y46.805 E.01314
G1 X146.032 Y55.292 E.2661
G1 X145.613 Y55.292 E.01314
G1 X145.613 Y46.805 E.2661
G1 X145.194 Y46.805 E.01314
G1 X145.194 Y55.292 E.2661
G1 X144.775 Y55.292 E.01314
G1 X144.775 Y46.805 E.2661
G1 X144.356 Y46.805 E.01314
G1 X144.356 Y55.292 E.2661
G1 X143.937 Y55.292 E.01314
G1 X143.937 Y46.805 E.2661
G1 X143.518 Y46.805 E.01314
G1 X143.518 Y55.292 E.2661
G1 X143.099 Y55.292 E.01314
G1 X143.099 Y46.805 E.2661
G1 X142.68 Y46.805 E.01314
G1 X142.68 Y55.292 E.2661
G1 X142.261 Y55.292 E.01314
G1 X142.261 Y46.805 E.2661
G1 X141.842 Y46.805 E.01314
G1 X141.842 Y55.292 E.2661
G1 X141.423 Y55.292 E.01314
G1 X141.423 Y46.805 E.2661
G1 X141.004 Y46.805 E.01314
G1 X141.004 Y55.292 E.2661
G1 X140.585 Y55.292 E.01314
G1 X140.585 Y46.805 E.2661
G1 X140.166 Y46.805 E.01314
G1 X140.166 Y55.292 E.2661
G1 X139.747 Y55.292 E.01314
G1 X139.747 Y46.805 E.2661
G1 X139.328 Y46.805 E.01314
G1 X139.328 Y55.292 E.2661
G1 X138.909 Y55.292 E.01314
G1 X138.909 Y46.805 E.2661
G1 X138.49 Y46.805 E.01314
G1 X138.49 Y55.292 E.2661
G1 X138.071 Y55.292 E.01314
G1 X138.071 Y46.805 E.2661
G1 X137.652 Y46.805 E.01314
G1 X137.652 Y55.292 E.2661
G1 X137.234 Y55.292 E.01311
G1 X137.234 Y46.805 E.2661
G1 X136.815 Y46.805 E.01314
G1 X136.815 Y55.292 E.2661
G1 X136.396 Y55.292 E.01314
G1 X136.396 Y46.805 E.2661
G1 X135.977 Y46.805 E.01314
G1 X135.977 Y55.292 E.2661
G1 X135.558 Y55.292 E.01314
G1 X135.558 Y46.805 E.2661
G1 X135.139 Y46.805 E.01314
G1 X135.139 Y55.292 E.2661
G1 X134.72 Y55.292 E.01314
G1 X134.72 Y46.805 E.2661
G1 X134.301 Y46.805 E.01314
G1 X134.301 Y55.292 E.2661
G1 X133.882 Y55.292 E.01314
G1 X133.882 Y46.805 E.2661
G1 X133.463 Y46.805 E.01314
G1 X133.463 Y55.292 E.2661
G1 X133.044 Y55.292 E.01314
G1 X133.044 Y46.805 E.2661
G1 X132.625 Y46.805 E.01314
G1 X132.625 Y55.292 E.2661
G1 X132.206 Y55.292 E.01314
G1 X132.206 Y46.805 E.2661
G1 X131.787 Y46.805 E.01314
G1 X131.787 Y55.292 E.2661
G1 X131.368 Y55.292 E.01314
G1 X131.368 Y46.805 E.2661
G1 X130.949 Y46.805 E.01314
G1 X130.949 Y55.292 E.2661
G1 X130.53 Y55.292 E.01314
G1 X130.53 Y46.805 E.2661
G1 X130.111 Y46.805 E.01314
G1 X130.111 Y55.292 E.2661
G1 X129.692 Y55.292 E.01314
G1 X129.692 Y46.805 E.2661
G1 X129.273 Y46.805 E.01314
G1 X129.273 Y55.292 E.2661
G1 X128.854 Y55.292 E.01314
G1 X128.854 Y46.805 E.2661
G1 X128.435 Y46.805 E.01314
G1 X128.435 Y55.292 E.2661
G1 X128.016 Y55.292 E.01314
G1 X128.016 Y46.805 E.2661
G1 X127.597 Y46.805 E.01314
G1 X127.597 Y55.292 E.2661
G1 X127.178 Y55.292 E.01314
G1 X127.178 Y46.805 E.2661
G1 X126.759 Y46.805 E.01314
G1 X126.759 Y55.292 E.2661
G1 X126.34 Y55.292 E.01314
G1 X126.34 Y46.805 E.2661
G1 X125.921 Y46.805 E.01314
G1 X125.921 Y55.292 E.2661
G1 X125.502 Y55.292 E.01314
G1 X125.502 Y46.805 E.2661
G1 X125.083 Y46.805 E.01314
G1 X125.083 Y55.292 E.2661
G1 X124.664 Y55.292 E.01314
G1 X124.664 Y46.805 E.2661
G1 X124.245 Y46.805 E.01314
G1 X124.245 Y55.292 E.2661
G1 X123.826 Y55.292 E.01314
G1 X123.826 Y46.805 E.2661
G1 X123.407 Y46.805 E.01314
G1 X123.407 Y55.292 E.2661
G1 X122.988 Y55.292 E.01314
G1 X122.988 Y46.805 E.2661
G1 X122.569 Y46.805 E.01314
G1 X122.569 Y55.292 E.2661
G1 X122.15 Y55.292 E.01314
G1 X122.15 Y46.805 E.2661
G1 X121.731 Y46.805 E.01314
G1 X121.731 Y55.292 E.2661
G1 X121.312 Y55.292 E.01314
G1 X121.312 Y46.805 E.2661
G1 X120.893 Y46.805 E.01314
G1 X120.893 Y55.292 E.2661
G1 X120.474 Y55.292 E.01314
G1 X120.474 Y46.805 E.2661
G1 X120.055 Y46.805 E.01314
G1 X120.055 Y55.292 E.2661
G1 X119.636 Y55.292 E.01314
G1 X119.636 Y46.805 E.2661
G1 X119.218 Y46.805 E.01311
G1 X119.217 Y55.292 E.2661
G1 X118.799 Y55.292 E.01311
G1 X118.799 Y46.805 E.2661
G1 X118.38 Y46.805 E.01314
G1 X118.38 Y55.292 E.2661
G1 X117.961 Y55.292 E.01314
G1 X117.961 Y46.805 E.2661
G1 X117.542 Y46.805 E.01314
G1 X117.542 Y55.292 E.2661
G1 X117.123 Y55.292 E.01314
G1 X117.123 Y46.805 E.2661
G1 X116.704 Y46.805 E.01314
G1 X116.704 Y55.292 E.2661
G1 X116.285 Y55.292 E.01314
G1 X116.285 Y46.805 E.2661
G1 X115.866 Y46.805 E.01314
G1 X115.866 Y55.292 E.2661
G1 X115.447 Y55.292 E.01314
G1 X115.447 Y46.805 E.2661
G1 X115.028 Y46.805 E.01314
G1 X115.028 Y55.292 E.2661
G1 X114.609 Y55.292 E.01314
G1 X114.609 Y46.805 E.2661
G1 X114.19 Y46.805 E.01314
G1 X114.19 Y55.292 E.2661
G1 X113.771 Y55.292 E.01314
G1 X113.771 Y46.805 E.2661
G1 X113.352 Y46.805 E.01314
G1 X113.352 Y55.292 E.2661
G1 X112.933 Y55.292 E.01314
G1 X112.933 Y46.805 E.2661
G1 X112.514 Y46.805 E.01314
G1 X112.514 Y55.292 E.2661
G1 X112.095 Y55.292 E.01314
G1 X112.095 Y46.805 E.2661
G1 X111.676 Y46.805 E.01314
G1 X111.676 Y55.292 E.2661
G1 X111.257 Y55.292 E.01314
G1 X111.257 Y46.805 E.2661
G1 X110.838 Y46.805 E.01314
G1 X110.838 Y55.292 E.2661
G1 X110.419 Y55.292 E.01314
G1 X110.419 Y46.805 E.2661
G1 X110 Y46.805 E.01314
G1 X110 Y55.292 E.2661
G1 X109.581 Y55.292 E.01314
G1 X109.581 Y46.805 E.2661
G1 X109.162 Y46.805 E.01314
G1 X109.162 Y55.292 E.2661
G1 X108.743 Y55.292 E.01314
G1 X108.743 Y46.805 E.2661
G1 X108.324 Y46.805 E.01314
G1 X108.324 Y55.292 E.2661
G1 X107.905 Y55.292 E.01314
G1 X107.905 Y46.805 E.2661
G1 X107.486 Y46.805 E.01314
G1 X107.486 Y55.292 E.2661
G1 X107.067 Y55.292 E.01314
G1 X107.067 Y46.805 E.2661
G1 X106.648 Y46.805 E.01314
G1 X106.648 Y55.292 E.2661
G1 X106.229 Y55.292 E.01314
G1 X106.229 Y46.805 E.2661
G1 X105.81 Y46.805 E.01314
G1 X105.81 Y55.292 E.2661
G1 X105.391 Y55.292 E.01314
G1 X105.391 Y46.805 E.2661
G1 X104.972 Y46.805 E.01314
G1 X104.972 Y55.292 E.2661
G1 X104.553 Y55.292 E.01314
G1 X104.553 Y46.805 E.2661
G1 X104.134 Y46.805 E.01314
G1 X104.134 Y55.292 E.2661
G1 X103.715 Y55.292 E.01314
G1 X103.715 Y46.805 E.2661
G1 X103.296 Y46.805 E.01314
G1 X103.296 Y55.292 E.2661
G1 X102.877 Y55.292 E.01314
G1 X102.877 Y46.805 E.2661
G1 X102.458 Y46.805 E.01314
G1 X102.458 Y55.292 E.2661
G1 X102.039 Y55.292 E.01314
G1 X102.039 Y46.805 E.2661
G1 X101.62 Y46.805 E.01314
G1 X101.62 Y55.292 E.2661
G1 X101.201 Y55.292 E.01314
G1 X101.201 Y46.805 E.2661
G1 X100.783 Y46.805 E.01311
G1 X100.783 Y55.292 E.2661
G1 X100.364 Y55.292 E.01314
G1 X100.364 Y46.805 E.2661
G1 X99.945 Y46.805 E.01314
G1 X99.945 Y55.292 E.2661
G1 X99.526 Y55.292 E.01314
G1 X99.526 Y46.805 E.2661
G1 X99.107 Y46.805 E.01314
G1 X99.107 Y55.292 E.2661
G1 X98.688 Y55.292 E.01314
G1 X98.688 Y46.805 E.2661
G1 X98.269 Y46.805 E.01314
G1 X98.269 Y55.292 E.2661
G1 X97.85 Y55.292 E.01314
G1 X97.85 Y46.805 E.2661
G1 X97.431 Y46.805 E.01314
G1 X97.431 Y55.292 E.2661
G1 X97.012 Y55.292 E.01314
G1 X97.012 Y46.805 E.2661
G1 X96.593 Y46.805 E.01314
G1 X96.593 Y55.292 E.2661
G1 X96.174 Y55.292 E.01314
G1 X96.174 Y46.805 E.2661
G1 X95.755 Y46.805 E.01314
G1 X95.755 Y55.292 E.2661
G1 X95.336 Y55.292 E.01314
G1 X95.336 Y46.805 E.2661
G1 X94.917 Y46.805 E.01314
G1 X94.917 Y55.292 E.2661
G1 X94.498 Y55.292 E.01314
G1 X94.498 Y46.805 E.2661
G1 X94.079 Y46.805 E.01314
G1 X94.079 Y55.292 E.2661
G1 X93.66 Y55.292 E.01314
G1 X93.66 Y46.805 E.2661
G1 X93.241 Y46.805 E.01314
G1 X93.241 Y55.292 E.2661
G1 X92.822 Y55.292 E.01314
G1 X92.822 Y46.805 E.2661
G1 X92.403 Y46.805 E.01314
G1 X92.403 Y55.292 E.2661
G1 X91.984 Y55.292 E.01314
G1 X91.984 Y46.805 E.2661
G1 X91.565 Y46.805 E.01314
G1 X91.565 Y55.292 E.2661
G1 X91.146 Y55.292 E.01314
G1 X91.146 Y46.805 E.2661
G1 X90.727 Y46.805 E.01314
G1 X90.727 Y55.292 E.2661
G1 X90.308 Y55.292 E.01314
G1 X90.308 Y46.805 E.2661
G1 X89.889 Y46.805 E.01314
G1 X89.889 Y55.292 E.2661
G1 X89.47 Y55.292 E.01314
G1 X89.47 Y46.805 E.2661
G1 X89.051 Y46.805 E.01314
G1 X89.051 Y55.292 E.2661
G1 X88.632 Y55.292 E.01314
G1 X88.632 Y46.805 E.2661
G1 X88.213 Y46.805 E.01314
G1 X88.213 Y55.292 E.2661
G1 X87.794 Y55.292 E.01314
G1 X87.794 Y46.805 E.2661
G1 X87.375 Y46.805 E.01314
G1 X87.375 Y55.292 E.2661
G1 X86.956 Y55.292 E.01314
G1 X86.956 Y46.805 E.2661
G1 X86.537 Y46.805 E.01314
G1 X86.537 Y55.292 E.2661
G1 X86.118 Y55.292 E.01314
G1 X86.118 Y46.805 E.2661
G1 X85.699 Y46.805 E.01314
G1 X85.699 Y55.292 E.2661
G1 X85.28 Y55.292 E.01314
G1 X85.28 Y46.805 E.2661
G1 X84.861 Y46.805 E.01314
G1 X84.861 Y55.292 E.2661
G1 X84.442 Y55.292 E.01314
G1 X84.442 Y46.805 E.2661
G1 X84.023 Y46.805 E.01314
G1 X84.023 Y55.292 E.2661
G1 X83.604 Y55.292 E.01314
G1 X83.604 Y46.805 E.2661
G1 X83.185 Y46.805 E.01314
G1 X83.185 Y55.292 E.2661
G1 X82.767 Y55.292 E.01311
G1 X82.767 Y46.805 E.2661
G1 X82.348 Y46.805 E.01314
G1 X82.348 Y55.292 E.2661
G1 X81.929 Y55.292 E.01314
G1 X81.929 Y46.805 E.2661
G1 X81.51 Y46.805 E.01314
G1 X81.51 Y55.292 E.2661
G1 X81.091 Y55.292 E.01314
G1 X81.091 Y46.805 E.2661
G1 X80.672 Y46.805 E.01314
G1 X80.672 Y55.292 E.2661
G1 X80.253 Y55.292 E.01314
G1 X80.253 Y46.805 E.2661
G1 X79.834 Y46.805 E.01314
G1 X79.834 Y55.292 E.2661
G1 X79.415 Y55.292 E.01314
G1 X79.415 Y46.805 E.2661
G1 X78.996 Y46.805 E.01314
G1 X78.996 Y55.292 E.2661
G1 X78.577 Y55.292 E.01314
G1 X78.577 Y46.805 E.2661
G1 X78.158 Y46.805 E.01314
G1 X78.158 Y55.292 E.2661
G1 X77.739 Y55.292 E.01314
G1 X77.739 Y46.805 E.2661
G1 X77.32 Y46.805 E.01314
G1 X77.32 Y55.292 E.2661
G1 X76.901 Y55.292 E.01314
G1 X76.901 Y46.805 E.2661
G1 X76.482 Y46.805 E.01314
G1 X76.482 Y55.292 E.2661
G1 X76.063 Y55.292 E.01314
G1 X76.063 Y46.805 E.2661
G1 X75.644 Y46.805 E.01314
G1 X75.644 Y55.292 E.2661
G1 X75.225 Y55.292 E.01314
G1 X75.225 Y46.805 E.2661
G1 X74.806 Y46.805 E.01314
G1 X74.806 Y55.292 E.2661
G1 X74.387 Y55.292 E.01314
G1 X74.387 Y46.805 E.2661
G1 X73.968 Y46.805 E.01314
G1 X73.968 Y55.292 E.2661
G1 X73.549 Y55.292 E.01314
G1 X73.549 Y46.805 E.2661
G1 X73.13 Y46.805 E.01314
G1 X73.13 Y55.292 E.2661
G1 X72.711 Y55.292 E.01314
G1 X72.711 Y46.805 E.2661
G1 X72.292 Y46.805 E.01314
G1 X72.292 Y55.292 E.2661
G1 X71.873 Y55.292 E.01314
G1 X71.873 Y46.805 E.2661
G1 X71.454 Y46.805 E.01314
G1 X71.454 Y55.292 E.2661
G1 X71.035 Y55.292 E.01314
G1 X71.035 Y46.805 E.2661
G1 X70.616 Y46.805 E.01314
G1 X70.616 Y55.292 E.2661
G1 X70.197 Y55.292 E.01314
G1 X70.197 Y46.805 E.2661
G1 X69.778 Y46.805 E.01314
G1 X69.778 Y55.292 E.2661
G1 X69.359 Y55.292 E.01314
G1 X69.359 Y46.805 E.2661
G1 X68.94 Y46.805 E.01314
G1 X68.94 Y55.292 E.2661
G1 X68.521 Y55.292 E.01314
G1 X68.521 Y46.805 E.2661
G1 X68.102 Y46.805 E.01314
G1 X68.102 Y55.292 E.2661
G1 X67.683 Y55.292 E.01314
G1 X67.683 Y46.805 E.2661
G1 X67.264 Y46.805 E.01314
G1 X67.264 Y55.292 E.2661
G1 X66.845 Y55.292 E.01314
G1 X66.845 Y46.805 E.2661
G1 X66.426 Y46.805 E.01314
G1 X66.426 Y55.292 E.2661
G1 X66.007 Y55.292 E.01314
G1 X66.007 Y46.805 E.2661
G1 X65.588 Y46.805 E.01314
G1 X65.588 Y55.292 E.2661
G1 X65.169 Y55.292 E.01314
