; generated by PrusaSlicer 2.9.0 on 2025-03-04 at 07:21:24 UTC

; 

; external perimeters extrusion width = 0.42mm
; perimeters extrusion width = 0.44mm
; infill extrusion width = 0.44mm
; solid infill extrusion width = 0.44mm
; top infill extrusion width = 0.40mm
; support material extrusion width = 0.36mm
; first layer extrusion width = 0.42mm

M201 X500 Y500 Z100 E5000 ; sets maximum accelerations, mm/sec^2
M203 X500 Y500 Z10 E60 ; sets maximum feedrates, mm / sec
M204 S500 T1000 ; sets acceleration (S) and retract acceleration (R), mm/sec^2
M205 X8.00 Y8.00 Z0.40 E5.00 ; sets the jerk limits, mm/sec
M205 S0 T0 ; sets the minimum extruding and travel feed rate, mm/sec

; printing object 10片仓地板.STL id:0 copy 0
; stop printing object 10片仓地板.STL id:0 copy 0

;TYPE:Custom
G90 ; use absolute coordinates
M83 ; extruder relative mode
M104 S160 ; set temporary nozzle temp to prevent oozing during homing
M140 S70 ; set final bed temp
G4 S30 ; allow partial nozzle warmup
G28 ; home all axis
G1 Z50 F240
G1 X2.0 Y10 F3000
M104 S245 ; set final nozzle temp
M190 S70 ; wait for bed temp to stabilize
M109 S245 ; wait for nozzle temp to stabilize
G1 Z0.28 F240
G92 E0
G1 X2.0 Y140 E10 F1500 ; prime the nozzle
G1 X2.3 Y140 F5000
G92 E0
G1 X2.3 Y10 E10 F1200 ; prime the nozzle
G92 E0
G21 ; set units to millimeters
G90 ; use absolute coordinates
M83 ; use relative distances for extrusion
; Filament gcode
M107
;LAYER_CHANGE
;Z:0.2
;HEIGHT:0.2
G1 E-12.5 F2400
G1 Z.2 F7200
G1 X51.625 Y48.445
G1 Z.2
G1 E12.5 F2400
M204 S500
;TYPE:Skirt/Brim
;WIDTH:0.42
G1 F1800
G1 X52.942 Y47.219 E.05642
G1 X60.845 Y43.268 E.27703
G1 X62.271 Y42.931 E.04594
G1 X157.729 Y42.931 E2.99302
G1 X159.642 Y43.569 E.06323
G1 X164.911 Y47.52 E.20649
G1 X166.112 Y49.388 E.06963
G1 X169.615 Y65.356 E.51257
G1 X169.689 Y66.039 E.02154
G1 X169.689 Y165.539 E3.11975
G1 X169.295 Y167.074 E.04969
G1 X168.211 Y168.23 E.04969
G1 X166.881 Y168.705 E.04428
G1 X134.232 Y172.632 E1.03106
G1 X133 Y172.728 E.03875
G1 X84.727 Y172.716 E1.51357
G1 X53.095 Y168.702 E.99975
G1 X51.622 Y168.116 E.04971
G1 X50.614 Y166.894 E.04967
G1 X50.311 Y165.539 E.04353
G1 X50.311 Y76.539 E2.79053
G1 X51.182 Y49.966 E.83363
G1 X51.609 Y48.503 E.04779
G1 E-8.75 F2400
;WIPE_START
G1 F5760
G1 X51.625 Y48.445 E-.02382
G1 X52.942 Y47.219 E-.71223
G1 X59.752 Y43.814 E-3.01395
;WIPE_END
; printing object 10片仓地板.STL id:0 copy 0
G1 X157.729 Y50.071 F7200
G1 E12.5 F2400
;TYPE:Support material
G1 F1800
G1 X162.998 Y50.071 E.16521
G1 X162.998 Y65.577 E.48618
G1 X159.962 Y65.577 E.09519
G1 X159.962 Y64.372 E.03778
G1 X159.691 Y64.102 E.01199
G1 X154.466 Y64.102 E.16383
G1 X154.466 Y59.919 E.13116
G1 X62.899 Y59.919 E2.87102
G1 X62.899 Y64.102 E.13116
G1 X58.309 Y64.102 E.14392
G1 X58.038 Y64.372 E.01199
G1 X58.038 Y67.821 E.10814
G1 X54.368 Y67.821 E.11507
G1 X54.368 Y50.071 E.55654
G1 X62.271 Y50.071 E.24779
G1 X62.271 Y46.12 E.12388
G1 X157.729 Y46.12 E2.99302
G1 X157.729 Y50.014 E.12209
G1 X157.729 Y50.014 F7200
G1 X162.372 Y65.408
G1 F1800
G1 X162.372 Y50.41 E.47025
G1 X161.953 Y50.41 E.01314
G1 X161.953 Y65.238 E.46492
G1 X161.534 Y65.238 E.01314
G1 X161.534 Y50.41 E.46492
G1 X161.115 Y50.41 E.01314
G1 X161.115 Y65.238 E.46492
G1 X160.696 Y65.238 E.01314
G1 X160.696 Y50.41 E.46492
G1 X160.277 Y50.41 E.01314
G1 X160.277 Y64.208 E.43263
G1 X159.858 Y63.789 E.01858
G1 X159.858 Y50.41 E.41949
G1 X159.439 Y50.41 E.01314
G1 X159.439 Y63.762 E.41864
G1 X159.02 Y63.762 E.01314
G1 X159.02 Y50.41 E.41864
G1 X158.601 Y50.41 E.01314
G1 X158.601 Y63.762 E.41864
G1 X158.182 Y63.762 E.01314
G1 X158.182 Y50.41 E.41864
G1 X157.763 Y50.41 E.01314
G1 X157.763 Y63.762 E.41864
G1 X157.344 Y63.762 E.01314
G1 X157.344 Y46.459 E.54252
G1 X156.925 Y46.459 E.01314
G1 X156.925 Y63.762 E.54252
G1 X156.506 Y63.762 E.01314
G1 X156.506 Y46.459 E.54252
G1 X156.087 Y46.459 E.01314
G1 X156.087 Y63.762 E.54252
G1 X155.668 Y63.762 E.01314
G1 X155.668 Y46.459 E.54252
G1 X155.25 Y46.459 E.01311
G1 X155.25 Y63.762 E.54252
G1 X154.831 Y63.762 E.01314
G1 X154.831 Y46.459 E.54252
G1 X154.412 Y46.459 E.01314
G1 X154.412 Y59.58 E.4114
G1 X153.993 Y59.58 E.01314
G1 X153.993 Y46.459 E.4114
G1 X153.574 Y46.459 E.01314
G1 X153.574 Y59.58 E.4114
G1 X153.155 Y59.58 E.01314
G1 X153.155 Y46.459 E.4114
G1 X152.736 Y46.459 E.01314
G1 X152.736 Y59.58 E.4114
G1 X152.317 Y59.58 E.01314
G1 X152.317 Y46.459 E.4114
G1 X151.898 Y46.459 E.01314
G1 X151.898 Y59.58 E.4114
G1 X151.479 Y59.58 E.01314
G1 X151.479 Y46.459 E.4114
G1 X151.06 Y46.459 E.01314
G1 X151.06 Y59.58 E.4114
G1 X150.641 Y59.58 E.01314
G1 X150.641 Y46.459 E.4114
G1 X150.222 Y46.459 E.01314
G1 X150.222 Y59.58 E.4114
G1 X149.803 Y59.58 E.01314
G1 X149.803 Y46.459 E.4114
G1 X149.384 Y46.459 E.01314
G1 X149.384 Y59.58 E.4114
G1 X148.965 Y59.58 E.01314
G1 X148.965 Y46.459 E.4114
G1 X148.546 Y46.459 E.01314
G1 X148.546 Y59.58 E.4114
G1 X148.127 Y59.58 E.01314
G1 X148.127 Y46.459 E.4114
G1 X147.708 Y46.459 E.01314
G1 X147.708 Y59.58 E.4114
G1 X147.289 Y59.58 E.01314
G1 X147.289 Y46.459 E.4114
G1 X146.87 Y46.459 E.01314
G1 X146.87 Y59.58 E.4114
G1 X146.451 Y59.58 E.01314
G1 X146.451 Y46.459 E.4114
G1 X146.032 Y46.459 E.01314
G1 X146.032 Y59.58 E.4114
G1 X145.613 Y59.58 E.01314
G1 X145.613 Y46.459 E.4114
G1 X145.194 Y46.459 E.01314
G1 X145.194 Y59.58 E.4114
G1 X144.775 Y59.58 E.01314
G1 X144.775 Y46.459 E.4114
G1 X144.356 Y46.459 E.01314
G1 X144.356 Y59.58 E.4114
G1 X143.937 Y59.58 E.01314
G1 X143.937 Y46.459 E.4114
G1 X143.518 Y46.459 E.01314
G1 X143.518 Y59.58 E.4114
G1 X143.099 Y59.58 E.01314
G1 X143.099 Y46.459 E.4114
G1 X142.68 Y46.459 E.01314
G1 X142.68 Y59.58 E.4114
G1 X142.261 Y59.58 E.01314
G1 X142.261 Y46.459 E.4114
G1 X141.842 Y46.459 E.01314
G1 X141.842 Y59.58 E.4114
G1 X141.423 Y59.58 E.01314
G1 X141.423 Y46.459 E.4114
G1 X141.004 Y46.459 E.01314
G1 X141.004 Y59.58 E.4114
G1 X140.585 Y59.58 E.01314
G1 X140.585 Y46.459 E.4114
G1 X140.166 Y46.459 E.01314
G1 X140.166 Y59.58 E.4114
G1 X139.747 Y59.58 E.01314
G1 X139.747 Y46.459 E.4114
G1 X139.328 Y46.459 E.01314
G1 X139.328 Y59.58 E.4114
G1 X138.909 Y59.58 E.01314
G1 X138.909 Y46.459 E.4114
G1 X138.49 Y46.459 E.01314
G1 X138.49 Y59.58 E.4114
G1 X138.071 Y59.58 E.01314
G1 X138.071 Y46.459 E.4114
G1 X137.652 Y46.459 E.01314
G1 X137.652 Y59.58 E.4114
G1 X137.234 Y59.58 E.01311
G1 X137.234 Y46.459 E.4114
G1 X136.815 Y46.459 E.01314
G1 X136.815 Y59.58 E.4114
G1 X136.396 Y59.58 E.01314
G1 X136.396 Y46.459 E.4114
G1 X135.977 Y46.459 E.01314
G1 X135.977 Y59.58 E.4114
G1 X135.558 Y59.58 E.01314
G1 X135.558 Y46.459 E.4114
G1 X135.139 Y46.459 E.01314
G1 X135.139 Y59.58 E.4114
G1 X134.72 Y59.58 E.01314
G1 X134.72 Y46.459 E.4114
G1 X134.301 Y46.459 E.01314
G1 X134.301 Y59.58 E.4114
G1 X133.882 Y59.58 E.01314
G1 X133.882 Y46.459 E.4114
G1 X133.463 Y46.459 E.01314
G1 X133.463 Y59.58 E.4114
G1 X133.044 Y59.58 E.01314
G1 X133.044 Y46.459 E.4114
G1 X132.625 Y46.459 E.01314
G1 X132.625 Y59.58 E.4114
G1 X132.206 Y59.58 E.01314
G1 X132.206 Y46.459 E.4114
G1 X131.787 Y46.459 E.01314
G1 X131.787 Y59.58 E.4114
G1 X131.368 Y59.58 E.01314
G1 X131.368 Y46.459 E.4114
G1 X130.949 Y46.459 E.01314
G1 X130.949 Y59.58 E.4114
G1 X130.53 Y59.58 E.01314
G1 X130.53 Y46.459 E.4114
G1 X130.111 Y46.459 E.01314
G1 X130.111 Y59.58 E.4114
G1 X129.692 Y59.58 E.01314
G1 X129.692 Y46.459 E.4114
G1 X129.273 Y46.459 E.01314
G1 X129.273 Y59.58 E.4114
G1 X128.854 Y59.58 E.01314
G1 X128.854 Y46.459 E.4114
G1 X128.435 Y46.459 E.01314
G1 X128.435 Y59.58 E.4114
G1 X128.016 Y59.58 E.01314
G1 X128.016 Y46.459 E.4114
G1 X127.597 Y46.459 E.01314
G1 X127.597 Y59.58 E.4114
G1 X127.178 Y59.58 E.01314
G1 X127.178 Y46.459 E.4114
G1 X126.759 Y46.459 E.01314
G1 X126.759 Y59.58 E.4114
G1 X126.34 Y59.58 E.01314
G1 X126.34 Y46.459 E.4114
G1 X125.921 Y46.459 E.01314
G1 X125.921 Y59.58 E.4114
G1 X125.502 Y59.58 E.01314
G1 X125.502 Y46.459 E.4114
G1 X125.083 Y46.459 E.01314
G1 X125.083 Y59.58 E.4114
G1 X124.664 Y59.58 E.01314
G1 X124.664 Y46.459 E.4114
G1 X124.245 Y46.459 E.01314
G1 X124.245 Y59.58 E.4114
G1 X123.826 Y59.58 E.01314
G1 X123.826 Y46.459 E.4114
G1 X123.407 Y46.459 E.01314
G1 X123.407 Y59.58 E.4114
G1 X122.988 Y59.58 E.01314
G1 X122.988 Y46.459 E.4114
G1 X122.569 Y46.459 E.01314
G1 X122.569 Y59.58 E.4114
G1 X122.15 Y59.58 E.01314
G1 X122.15 Y46.459 E.4114
G1 X121.731 Y46.459 E.01314
G1 X121.731 Y59.58 E.4114
G1 X121.312 Y59.58 E.01314
G1 X121.312 Y46.459 E.4114
G1 X120.893 Y46.459 E.01314
G1 X120.893 Y59.58 E.4114
G1 X120.474 Y59.58 E.01314
G1 X120.474 Y46.459 E.4114
G1 X120.055 Y46.459 E.01314
G1 X120.055 Y59.58 E.4114
G1 X119.636 Y59.58 E.01314
G1 X119.636 Y46.459 E.4114
G1 X119.218 Y46.459 E.01311
G1 X119.217 Y59.58 E.4114
G1 X118.799 Y59.58 E.01311
G1 X118.799 Y46.459 E.4114
G1 X118.38 Y46.459 E.01314
G1 X118.38 Y59.58 E.4114
G1 X117.961 Y59.58 E.01314
G1 X117.961 Y46.459 E.4114
G1 X117.542 Y46.459 E.01314
G1 X117.542 Y59.58 E.4114
G1 X117.123 Y59.58 E.01314
G1 X117.123 Y46.459 E.4114
G1 X116.704 Y46.459 E.01314
G1 X116.704 Y59.58 E.4114
G1 X116.285 Y59.58 E.01314
G1 X116.285 Y46.459 E.4114
G1 X115.866 Y46.459 E.01314
G1 X115.866 Y59.58 E.4114
G1 X115.447 Y59.58 E.01314
G1 X115.447 Y46.459 E.4114
G1 X115.028 Y46.459 E.01314
G1 X115.028 Y59.58 E.4114
G1 X114.609 Y59.58 E.01314
G1 X114.609 Y46.459 E.4114
G1 X114.19 Y46.459 E.01314
G1 X114.19 Y59.58 E.4114
G1 X113.771 Y59.58 E.01314
G1 X113.771 Y46.459 E.4114
G1 X113.352 Y46.459 E.01314
G1 X113.352 Y59.58 E.4114
G1 X112.933 Y59.58 E.01314
G1 X112.933 Y46.459 E.4114
G1 X112.514 Y46.459 E.01314
G1 X112.514 Y59.58 E.4114
G1 X112.095 Y59.58 E.01314
G1 X112.095 Y46.459 E.4114
G1 X111.676 Y46.459 E.01314
G1 X111.676 Y59.58 E.4114
G1 X111.257 Y59.58 E.01314
G1 X111.257 Y46.459 E.4114
G1 X110.838 Y46.459 E.01314
G1 X110.838 Y59.58 E.4114
G1 X110.419 Y59.58 E.01314
G1 X110.419 Y46.459 E.4114
G1 X110 Y46.459 E.01314
G1 X110 Y59.58 E.4114
G1 X109.581 Y59.58 E.01314
G1 X109.581 Y46.459 E.4114
G1 X109.162 Y46.459 E.01314
G1 X109.162 Y59.58 E.4114
G1 X108.743 Y59.58 E.01314
G1 X108.743 Y46.459 E.4114
G1 X108.324 Y46.459 E.01314
G1 X108.324 Y59.58 E.4114
G1 X107.905 Y59.58 E.01314
G1 X107.905 Y46.459 E.4114
G1 X107.486 Y46.459 E.01314
G1 X107.486 Y59.58 E.4114
G1 X107.067 Y59.58 E.01314
G1 X107.067 Y46.459 E.4114
G1 X106.648 Y46.459 E.01314
G1 X106.648 Y59.58 E.4114
G1 X106.229 Y59.58 E.01314
G1 X106.229 Y46.459 E.4114
G1 X105.81 Y46.459 E.01314
G1 X105.81 Y59.58 E.4114
G1 X105.391 Y59.58 E.01314
G1 X105.391 Y46.459 E.4114
G1 X104.972 Y46.459 E.01314
G1 X104.972 Y59.58 E.4114
G1 X104.553 Y59.58 E.01314
G1 X104.553 Y46.459 E.4114
G1 X104.134 Y46.459 E.01314
G1 X104.134 Y59.58 E.4114
G1 X103.715 Y59.58 E.01314
G1 X103.715 Y46.459 E.4114
G1 X103.296 Y46.459 E.01314
G1 X103.296 Y59.58 E.4114
G1 X102.877 Y59.58 E.01314
G1 X102.877 Y46.459 E.4114
G1 X102.458 Y46.459 E.01314
G1 X102.458 Y59.58 E.4114
G1 X102.039 Y59.58 E.01314
G1 X102.039 Y46.459 E.4114
G1 X101.62 Y46.459 E.01314
G1 X101.62 Y59.58 E.4114
G1 X101.201 Y59.58 E.01314
G1 X101.201 Y46.459 E.4114
G1 X100.783 Y46.459 E.01311
G1 X100.783 Y59.58 E.4114
G1 X100.364 Y59.58 E.01314
G1 X100.364 Y46.459 E.4114
G1 X99.945 Y46.459 E.01314
G1 X99.945 Y59.58 E.4114
G1 X99.526 Y59.58 E.01314
G1 X99.526 Y46.459 E.4114
G1 X99.107 Y46.459 E.01314
G1 X99.107 Y59.58 E.4114
G1 X98.688 Y59.58 E.01314
G1 X98.688 Y46.459 E.4114
G1 X98.269 Y46.459 E.01314
G1 X98.269 Y59.58 E.4114
G1 X97.85 Y59.58 E.01314
G1 X97.85 Y46.459 E.4114
G1 X97.431 Y46.459 E.01314
G1 X97.431 Y59.58 E.4114
G1 X97.012 Y59.58 E.01314
G1 X97.012 Y46.459 E.4114
G1 X96.593 Y46.459 E.01314
G1 X96.593 Y59.58 E.4114
G1 X96.174 Y59.58 E.01314
G1 X96.174 Y46.459 E.4114
G1 X95.755 Y46.459 E.01314
G1 X95.755 Y59.58 E.4114
G1 X95.336 Y59.58 E.01314
G1 X95.336 Y46.459 E.4114
G1 X94.917 Y46.459 E.01314
G1 X94.917 Y59.58 E.4114
G1 X94.498 Y59.58 E.01314
G1 X94.498 Y46.459 E.4114
G1 X94.079 Y46.459 E.01314
G1 X94.079 Y59.58 E.4114
G1 X93.66 Y59.58 E.01314
G1 X93.66 Y46.459 E.4114
G1 X93.241 Y46.459 E.01314
G1 X93.241 Y59.58 E.4114
G1 X92.822 Y59.58 E.01314
G1 X92.822 Y46.459 E.4114
G1 X92.403 Y46.459 E.01314
G1 X92.403 Y59.58 E.4114
G1 X91.984 Y59.58 E.01314
G1 X91.984 Y46.459 E.4114
G1 X91.565 Y46.459 E.01314
G1 X91.565 Y59.58 E.4114
G1 X91.146 Y59.58 E.01314
G1 X91.146 Y46.459 E.4114
G1 X90.727 Y46.459 E.01314
G1 X90.727 Y59.58 E.4114
G1 X90.308 Y59.58 E.01314
G1 X90.308 Y46.459 E.4114
G1 X89.889 Y46.459 E.01314
G1 X89.889 Y59.58 E.4114
G1 X89.47 Y59.58 E.01314
G1 X89.47 Y46.459 E.4114
G1 X89.051 Y46.459 E.01314
G1 X89.051 Y59.58 E.4114
G1 X88.632 Y59.58 E.01314
G1 X88.632 Y46.459 E.4114
G1 X88.213 Y46.459 E.01314
G1 X88.213 Y59.58 E.4114
G1 X87.794 Y59.58 E.01314
G1 X87.794 Y46.459 E.4114
G1 X87.375 Y46.459 E.01314
G1 X87.375 Y59.58 E.4114
G1 X86.956 Y59.58 E.01314
G1 X86.956 Y46.459 E.4114
G1 X86.537 Y46.459 E.01314
G1 X86.537 Y59.58 E.4114
G1 X86.118 Y59.58 E.01314
G1 X86.118 Y46.459 E.4114
G1 X85.699 Y46.459 E.01314
G1 X85.699 Y59.58 E.4114
G1 X85.28 Y59.58 E.01314
G1 X85.28 Y46.459 E.4114
G1 X84.861 Y46.459 E.01314
G1 X84.861 Y59.58 E.4114
G1 X84.442 Y59.58 E.01314
G1 X84.442 Y46.459 E.4114
G1 X84.023 Y46.459 E.01314
G1 X84.023 Y59.58 E.4114
G1 X83.604 Y59.58 E.01314
G1 X83.604 Y46.459 E.4114
G1 X83.185 Y46.459 E.01314
G1 X83.185 Y59.58 E.4114
G1 X82.766 Y59.58 E.01314
G1 X82.767 Y46.459 E.4114
G1 X82.348 Y46.459 E.01314
G1 X82.348 Y59.58 E.4114
G1 X81.929 Y59.58 E.01314
G1 X81.929 Y46.459 E.4114
G1 X81.51 Y46.459 E.01314
G1 X81.51 Y59.58 E.4114
G1 X81.091 Y59.58 E.01314
G1 X81.091 Y46.459 E.4114
G1 X80.672 Y46.459 E.01314
G1 X80.672 Y59.58 E.4114
G1 X80.253 Y59.58 E.01314
G1 X80.253 Y46.459 E.4114
G1 X79.834 Y46.459 E.01314
G1 X79.834 Y59.58 E.4114
G1 X79.415 Y59.58 E.01314
G1 X79.415 Y46.459 E.4114
G1 X78.996 Y46.459 E.01314
G1 X78.996 Y59.58 E.4114
G1 X78.577 Y59.58 E.01314
G1 X78.577 Y46.459 E.4114
G1 X78.158 Y46.459 E.01314
G1 X78.158 Y59.58 E.4114
G1 X77.739 Y59.58 E.01314
G1 X77.739 Y46.459 E.4114
G1 X77.32 Y46.459 E.01314
G1 X77.32 Y59.58 E.4114
G1 X76.901 Y59.58 E.01314
G1 X76.901 Y46.459 E.4114
G1 X76.482 Y46.459 E.01314
G1 X76.482 Y59.58 E.4114
G1 X76.063 Y59.58 E.01314
G1 X76.063 Y46.459 E.4114
G1 X75.644 Y46.459 E.01314
G1 X75.644 Y59.58 E.4114
G1 X75.225 Y59.58 E.01314
G1 X75.225 Y46.459 E.4114
G1 X74.806 Y46.459 E.01314
G1 X74.806 Y59.58 E.4114
G1 X74.387 Y59.58 E.01314
G1 X74.387 Y46.459 E.4114
G1 X73.968 Y46.459 E.01314
G1 X73.968 Y59.58 E.4114
G1 X73.549 Y59.58 E.01314
G1 X73.549 Y46.459 E.4114
G1 X73.13 Y46.459 E.01314
G1 X73.13 Y59.58 E.4114
G1 X72.711 Y59.58 E.01314
G1 X72.711 Y46.459 E.4114
G1 X72.292 Y46.459 E.01314
G1 X72.292 Y59.58 E.4114
G1 X71.873 Y59.58 E.01314
G1 X71.873 Y46.459 E.4114
G1 X71.454 Y46.459 E.01314
G1 X71.454 Y59.58 E.4114
G1 X71.035 Y59.58 E.01314
G1 X71.035 Y46.459 E.4114
G1 X70.616 Y46.459 E.01314
G1 X70.616 Y59.58 E.4114
G1 X70.197 Y59.58 E.01314
G1 X70.197 Y46.459 E.4114
G1 X69.778 Y46.459 E.01314
G1 X69.778 Y59.58 E.4114
G1 X69.359 Y59.58 E.01314
G1 X69.359 Y46.459 E.4114
G1 X68.94 Y46.459 E.01314
G1 X68.94 Y59.58 E.4114
G1 X68.521 Y59.58 E.01314
G1 X68.521 Y46.459 E.4114
G1 X68.102 Y46.459 E.01314
G1 X68.102 Y59.58 E.4114
G1 X67.683 Y59.58 E.01314
G1 X67.683 Y46.459 E.4114
G1 X67.264 Y46.459 E.01314
G1 X67.264 Y59.58 E.4114
G1 X66.845 Y59.58 E.01314
G1 X66.845 Y46.459 E.4114
G1 X66.426 Y46.459 E.01314
G1 X66.426 Y59.58 E.4114
G1 X66.007 Y59.58 E.01314
G1 X66.007 Y46.459 E.4114
G1 X65.588 Y46.459 E.01314
G1 X65.588 Y59.58 E.4114
G1 X65.169 Y59.58 E.01314
G1 X65.169 Y46.459 E.4114
G1 X64.75 Y46.459 E.01314
G1 X64.75 Y59.58 E.4114
G1 X64.332 Y59.58 E.01311
G1 X64.332 Y46.459 E.4114
G1 X63.913 Y46.459 E.01314
G1 X63.913 Y59.58 E.4114
G1 X63.494 Y59.58 E.01314
G1 X63.494 Y46.459 E.4114
G1 X63.075 Y46.459 E.01314
G1 X63.075 Y59.58 E.4114
G1 X62.656 Y59.58 E.01314
G1 X62.61 Y46.459 E.4114
G1 X62.61 Y50.41 E.12388
G1 X62.237 Y50.41 E.0117
G1 X62.237 Y63.762 E.41864
G1 X61.818 Y63.762 E.01314
G1 X61.818 Y50.41 E.41864
G1 X61.399 Y50.41 E.01314
G1 X61.399 Y63.762 E.41864
G1 X60.98 Y63.762 E.01314
G1 X60.98 Y50.41 E.41864
G1 X60.561 Y50.41 E.01314
G1 X60.561 Y63.762 E.41864
G1 X60.142 Y63.762 E.01314
