; generated by PrusaSlicer 2.9.0 on 2025-01-19 at 12:03:25 UTC

; 

; external perimeters extrusion width = 0.42mm
; perimeters extrusion width = 0.44mm
; infill extrusion width = 0.44mm
; solid infill extrusion width = 0.44mm
; top infill extrusion width = 0.40mm
; support material extrusion width = 0.36mm
; first layer extrusion width = 0.42mm

M201 X500 Y500 Z100 E5000 ; sets maximum accelerations, mm/sec^2
M203 X500 Y500 Z10 E60 ; sets maximum feedrates, mm / sec
M204 S500 T1000 ; sets acceleration (S) and retract acceleration (R), mm/sec^2
M205 X8.00 Y8.00 Z0.40 E5.00 ; sets the jerk limits, mm/sec
M205 S0 T0 ; sets the minimum extruding and travel feed rate, mm/sec

; printing object 5闪光灯线.STL id:0 copy 0
; stop printing object 5闪光灯线.STL id:0 copy 0

;TYPE:Custom
G90 ; use absolute coordinates
M83 ; extruder relative mode
M104 S150 ; set temporary nozzle temp to prevent oozing during homing
M140 S70 ; set final bed temp
G4 S30 ; allow partial nozzle warmup
G28 ; home all axis
G1 Z50 F240
G1 X2.0 Y10 F3000
M104 S240 ; set final nozzle temp
M190 S70 ; wait for bed temp to stabilize
M109 S240 ; wait for nozzle temp to stabilize
G1 Z0.28 F240
G92 E0
G1 X2.0 Y140 E10 F1500 ; prime the nozzle
G1 X2.3 Y140 F5000
G92 E0
G1 X2.3 Y10 E10 F1200 ; prime the nozzle
G92 E0
G21 ; set units to millimeters
G90 ; use absolute coordinates
M83 ; use relative distances for extrusion
; Filament gcode
M107
;LAYER_CHANGE
;Z:0.2
;HEIGHT:0.2
G1 E-12.5 F2400
G1 Z.2 F9000
G1 X100.312 Y102.905
G1 Z.2
G1 E12.5 F2400
M204 S500
;TYPE:Skirt/Brim
;WIDTH:0.42
G1 F1200
G1 X102.754 Y102.057 E.08105
G1 X113.502 Y102.065 E.337
G1 X114.494 Y102.159 E.03124
G1 X115.945 Y102.531 E.04697
G1 X117.272 Y103.154 E.04596
G1 X118.118 Y103.726 E.03202
G1 X118.848 Y104.368 E.03048
G1 X119.526 Y105.133 E.03205
G1 X120.086 Y105.957 E.03124
G1 X120.72 Y107.301 E.04659
G1 X120.999 Y108.258 E.03126
G1 X121.187 Y109.724 E.04634
G1 X121.158 Y110.745 E.03203
G1 X121.007 Y111.706 E.0305
G1 X120.732 Y112.663 E.03122
G1 X120.328 Y113.603 E.03208
G1 X119.821 Y114.461 E.03125
G1 X118.875 Y115.606 E.04657
G1 X117.738 Y116.551 E.04636
G1 X116.405 Y117.287 E.04774
G1 X114.987 Y117.747 E.04674
G1 X113.502 Y117.935 E.04693
G1 X102.754 Y117.943 E.337
G1 X101.034 Y117.548 E.05533
G1 X99.659 Y116.442 E.05533
G1 X98.811 Y114 E.08105
G1 X98.811 Y106 E.25083
G1 X99.206 Y104.28 E.05533
G1 X100.274 Y102.951 E.05346
G1 X100.274 Y102.951 F9000
G1 X100.58 Y103.215
G1 F1200
G1 X100.679 Y103.101 E.00473
G1 X102.754 Y102.434 E.06834
G1 X113.478 Y102.441 E.33624
G1 X114.905 Y102.621 E.0451
G1 X115.828 Y102.89 E.03014
G1 X117.071 Y103.473 E.04305
G1 X117.878 Y104.017 E.03052
G1 X118.574 Y104.627 E.02902
G1 X119.221 Y105.354 E.03051
G1 X119.756 Y106.139 E.02979
G1 X120.369 Y107.441 E.04512
G1 X120.634 Y108.352 E.02975
G1 X120.81 Y109.725 E.0434
G1 X120.784 Y110.698 E.03052
G1 X120.641 Y111.613 E.02904
G1 X120.381 Y112.526 E.02976
G1 X119.998 Y113.421 E.03052
G1 X119.516 Y114.239 E.02977
G1 X118.6 Y115.348 E.0451
G1 X117.535 Y116.233 E.04342
G1 X116.245 Y116.945 E.0462
G1 X114.917 Y117.377 E.04379
G1 X113.478 Y117.559 E.04548
G1 X102.754 Y117.566 E.33624
G1 X101.124 Y117.171 E.05259
G1 X99.855 Y116.075 E.05257
G1 X99.188 Y114 E.06834
G1 X99.188 Y106 E.25083
G1 X99.583 Y104.37 E.05259
G1 X100.541 Y103.261 E.04595
G1 X100.541 Y103.261 F9000
G1 X100.832 Y103.534
G1 F1200
G1 X101.043 Y103.309 E.00967
G1 X102.754 Y102.811 E.05587
G1 X113.454 Y102.818 E.33549
G1 X114.834 Y102.991 E.04361
G1 X115.712 Y103.248 E.02868
G1 X116.87 Y103.792 E.04012
G1 X117.638 Y104.307 E.02899
G1 X118.3 Y104.886 E.02758
G1 X118.916 Y105.576 E.029
G1 X119.425 Y106.321 E.02829
G1 X120.019 Y107.581 E.04368
G1 X120.268 Y108.445 E.02819
G1 X120.433 Y109.727 E.04053
G1 X120.409 Y110.651 E.02898
G1 X120.276 Y111.52 E.02756
G1 X120.03 Y112.388 E.02829
G1 X119.667 Y113.239 E.02901
G1 X119.211 Y114.017 E.02827
G1 X118.325 Y115.089 E.04361
G1 X117.331 Y115.915 E.04052
G1 X116.084 Y116.604 E.04467
G1 X114.846 Y117.006 E.04081
G1 X113.454 Y117.182 E.04399
G1 X102.754 Y117.189 E.33549
G1 X101.219 Y116.795 E.04969
G1 X100.063 Y115.711 E.04969
G1 X99.565 Y114 E.05587
G1 X99.565 Y106 E.25083
G1 X99.959 Y104.465 E.04969
G1 X100.791 Y103.578 E.03813
G1 E-8.75 F2400
;WIPE_START
G1 F7200
G1 X100.832 Y103.534 E-.01904
G1 X101.043 Y103.309 E-.09768
G1 X102.754 Y102.811 E-.5643
G1 X112.446 Y102.817 E-3.06898
;WIPE_END
; printing object 5闪光灯线.STL id:0 copy 0
G1 X111 Y108.741 F9000
G1 E12.5 F2400
;TYPE:Perimeter
;WIDTH:0.419999
G1 F1200
G1 X111.02 Y108.697 E.00152
G1 X111.272 Y108.338 E.01375
G1 X111.582 Y108.027 E.01377
G1 X111.939 Y107.773 E.01374
G1 X112.334 Y107.583 E.01374
G1 X112.756 Y107.462 E.01376
G1 X113.208 Y107.418 E.01424
G1 X113.63 Y107.442 E.01325
G1 X114.202 Y107.6 E.01861
G1 X114.753 Y107.893 E.01957
G1 X115.154 Y108.246 E.01675
G1 X115.426 Y108.598 E.01395
G1 X115.63 Y108.979 E.01355
G1 X115.788 Y109.51 E.01737
G1 X115.834 Y109.826 E.01001
G1 X115.826 Y110.269 E.01389
G1 X115.712 Y110.79 E.01672
G1 X115.59 Y111.109 E.01071
G1 X115.369 Y111.488 E.01376
G1 X115.03 Y111.874 E.01611
G1 X114.753 Y112.107 E.01135
G1 X114.202 Y112.4 E.01957
G1 X113.63 Y112.558 E.01861
G1 X113.096 Y112.581 E.01676
G1 X112.662 Y112.517 E.01375
G1 X112.265 Y112.388 E.01309
G1 X111.858 Y112.177 E.01437
G1 X111.51 Y111.909 E.01377
G1 X111.212 Y111.587 E.01376
G1 X110.973 Y111.219 E.01376
G1 X110.8 Y110.816 E.01375
G1 X110.698 Y110.39 E.01373
G1 X110.668 Y109.952 E.01377
G1 X110.714 Y109.516 E.01375
G1 X110.832 Y109.093 E.01377
G1 X110.974 Y108.795 E.01035
G1 X110.974 Y108.795 F9000
G1 X111.326 Y108.923
;TYPE:External perimeter
G1 F1200
G1 X111.333 Y108.908 E.00052
G1 X111.545 Y108.599 E.01175
G1 X111.806 Y108.331 E.01173
G1 X112.109 Y108.11 E.01176
G1 X112.445 Y107.944 E.01175
G1 X112.804 Y107.836 E.01175
G1 X113.195 Y107.795 E.01233
G1 X113.55 Y107.81 E.01114
G1 X114.061 Y107.95 E.01661
G1 X114.555 Y108.214 E.01756
G1 X114.943 Y108.584 E.01681
G1 X115.261 Y109.075 E.01834
G1 X115.416 Y109.573 E.01635
G1 X115.457 Y110.174 E.01889
G1 X115.356 Y110.664 E.01569
G1 X115.261 Y110.925 E.00871
G1 X114.946 Y111.411 E.01816
G1 X114.581 Y111.767 E.01599
G1 X114.235 Y111.98 E.01274
G1 X113.831 Y112.129 E.0135
G1 X113.519 Y112.194 E.00999
G1 X113.144 Y112.207 E.01176
G1 X112.773 Y112.157 E.01174
G1 X112.432 Y112.05 E.01121
G1 X112.082 Y111.873 E.0123
G1 X111.782 Y111.648 E.01176
G1 X111.525 Y111.376 E.01173
G1 X111.317 Y111.064 E.01176
G1 X111.165 Y110.721 E.01176
G1 X111.073 Y110.358 E.01174
G1 X111.044 Y109.984 E.01176
G1 X111.079 Y109.611 E.01175
G1 X111.176 Y109.249 E.01175
G1 X111.301 Y108.977 E.00939
G1 E-8.75 F2400
;WIPE_START
G1 F7200
G1 X111.326 Y108.923 E-.01884
G1 X111.333 Y108.908 E-.00524
G1 X111.545 Y108.599 E-.11867
G1 X111.806 Y108.331 E-.11846
G1 X112.109 Y108.11 E-.11876
G1 X112.445 Y107.944 E-.11868
G1 X112.804 Y107.836 E-.11872
G1 X113.195 Y107.795 E-.1245
G1 X113.55 Y107.81 E-.11252
G1 X114.061 Y107.95 E-.16778
G1 X114.555 Y108.214 E-.17737
G1 X114.943 Y108.584 E-.16978
G1 X115.261 Y109.075 E-.18524
G1 X115.416 Y109.573 E-.16516
G1 X115.457 Y110.174 E-.19076
G1 X115.356 Y110.664 E-.15843
G1 X115.261 Y110.925 E-.08795
G1 X114.946 Y111.411 E-.1834
G1 X114.581 Y111.767 E-.16146
G1 X114.235 Y111.98 E-.12866
G1 X113.831 Y112.129 E-.13636
G1 X113.519 Y112.194 E-.10092
G1 X113.144 Y112.207 E-.11882
G1 X112.773 Y112.157 E-.11855
G1 X112.432 Y112.05 E-.11317
G1 X112.082 Y111.873 E-.1242
G1 X111.782 Y111.648 E-.11875
G1 X111.525 Y111.376 E-.1185
G1 X111.317 Y111.064 E-.11874
G1 X111.251 Y110.915 E-.05161
;WIPE_END
G1 X103.818 Y107.064 F9000
G1 E12.5 F2400
;TYPE:Perimeter
G1 F1200
G1 X112.024 Y107.064 E.25729
;WIDTH:0.451038
G1 X112.662 Y107.08 E.02166
G1 X112.224 Y107.223 E.01564
;WIDTH:0.419999
G1 X111.769 Y107.437 E.01577
G1 X111.358 Y107.724 E.01572
G1 X111 Y108.078 E.01579
G1 X110.708 Y108.486 E.01573
G1 X110.489 Y108.938 E.01575
G1 X110.349 Y109.421 E.01577
G1 X110.293 Y109.92 E.01574
G1 X110.322 Y110.422 E.01577
G1 X110.435 Y110.911 E.01574
G1 X110.63 Y111.374 E.01575
G1 X110.9 Y111.798 E.01576
G1 X111.238 Y112.17 E.01576
G1 X111.633 Y112.48 E.01574
G1 X112.098 Y112.726 E.01649
;WIDTH:0.444364
G1 X112.707 Y112.924 E.02138
G1 X112.217 Y112.936 E.01636
;WIDTH:0.419999
G1 X103.818 Y112.936 E.26334
G1 X103.818 Y107.124 E.18223
G1 E-8.75 F2400
;WIPE_START
G1 F7200
G1 X103.818 Y107.064 E-.019
G1 X112.024 Y107.064 E-2.59857
G1 X112.662 Y107.08 E-.2021
G1 X112.224 Y107.223 E-.14591
G1 X111.769 Y107.437 E-.15922
G1 X111.358 Y107.724 E-.15874
G1 X111 Y108.078 E-.15943
G1 X110.708 Y108.486 E-.15888
G1 X110.504 Y108.907 E-.14815
;WIPE_END
G1 X112.662 Y107.08 F9000
G1 E12.5 F2400
;WIDTH:0.451038
G1 F1200
G1 X112.923 Y107.066 E.00887
;WIDTH:0.423387
G1 X113.184 Y107.052 E.00827
;WIDTH:0.395736
G1 X113.683 Y107.085 E.01467
;WIDTH:0.38654
G1 X114.191 Y107.208 E.01493
;WIDTH:0.392876
G1 X114.674 Y107.417 E.01531
G1 X115.068 Y107.679 E.01377
;WIDTH:0.39583
G1 X115.52 Y108.118 E.01849
G1 X115.743 Y108.421 E.01104
;WIDTH:0.391818
G1 X115.969 Y108.859 E.0143
;WIDTH:0.395932
G1 X116.148 Y109.448 E.01807
G1 X116.196 Y109.826 E.01118
;WIDTH:0.390996
G1 X116.181 Y110.33 E.01459
;WIDTH:0.395464
G1 X116.056 Y110.911 E.01742
G1 X115.906 Y111.285 E.01181
;WIDTH:0.389538
G1 X115.649 Y111.714 E.01441
;WIDTH:0.394914
G1 X115.271 Y112.148 E.01684
G1 X114.942 Y112.415 E.0124
;WIDTH:0.396408
G1 X114.338 Y112.739 E.02015
G1 X113.706 Y112.911 E.01925
;WIDTH:0.393068
G1 X113.168 Y112.949 E.0157
;WIDTH:0.418716
G1 X112.937 Y112.936 E.00723
;WIDTH:0.444364
G1 X112.707 Y112.924 E.00769
G1 E-8.75 F2400
;WIPE_START
G1 F7200
G1 X112.662 Y107.08 E-1.85065
G1 X112.923 Y107.066 E-.08277
G1 X113.184 Y107.052 E-.08277
G1 X113.683 Y107.085 E-.15836
G1 X114.191 Y107.208 E-.16551
G1 X114.674 Y107.417 E-.16666
G1 X115.068 Y107.679 E-.14983
G1 X115.52 Y108.118 E-.19953
G1 X115.743 Y108.421 E-.11913
G1 X115.969 Y108.859 E-.15608
G1 X116.148 Y109.448 E-.19494
G1 X116.196 Y109.826 E-.12066
G1 X116.181 Y110.33 E-.15967
G1 X116.085 Y110.773 E-.14344
;WIPE_END
G1 X103.441 Y113.313 F9000
G1 E12.5 F2400
;WIDTH:0.419999
G1 F1200
G1 X103.441 Y106.687 E.20775
G1 X113.244 Y106.688 E.30737
G1 X113.773 Y106.735 E.01665
G1 X114.302 Y106.866 E.01709
G1 X114.869 Y107.11 E.01935
G1 X115.298 Y107.401 E.01625
G1 X115.696 Y107.773 E.01708
G1 X116.061 Y108.246 E.01873
G1 X116.304 Y108.726 E.01687
G1 X116.472 Y109.244 E.01707
G1 X116.559 Y109.815 E.01811
G1 X116.538 Y110.375 E.01757
G1 X116.433 Y110.907 E.017
G1 X116.223 Y111.459 E.01852
G1 X115.94 Y111.925 E.01709
G1 X115.537 Y112.397 E.01946
G1 X115.147 Y112.713 E.01574
G1 X114.711 Y112.967 E.01582
G1 X114.243 Y113.154 E.0158
G1 X113.752 Y113.27 E.01582
G1 X113.232 Y113.313 E.01636
G1 X103.501 Y113.313 E.30511
G1 X103.064 Y113.69 F9000
;TYPE:External perimeter
G1 F1200
G1 X103.064 Y106.31 E.23139
G1 X113.033 Y106.31 E.31257
G1 X113.615 Y106.333 E.01826
G1 X114.125 Y106.418 E.01621
G1 X114.612 Y106.57 E.016
G1 X115.071 Y106.792 E.01599
G1 X115.538 Y107.111 E.01773
G1 X115.924 Y107.464 E.0164
G1 X116.271 Y107.889 E.0172
G1 X116.554 Y108.359 E.0172
G1 X116.746 Y108.817 E.01557
G1 X116.878 Y109.309 E.01597
G1 X116.936 Y109.815 E.01597
G1 X116.912 Y110.422 E.01905
G1 X116.819 Y110.92 E.01588
G1 X116.642 Y111.445 E.01737
G1 X116.391 Y111.936 E.01729
G1 X116.097 Y112.352 E.01597
G1 X115.744 Y112.719 E.01597
G1 X115.338 Y113.038 E.01619
G1 X114.823 Y113.331 E.01858
G1 X114.269 Y113.542 E.01859
G1 X113.762 Y113.652 E.01627
G1 X113.244 Y113.69 E.01629
G1 X103.124 Y113.69 E.3173
G1 E-8.75 F2400
;WIPE_START
G1 F7200
G1 X103.064 Y113.69 E-.019
G1 X103.064 Y106.31 E-2.337
G1 X107.466 Y106.31 E-1.394
;WIPE_END
G1 X111.2 Y107.708 F9000
G1 E12.5 F2400
;TYPE:Solid infill
;WIDTH:0.432787
G1 F1200
G1 X110.846 Y107.355 E.01621
G1 X110.294 Y107.355 E.01789
G1 X110.803 Y107.863 E.02331
G1 X110.57 Y108.181 E.01278
G1 X109.743 Y107.355 E.03789
G1 X109.192 Y107.355 E.01786
G1 X110.366 Y108.529 E.05382
G1 X110.192 Y108.907 E.01349
G1 X108.64 Y107.355 E.07115
G1 X108.089 Y107.355 E.01786
G1 X110.079 Y109.345 E.09123
G1 X110.033 Y109.547 E.00672
G1 X110.012 Y109.829 E.00917
G1 X107.538 Y107.355 E.11342
G1 X106.986 Y107.355 E.01789
G1 X110.029 Y110.397 E.13948
G1 X110.155 Y110.99 E.01965
G1 X110.216 Y111.136 E.00513
G1 X106.435 Y107.355 E.17334
G1 X105.884 Y107.355 E.01786
G1 X111.175 Y112.645 E.24254
G1 X110.623 Y112.645 E.01789
G1 X105.332 Y107.355 E.24254
G1 X104.781 Y107.355 E.01786
G1 X110.072 Y112.645 E.24254
G1 X109.521 Y112.645 E.01786
G1 X104.23 Y107.355 E.24254
G1 X104.108 Y107.355 E.00395
G1 X104.108 Y107.785 E.01394
G1 X108.969 Y112.645 E.22283
G1 X108.418 Y112.645 E.01786
G1 X104.108 Y108.336 E.19757
G1 X104.108 Y108.887 E.01786
G1 X107.866 Y112.645 E.17229
G1 X107.315 Y112.645 E.01786
G1 X104.108 Y109.439 E.147
G1 X104.108 Y109.99 E.01786
G1 X106.764 Y112.645 E.12174
G1 X106.212 Y112.645 E.01789
G1 X104.108 Y110.542 E.09644
G1 X104.108 Y111.093 E.01786
G1 X105.661 Y112.645 E.07117
G1 X105.11 Y112.645 E.01786
G1 X104.108 Y111.644 E.04591
G1 X104.108 Y112.196 E.01789
G1 X104.728 Y112.815 E.0284
;LAYER_CHANGE
;Z:0.4
;HEIGHT:0.2
;BEFORE_LAYER_CHANGE
G92 E0
;0.4


G1 E-8.75 F2400
;WIPE_START
G1 F7200
G1 X104.108 Y112.196 E-.27743
G1 X104.108 Y111.644 E-.1748
G1 X105.11 Y112.645 E-.44851
G1 X105.661 Y112.645 E-.17448
G1 X104.108 Y111.093 E-.69526
G1 X104.108 Y110.542 E-.17448
G1 X106.212 Y112.645 E-.94202
G1 X106.764 Y112.645 E-.1748
G1 X105.227 Y111.109 E-.68822
;WIPE_END
G1 Z.4 F9000
;AFTER_LAYER_CHANGE
;0.4
M104 S235 ; set temperature
; stop printing object 5闪光灯线.STL id:0 copy 0
G1 X104.732 Y117.941
G1 E12.5 F2400
;TYPE:Skirt/Brim
;WIDTH:0.42
G1 X102.754 Y117.943 E.06202
G1 X101.034 Y117.548 E.05533
G1 X99.659 Y116.442 E.05533
G1 X98.811 Y114 E.08105
G1 X98.811 Y106 E.25083
G1 X99.206 Y104.28 E.05533
G1 X100.312 Y102.905 E.05533
G1 X102.754 Y102.057 E.08105
G1 X113.502 Y102.065 E.337
G1 X114.494 Y102.159 E.03124
G1 X115.945 Y102.531 E.04697
G1 X117.272 Y103.154 E.04596
G1 X118.118 Y103.726 E.03202
G1 X118.848 Y104.368 E.03048
G1 X119.526 Y105.133 E.03205
G1 X120.086 Y105.957 E.03124
G1 X120.72 Y107.301 E.04659
G1 X120.999 Y108.258 E.03126
G1 X121.187 Y109.724 E.04634
G1 X121.158 Y110.745 E.03203
G1 X121.007 Y111.706 E.0305
G1 X120.732 Y112.663 E.03122
G1 X120.328 Y113.603 E.03208
G1 X119.821 Y114.461 E.03125
G1 X118.875 Y115.606 E.04657
G1 X117.738 Y116.551 E.04636
G1 X116.405 Y117.287 E.04774
G1 X114.987 Y117.747 E.04674
G1 X113.502 Y117.935 E.04693
G1 X104.792 Y117.941 E.2731
G1 X104.792 Y117.941 F9000
G1 X104.792 Y117.564
G1 F2400
G1 X102.754 Y117.566 E.0639
G1 X101.124 Y117.171 E.05259
G1 X99.855 Y116.075 E.05257
G1 X99.188 Y114 E.06834
G1 X99.188 Y106 E.25083
G1 X99.583 Y104.37 E.05259
G1 X100.679 Y103.101 E.05257
G1 X102.754 Y102.434 E.06834
G1 X113.478 Y102.441 E.33624
G1 X114.905 Y102.621 E.0451
G1 X115.828 Y102.89 E.03014
G1 X117.071 Y103.473 E.04305
G1 X117.878 Y104.017 E.03052
G1 X118.574 Y104.627 E.02902
G1 X119.221 Y105.354 E.03051
G1 X119.756 Y106.139 E.02979
G1 X120.369 Y107.441 E.04512
G1 X120.634 Y108.352 E.02975
G1 X120.81 Y109.725 E.0434
G1 X120.784 Y110.698 E.03052
G1 X120.641 Y111.613 E.02904
G1 X120.381 Y112.526 E.02976
G1 X119.998 Y113.421 E.03052
G1 X119.516 Y114.239 E.02977
G1 X118.6 Y115.348 E.0451
G1 X117.535 Y116.233 E.04342
G1 X116.245 Y116.945 E.0462
G1 X114.917 Y117.377 E.04379
G1 X113.478 Y117.559 E.04548
G1 X104.852 Y117.564 E.27046
G1 X104.852 Y117.564 F9000
G1 X104.851 Y117.187
G1 F2400
G1 X102.754 Y117.189 E.06575
G1 X101.219 Y116.795 E.04969
G1 X100.063 Y115.711 E.04969
G1 X99.565 Y114 E.05587
G1 X99.565 Y106 E.25083
G1 X99.959 Y104.465 E.04969
G1 X101.043 Y103.309 E.04969
G1 X102.754 Y102.811 E.05587
G1 X113.454 Y102.818 E.33549
G1 X114.834 Y102.991 E.04361
G1 X115.712 Y103.248 E.02868
G1 X116.87 Y103.792 E.04012
G1 X117.638 Y104.307 E.02899
G1 X118.3 Y104.886 E.02758
G1 X118.916 Y105.576 E.029
G1 X119.425 Y106.321 E.02829
G1 X120.019 Y107.581 E.04368
G1 X120.268 Y108.445 E.02819
G1 X120.433 Y109.727 E.04053
G1 X120.409 Y110.651 E.02898
G1 X120.276 Y111.52 E.02756
G1 X120.03 Y112.388 E.02829
G1 X119.667 Y113.239 E.02901
