; generated by PrusaSlicer 2.7.4+win64 on 2024-06-30 at 10:16:14 UTC

; 

; external perimeters extrusion width = 0.42mm
; perimeters extrusion width = 0.44mm
; infill extrusion width = 0.44mm
; solid infill extrusion width = 0.44mm
; top infill extrusion width = 0.40mm
; support material extrusion width = 0.36mm
; first layer extrusion width = 0.42mm

M201 X500 Y500 Z100 E5000 ; sets maximum accelerations, mm/sec^2
M203 X500 Y500 Z10 E60 ; sets maximum feedrates, mm / sec
M204 S500 T1000 ; sets acceleration (S) and retract acceleration (R), mm/sec^2
M205 X8.00 Y8.00 Z0.40 E5.00 ; sets the jerk limits, mm/sec
M205 S0 T0 ; sets the minimum extruding and travel feed rate, mm/sec

; printing object 1吐片钣金固定销.STL id:0 copy 0
; stop printing object 1吐片钣金固定销.STL id:0 copy 0
; printing object 1吐片钣金固定销.STL id:0 copy 1
; stop printing object 1吐片钣金固定销.STL id:0 copy 1

;TYPE:Custom
G90 ; use absolute coordinates
M83 ; extruder relative mode
M104 S150 ; set temporary nozzle temp to prevent oozing during homing
M140 S60 ; set final bed temp
G4 S30 ; allow partial nozzle warmup
G28 ; home all axis
G1 Z50 F240
G1 X2.0 Y10 F3000
M104 S205 ; set final nozzle temp
M190 S60 ; wait for bed temp to stabilize
M109 S205 ; wait for nozzle temp to stabilize
G1 Z0.28 F240
G92 E0
G1 X2.0 Y140 E10 F1500 ; prime the nozzle
G1 X2.3 Y140 F5000
G92 E0
G1 X2.3 Y10 E10 F1200 ; prime the nozzle
G92 E0
G21 ; set units to millimeters
G90 ; use absolute coordinates
M83 ; use relative distances for extrusion
; Filament gcode
M107
;LAYER_CHANGE
;Z:0.2
;HEIGHT:0.2
G1 E-12.5 F2700
G1 Z.2 F9000
G1 X98.145 Y97.617
G1 Z.2
G1 E12.5 F2400
M204 S500
;TYPE:Skirt/Brim
;WIDTH:0.42
G1 F1200
G1 X99.005 Y96.814 E.03689
G1 X100.474 Y95.913 E.05403
G1 X102.076 Y95.393 E.05281
G1 X103.5 Y95.246 E.04489
G1 X116.795 Y95.257 E.41686
G1 X117.924 Y95.393 E.03565
G1 X119.018 Y95.703 E.03565
G1 X120.418 Y96.406 E.04912
G1 X121.413 Y97.17 E.03933
G1 X122.186 Y98.005 E.03568
G1 X122.819 Y98.949 E.03564
G1 X123.297 Y99.982 E.03569
G1 X123.607 Y101.076 E.03565
G1 X123.754 Y102.5 E.04489
G1 X123.743 Y117.795 E.47956
G1 X123.479 Y119.458 E.0528
G1 X122.819 Y121.051 E.05406
G1 X121.83 Y122.413 E.05278
G1 X120.519 Y123.533 E.05406
G1 X119.018 Y124.297 E.05281
G1 X117.342 Y124.699 E.05404
G1 X116.5 Y124.754 E.02646
G1 X103.205 Y124.743 E.41686
G1 X101.542 Y124.479 E.0528
G1 X99.949 Y123.819 E.05406
G1 X98.587 Y122.83 E.05278
G1 X97.467 Y121.519 E.05406
G1 X96.703 Y120.018 E.05281
G1 X96.301 Y118.342 E.05404
G1 X96.246 Y117.5 E.02646
G1 X96.257 Y102.205 E.47956
G1 X96.521 Y100.542 E.0528
G1 X97.181 Y98.949 E.05406
G1 X98.11 Y97.665 E.04969
G1 X98.11 Y97.665 F9000
G1 X98.414 Y97.886
G1 F1200
G1 X98.432 Y97.862 E.00094
G1 X99.25 Y97.1 E.03505
G1 X100.619 Y96.261 E.05034
G1 X102.164 Y95.759 E.05094
G1 X103.5 Y95.623 E.04211
G1 X116.765 Y95.633 E.41591
G1 X117.836 Y95.759 E.03381
G1 X119.345 Y96.246 E.04972
G1 X120.322 Y96.789 E.03505
G1 X121.168 Y97.457 E.0338
G1 X121.9 Y98.25 E.03384
G1 X122.498 Y99.147 E.0338
G1 X122.949 Y100.126 E.0338
G1 X123.241 Y101.164 E.03381
G1 X123.377 Y102.5 E.04211
G1 X123.377 Y117.5 E.47031
G1 X123.324 Y118.312 E.02551
G1 X123.112 Y119.37 E.03383
G1 X122.498 Y120.853 E.05033
G1 X121.543 Y122.168 E.05096
G1 X120.322 Y123.211 E.05035
G1 X118.874 Y123.949 E.05096
G1 X117.312 Y124.324 E.05037
G1 X116.5 Y124.377 E.02551
G1 X103.235 Y124.367 E.41591
G1 X101.63 Y124.112 E.05095
G1 X100.147 Y123.498 E.05033
G1 X98.832 Y122.543 E.05096
G1 X97.789 Y121.322 E.05035
G1 X97.051 Y119.874 E.05096
G1 X96.676 Y118.312 E.05037
G1 X96.623 Y117.5 E.02551
G1 X96.633 Y102.235 E.47862
G1 X96.888 Y100.63 E.05095
G1 X97.502 Y99.147 E.05033
G1 X98.379 Y97.934 E.04693
G1 E-8.75 F2700
;WIPE_START
G1 F7200
G1 X98.414 Y97.886 E-.02116
G1 X98.432 Y97.862 E-.01069
G1 X99.25 Y97.1 E-.39826
G1 X100.619 Y96.261 E-.57201
G1 X102.164 Y95.759 E-.57873
G1 X103.5 Y95.623 E-.47841
G1 X108.246 Y95.627 E-1.69074
;WIPE_END
; printing object 1吐片钣金固定销.STL id:0 copy 0
G1 X114.093 Y103.74 F9000
G1 E12.5 F2400
;TYPE:Perimeter
;WIDTH:0.419999
G1 F1200
G1 X114.273 Y104.048 E.01119
G1 X114.566 Y104.402 E.01441
G1 X114.916 Y104.701 E.01443
G1 X115.456 Y105.003 E.0194
G1 X115.934 Y105.15 E.01568
G1 X116.5 Y105.214 E.01786
G1 X117.066 Y105.15 E.01786
G1 X117.544 Y105.003 E.01568
G1 X117.952 Y104.791 E.01442
G1 X118.318 Y104.513 E.01441
G1 X118.632 Y104.176 E.01444
G1 X118.936 Y103.691 E.01795
G1 X118.936 Y117.362 E.42864
G1 X118.918 Y117.691 E.01033
G1 X118.813 Y118.252 E.0179
G1 X118.567 Y118.768 E.01792
G1 X118.22 Y119.22 E.01787
G1 X117.765 Y119.569 E.01798
G1 X117.252 Y119.813 E.01781
G1 X116.689 Y119.915 E.01794
G1 X116.119 Y119.903 E.01788
G1 X115.571 Y119.74 E.01793
G1 X115.07 Y119.468 E.01787
G1 X114.654 Y119.073 E.01799
G1 X114.333 Y118.604 E.01782
G1 X114.146 Y118.072 E.01768
G1 X114.064 Y117.458 E.01942
G1 X114.064 Y103.694 E.43156
G1 X114.064 Y103.694 F9000
G1 X114.42 Y103.554
G1 F1200
G1 X114.393 Y103.509 E.00165
;WIDTH:0.448759
G1 X114.277 Y103.179 E.0118
;WIDTH:0.477519
G1 X114.161 Y102.85 E.01261
G1 X114.146 Y102.35 E.01808
;WIDTH:0.470735
G1 X114.26 Y101.768 E.0211
G1 X114.466 Y101.306 E.01799
;WIDTH:0.470631
G1 X114.83 Y100.837 E.02111
G1 X115.307 Y100.466 E.02149
;WIDTH:0.468555
G1 X115.772 Y100.256 E.01806
G1 X116.369 Y100.15 E.02146
;WIDTH:0.468418
G1 X116.875 Y100.169 E.01792
;WIDTH:0.467954
G1 X117.333 Y100.293 E.01677
;WIDTH:0.465216
G1 X117.693 Y100.466 E.01402
;WIDTH:0.470629
G1 X118.17 Y100.837 E.02149
G1 X118.51 Y101.264 E.01941
;WIDTH:0.470734
G1 X118.74 Y101.768 E.01971
G1 X118.854 Y102.35 E.0211
;WIDTH:0.477519
G1 X118.839 Y102.85 E.01808
G1 X118.723 Y103.179 E.01261
;WIDTH:0.448759
G1 X118.607 Y103.509 E.0118
;WIDTH:0.419999
G1 X118.349 Y103.927 E.0154
G1 X118.081 Y104.219 E.01243
G1 X117.768 Y104.462 E.01242
G1 X117.418 Y104.648 E.01243
G1 X117.018 Y104.776 E.01317
G1 X116.5 Y104.837 E.01635
G1 X115.982 Y104.776 E.01635
G1 X115.494 Y104.608 E.01618
G1 X115.152 Y104.408 E.01242
G1 X114.849 Y104.153 E.01242
G1 X114.594 Y103.85 E.01242
G1 X114.45 Y103.606 E.00888
G1 X114.45 Y103.606 F9000
G1 X114.743 Y103.368
;TYPE:External perimeter
G1 F1200
G1 X114.621 Y103.059 E.01042
G1 X114.545 Y102.51 E.01738
G1 X114.588 Y102.071 E.01383
G1 X114.76 Y101.611 E.0154
G1 X115.039 Y101.193 E.01576
G1 X115.333 Y100.93 E.01237
G1 X115.832 Y100.658 E.01782
G1 X116.439 Y100.545 E.01936
G1 X116.847 Y100.571 E.01282
G1 X117.168 Y100.658 E.01043
G1 X117.667 Y100.93 E.01782
G1 X117.982 Y101.217 E.01336
G1 X118.24 Y101.611 E.01477
G1 X118.415 Y102.083 E.01578
G1 X118.455 Y102.51 E.01345
G1 X118.379 Y103.059 E.01738
G1 X118.243 Y103.397 E.01142
G1 X118.066 Y103.678 E.01041
G1 X117.844 Y103.926 E.01044
G1 X117.584 Y104.133 E.01042
G1 X117.293 Y104.292 E.0104
G1 X116.97 Y104.402 E.0107
G1 X116.476 Y104.459 E.01559
G1 X115.991 Y104.392 E.01535
G1 X115.678 Y104.279 E.01043
G1 X115.389 Y104.115 E.01042
G1 X115.132 Y103.904 E.01043
G1 X114.915 Y103.652 E.01043
G1 X114.774 Y103.419 E.00854
G1 E-8.75 F2700
;WIPE_START
G1 F7200
G1 X114.743 Y103.368 E-.02126
G1 X114.621 Y103.059 E-.11835
G1 X114.545 Y102.51 E-.19745
G1 X114.588 Y102.071 E-.15714
G1 X114.76 Y101.611 E-.17496
G1 X115.039 Y101.193 E-.17904
G1 X115.333 Y100.93 E-.14053
G1 X115.832 Y100.658 E-.20246
G1 X116.439 Y100.545 E-.21996
G1 X116.847 Y100.571 E-.14564
G1 X117.168 Y100.658 E-.11848
G1 X117.667 Y100.93 E-.20246
G1 X117.982 Y101.217 E-.15181
G1 X118.24 Y101.611 E-.16778
G1 X118.415 Y102.083 E-.17934
G1 X118.455 Y102.51 E-.15278
G1 X118.379 Y103.059 E-.19745
G1 X118.243 Y103.397 E-.12979
G1 X118.066 Y103.678 E-.11831
G1 X117.844 Y103.926 E-.11858
G1 X117.584 Y104.133 E-.1184
G1 X117.293 Y104.292 E-.11813
G1 X116.97 Y104.402 E-.12156
G1 X116.476 Y104.459 E-.17716
G1 X116.139 Y104.413 E-.12118
;WIPE_END
G1 X113.747 Y102.081 F9000
G1 E12.5 F2400
;TYPE:Perimeter
;WIDTH:0.470735
G1 F1200
G1 X113.857 Y101.624 E.01672
G1 X114.097 Y101.101 E.02047
;WIDTH:0.465137
G1 X114.403 Y100.674 E.01844
;WIDTH:0.466635
G1 X114.801 Y100.297 E.01931
;WIDTH:0.469521
G1 X115.251 Y100.011 E.01891
G1 X115.721 Y99.831 E.01785
;WIDTH:0.469316
G1 X116.316 Y99.728 E.02141
;WIDTH:0.468418
G1 X116.872 Y99.742 E.01968
;WIDTH:0.468628
G1 X117.342 Y99.845 E.01703
;WIDTH:0.46952
G1 X117.749 Y100.011 E.01559
;WIDTH:0.47018
G1 X118.123 Y100.238 E.01554
;WIDTH:0.470629
G1 X118.481 Y100.543 E.01673
G1 X118.832 Y100.985 E.02007
;WIDTH:0.46528
G1 X119.076 Y101.453 E.01854
;WIDTH:0.46635
G1 X119.232 Y101.976 E.01922
;WIDTH:0.471968
G1 X119.287 Y102.536 E.02007
;WIDTH:0.476702
G1 X119.299 Y103.052 E.01862
;WIDTH:0.448351
G1 X119.313 Y103.345 E.00989
;WIDTH:0.419999
G1 X119.313 Y117.362 E.43949
G1 X119.276 Y117.94 E.01816
G1 X119.089 Y118.573 E.0207
G1 X118.774 Y119.152 E.02067
G1 X118.319 Y119.632 E.02074
G1 X117.776 Y120.004 E.02064
G1 X117.162 Y120.223 E.02044
G1 X116.497 Y120.311 E.02103
G1 X115.843 Y120.224 E.02069
G1 X115.224 Y120.004 E.0206
G1 X114.679 Y119.63 E.02072
G1 X114.226 Y119.152 E.02065
G1 X113.914 Y118.58 E.02043
G1 X113.724 Y117.937 E.02102
G1 X113.687 Y117.473 E.01459
G1 X113.687 Y103.345 E.44297
;WIDTH:0.44835
G1 X113.701 Y103.052 E.00989
;WIDTH:0.476701
G1 X113.745 Y102.141 E.0329
G1 X113.745 Y102.141 F9000
G1 X113.35 Y102.001
;TYPE:External perimeter
;WIDTH:0.419999
G1 F1200
G1 X113.467 Y101.515 E.01567
G1 X113.659 Y101.052 E.01572
G1 X113.92 Y100.626 E.01566
G1 X114.245 Y100.245 E.0157
G1 X114.626 Y99.92 E.0157
G1 X115.052 Y99.659 E.01566
G1 X115.515 Y99.467 E.01572
G1 X116.001 Y99.35 E.01567
G1 X116.5 Y99.311 E.01569
G1 X116.999 Y99.35 E.01569
G1 X117.485 Y99.467 E.01567
G1 X117.948 Y99.659 E.01572
G1 X118.374 Y99.92 E.01566
G1 X118.755 Y100.245 E.0157
G1 X119.08 Y100.626 E.0157
G1 X119.341 Y101.052 E.01566
G1 X119.533 Y101.515 E.01572
G1 X119.65 Y102.001 E.01567
G1 X119.69 Y102.536 E.01682
G1 X119.69 Y117.488 E.46881
G1 X119.65 Y117.999 E.01607
G1 X119.533 Y118.485 E.01567
G1 X119.341 Y118.948 E.01572
G1 X119.08 Y119.374 E.01566
G1 X118.755 Y119.755 E.0157
G1 X118.374 Y120.08 E.0157
G1 X117.948 Y120.341 E.01566
G1 X117.485 Y120.533 E.01572
G1 X117.028 Y120.643 E.01474
G1 X116.499 Y120.689 E.01665
G1 X116.001 Y120.65 E.01566
G1 X115.515 Y120.533 E.01567
G1 X115.052 Y120.341 E.01572
G1 X114.626 Y120.08 E.01566
G1 X114.245 Y119.755 E.0157
G1 X113.92 Y119.374 E.0157
G1 X113.659 Y118.948 E.01566
G1 X113.479 Y118.514 E.01473
G1 X113.35 Y117.998 E.01668
G1 X113.31 Y117.488 E.01604
G1 X113.31 Y102.512 E.46956
G1 X113.346 Y102.061 E.01419
G1 E-8.75 F2700
;WIPE_START
G1 F7200
G1 X113.35 Y102.001 E-.02142
G1 X113.467 Y101.515 E-.17808
G1 X113.659 Y101.052 E-.17856
G1 X113.92 Y100.626 E-.17798
G1 X114.245 Y100.245 E-.1784
G1 X114.626 Y99.92 E-.1784
G1 X115.052 Y99.659 E-.17798
G1 X115.515 Y99.467 E-.17856
G1 X116.001 Y99.35 E-.17808
G1 X116.5 Y99.311 E-.17831
G1 X116.999 Y99.35 E-.17831
G1 X117.485 Y99.467 E-.17808
G1 X117.948 Y99.659 E-.17856
G1 X118.374 Y99.92 E-.17798
G1 X118.755 Y100.245 E-.1784
G1 X119.08 Y100.626 E-.1784
G1 X119.341 Y101.052 E-.17798
G1 X119.533 Y101.515 E-.17856
G1 X119.65 Y102.001 E-.17808
G1 X119.69 Y102.536 E-.19113
G1 X119.69 Y103.459 E-.32875
;WIPE_END
G1 X118.815 Y104.909 F9000
G1 E12.5 F2400
;TYPE:Solid infill
;WIDTH:0.427111
G1 F1200
G1 X118.571 Y104.665 E.01102
G1 X118.28 Y104.917 E.0123
G1 X118.645 Y105.283 E.01651
G1 X118.645 Y105.826 E.01735
G1 X117.943 Y105.124 E.03171
G1 X117.827 Y105.194 E.00433
G1 X117.57 Y105.294 E.00881
G1 X118.645 Y106.37 E.04859
G1 X118.645 Y106.913 E.01735
G1 X117.158 Y105.425 E.0672
G1 X116.675 Y105.486 E.01555
G1 X118.645 Y107.456 E.089
G1 X118.645 Y108 E.01738
G1 X116.107 Y105.461 E.11468
G1 X115.893 Y105.437 E.00688
G1 X115.646 Y105.379 E.00811
G1 X115.375 Y105.273 E.0093
G1 X118.645 Y108.543 E.14773
G1 X118.645 Y109.086 E.01735
G1 X114.355 Y104.795 E.19384
G1 X114.355 Y105.339 E.01738
G1 X118.645 Y109.63 E.19384
G1 X118.645 Y110.173 E.01735
G1 X114.355 Y105.882 E.19384
G1 X114.355 Y106.425 E.01735
G1 X118.645 Y110.716 E.19384
G1 X118.645 Y111.26 E.01738
G1 X114.355 Y106.969 E.19384
G1 X114.355 Y107.512 E.01735
G1 X118.645 Y111.803 E.19384
G1 X118.645 Y112.346 E.01735
G1 X114.355 Y108.055 E.19384
G1 X114.355 Y108.599 E.01738
G1 X118.645 Y112.89 E.19384
G1 X118.645 Y113.433 E.01735
G1 X114.355 Y109.142 E.19384
G1 X114.355 Y109.685 E.01735
G1 X118.645 Y113.976 E.19384
G1 X118.645 Y114.52 E.01738
G1 X114.355 Y110.229 E.19384
G1 X114.355 Y110.772 E.01735
G1 X118.645 Y115.063 E.19384
G1 X118.645 Y115.606 E.01735
G1 X114.355 Y111.315 E.19384
G1 X114.355 Y111.859 E.01738
G1 X118.645 Y116.15 E.19384
G1 X118.645 Y116.693 E.01735
G1 X114.355 Y112.402 E.19384
G1 X114.355 Y112.945 E.01735
G1 X118.645 Y117.236 E.19384
G1 X118.621 Y117.755 E.0166
G1 X114.355 Y113.489 E.19273
G1 X114.355 Y114.032 E.01735
G1 X118.521 Y118.199 E.18823
G1 X118.408 Y118.472 E.00944
G1 X118.348 Y118.569 E.00364
G1 X114.355 Y114.575 E.18042
G1 X114.355 Y115.119 E.01738
G1 X118.123 Y118.887 E.17023
G1 X118.014 Y119.014 E.00535
G1 X117.848 Y119.156 E.00698
G1 X114.355 Y115.662 E.15783
G1 X114.355 Y116.205 E.01735
G1 X117.525 Y119.376 E.14324
G1 X117.146 Y119.54 E.01319
G1 X114.355 Y116.749 E.12609
G1 X114.355 Y117.292 E.01735
G1 X116.687 Y119.624 E.10535
G1 X116.495 Y119.641 E.00616
G1 X116.124 Y119.605 E.01191
G1 X114.397 Y117.877 E.07804
G1 X114.473 Y118.186 E.01017
G1 X114.592 Y118.472 E.0099
G1 X114.768 Y118.759 E.01076
G1 X114.962 Y118.986 E.00954
G1 X115.595 Y119.62 E.02862
G1 E-8.75 F2700
;WIPE_START
G1 F7200
G1 X114.962 Y118.986 E-.31917
G1 X114.768 Y118.759 E-.10638
G1 X114.592 Y118.472 E-.11994
G1 X114.473 Y118.186 E-.11036
G1 X114.397 Y117.877 E-.11336
G1 X116.124 Y119.605 E-.87034
G1 X116.495 Y119.641 E-.13279
G1 X116.687 Y119.624 E-.06867
G1 X114.355 Y117.292 E-1.17489
G1 X114.355 Y116.749 E-.19344
G1 X115.428 Y117.822 E-.54066
;WIPE_END
; stop printing object 1吐片钣金固定销.STL id:0 copy 0
; printing object 1吐片钣金固定销.STL id:0 copy 1
G1 X104.632 Y104.958 F9000
G1 E12.5 F2400
;TYPE:Perimeter
;WIDTH:0.419999
G1 F1200
G1 X104.952 Y104.791 E.01132
G1 X105.318 Y104.513 E.01441
G1 X105.632 Y104.176 E.01444
G1 X105.936 Y103.691 E.01795
G1 X105.936 Y117.362 E.42864
G1 X105.918 Y117.691 E.01033
G1 X105.813 Y118.252 E.0179
G1 X105.567 Y118.768 E.01792
G1 X105.22 Y119.22 E.01787
G1 X104.765 Y119.569 E.01798
G1 X104.252 Y119.813 E.01781
G1 X103.689 Y119.915 E.01794
G1 X103.119 Y119.903 E.01788
G1 X102.571 Y119.74 E.01793
G1 X102.07 Y119.468 E.01787
G1 X101.654 Y119.073 E.01799
G1 X101.333 Y118.604 E.01782
G1 X101.146 Y118.072 E.01768
G1 X101.064 Y117.458 E.01942
G1 X101.064 Y103.691 E.43165
G1 X101.273 Y104.048 E.01297
G1 X101.566 Y104.402 E.01441
G1 X101.916 Y104.701 E.01443
G1 X102.456 Y105.003 E.0194
G1 X102.934 Y105.15 E.01568
G1 X103.5 Y105.214 E.01786
G1 X104.066 Y105.15 E.01786
G1 X104.544 Y105.003 E.01568
G1 X104.579 Y104.985 E.00123
G1 X104.579 Y104.985 F9000
G1 X104.465 Y104.623
G1 F1200
G1 X104.418 Y104.648 E.00167
G1 X104.018 Y104.776 E.01317
G1 X103.5 Y104.837 E.01635
G1 X102.982 Y104.776 E.01635
G1 X102.494 Y104.608 E.01618
G1 X102.152 Y104.408 E.01242
G1 X101.849 Y104.153 E.01242
G1 X101.594 Y103.85 E.01242
G1 X101.393 Y103.509 E.01241
;WIDTH:0.448759
G1 X101.277 Y103.179 E.0118
;WIDTH:0.477519
G1 X101.161 Y102.85 E.01261
G1 X101.146 Y102.35 E.01808
;WIDTH:0.470735
G1 X101.26 Y101.768 E.0211
G1 X101.466 Y101.306 E.01799
;WIDTH:0.470631
G1 X101.83 Y100.837 E.02111
G1 X102.307 Y100.466 E.02149
;WIDTH:0.468555
G1 X102.772 Y100.256 E.01806
G1 X103.369 Y100.15 E.02146
;WIDTH:0.468418
G1 X103.875 Y100.169 E.01792
;WIDTH:0.467954
G1 X104.333 Y100.293 E.01677
;WIDTH:0.465216
G1 X104.693 Y100.466 E.01402
;WIDTH:0.470629
G1 X105.17 Y100.837 E.02149
G1 X105.51 Y101.264 E.01941
;WIDTH:0.470734
G1 X105.74 Y101.768 E.01971
G1 X105.854 Y102.35 E.0211
;WIDTH:0.477519
G1 X105.839 Y102.85 E.01808
G1 X105.723 Y103.179 E.01261
;WIDTH:0.448759
G1 X105.607 Y103.509 E.0118
;WIDTH:0.419999
G1 X105.349 Y103.927 E.0154
G1 X105.081 Y104.219 E.01243
G1 X104.768 Y104.462 E.01242
G1 X104.518 Y104.595 E.00888
G1 X104.518 Y104.595 F9000
G1 X104.293 Y104.292
;TYPE:External perimeter
G1 F1200
G1 X103.97 Y104.402 E.0107
G1 X103.476 Y104.459 E.01559
