; generated by PrusaSlicer 2.7.4+win64 on 2024-06-30 at 08:19:00 UTC

; 

; external perimeters extrusion width = 0.42mm
; perimeters extrusion width = 0.44mm
; infill extrusion width = 0.44mm
; solid infill extrusion width = 0.44mm
; top infill extrusion width = 0.40mm
; support material extrusion width = 0.36mm
; first layer extrusion width = 0.42mm

; external perimeters extrusion width = 0.42mm
; perimeters extrusion width = 0.44mm
; infill extrusion width = 0.44mm
; solid infill extrusion width = 0.44mm
; top infill extrusion width = 0.40mm
; support material extrusion width = 0.36mm
; first layer extrusion width = 0.42mm

; external perimeters extrusion width = 0.42mm
; perimeters extrusion width = 0.44mm
; infill extrusion width = 0.44mm
; solid infill extrusion width = 0.44mm
; top infill extrusion width = 0.40mm
; support material extrusion width = 0.36mm
; first layer extrusion width = 0.42mm

M201 X500 Y500 Z100 E5000 ; sets maximum accelerations, mm/sec^2
M203 X500 Y500 Z10 E60 ; sets maximum feedrates, mm / sec
M204 S500 T1000 ; sets acceleration (S) and retract acceleration (R), mm/sec^2
M205 X8.00 Y8.00 Z0.40 E5.00 ; sets the jerk limits, mm/sec
M205 S0 T0 ; sets the minimum extruding and travel feed rate, mm/sec

; printing object 1吐片钣金固定销.STL id:0 copy 0
; stop printing object 1吐片钣金固定销.STL id:0 copy 0
; printing object 1吐片钣金固定销.STL id:1 copy 0
; stop printing object 1吐片钣金固定销.STL id:1 copy 0
; printing object 2吐片钣金连接件.STL id:2 copy 0
; stop printing object 2吐片钣金连接件.STL id:2 copy 0

;TYPE:Custom
G90 ; use absolute coordinates
M83 ; extruder relative mode
M104 S150 ; set temporary nozzle temp to prevent oozing during homing
M140 S60 ; set final bed temp
G4 S30 ; allow partial nozzle warmup
G28 ; home all axis
G1 Z50 F240
G1 X2.0 Y10 F3000
M104 S205 ; set final nozzle temp
M190 S60 ; wait for bed temp to stabilize
M109 S205 ; wait for nozzle temp to stabilize
G1 Z0.28 F240
G92 E0
G1 X2.0 Y140 E10 F1500 ; prime the nozzle
G1 X2.3 Y140 F5000
G92 E0
G1 X2.3 Y10 E10 F1200 ; prime the nozzle
G92 E0
G21 ; set units to millimeters
G90 ; use absolute coordinates
M83 ; use relative distances for extrusion
; Filament gcode
M107
;LAYER_CHANGE
;Z:0.2
;HEIGHT:0.2
G1 E-12.5 F2700
G1 Z.2 F9000
G1 X68.06 Y93.503
G1 Z.2
G1 E12.5 F2400
M204 S500
;TYPE:Skirt/Brim
;WIDTH:0.42
G1 F1200
G1 X68.794 Y93.101 E.02624
G1 X100.63 Y79.888 E1.08075
G1 X101.688 Y79.676 E.03383
G1 X102.5 Y79.623 E.02551
G1 X117.765 Y79.633 E.47862
G1 X118.836 Y79.759 E.03381
G1 X119.874 Y80.051 E.03381
G1 X151.206 Y93.101 E1.0642
G1 X152.347 Y93.798 E.04192
G1 X153.186 Y94.631 E.03707
G1 X153.661 Y95.328 E.02645
G1 X154.022 Y96.09 E.02644
G1 X154.259 Y96.899 E.02643
G1 X154.377 Y98 E.03472
G1 X154.377 Y124 E.81521
G1 X153.983 Y125.583 E.05115
G1 X152.243 Y127.14 E.07321
G1 X119.824 Y139.969 E1.09317
G1 X118.836 Y140.241 E.03213
G1 X117.5 Y140.377 E.04211
G1 X102.5 Y140.377 E.47031
G1 X101.688 Y140.324 E.02551
G1 X100.63 Y140.112 E.03383
G1 X67.757 Y127.14 E1.10806
G1 X66.43 Y126.191 E.05115
G1 X65.623 Y124 E.07321
G1 X65.623 Y98 E.81521
G1 X65.736 Y96.926 E.03386
G1 X66.094 Y95.809 E.03678
G1 X66.503 Y95.06 E.02676
G1 X67.393 Y94.018 E.04297
G1 X68.012 Y93.539 E.02454
G1 E-8.75 F2700
;WIPE_START
G1 F7200
G1 X68.06 Y93.503 E-.02138
G1 X68.794 Y93.101 E-.29814
G1 X77.688 Y89.41 E-3.43048
;WIPE_END
; printing object 1吐片钣金固定销.STL id:1 copy 0
G1 X119.529 Y133.821 F9000
G1 E12.5 F2400
;TYPE:Perimeter
;WIDTH:0.419999
G1 F1200
G1 X119.392 Y134.284 E.01514
G1 X119.162 Y134.708 E.01512
G1 X118.83 Y135.057 E.0151
G1 X118.433 Y135.33 E.01511
G1 X117.978 Y135.491 E.01513
G1 X117.443 Y135.559 E.01691
G1 X104.808 Y135.557 E.39616
G1 X104.995 Y135.321 E.00944
G1 X105.267 Y134.873 E.01643
G1 X105.459 Y134.386 E.01641
G1 X105.566 Y133.875 E.01637
G1 X105.585 Y133.348 E.01653
G1 X105.516 Y132.83 E.01638
G1 X105.359 Y132.33 E.01643
G1 X105.12 Y131.864 E.01642
G1 X104.808 Y131.443 E.01643
G1 X117.443 Y131.441 E.39616
G1 X117.944 Y131.503 E.01583
G1 X118.433 Y131.67 E.0162
G1 X118.828 Y131.941 E.01502
G1 X119.162 Y132.292 E.01519
G1 X119.392 Y132.716 E.01512
G1 X119.529 Y133.179 E.01514
G1 X119.542 Y133.66 E.01509
G1 X119.534 Y133.762 E.00321
G1 X119.534 Y133.762 F9000
G1 X119.903 Y133.881
G1 F1200
G1 X119.74 Y134.428 E.0179
G1 X119.468 Y134.93 E.0179
G1 X119.075 Y135.344 E.0179
G1 X118.604 Y135.667 E.01791
G1 X118.066 Y135.858 E.0179
G1 X117.458 Y135.936 E.01922
G1 X103.691 Y135.936 E.43165
G1 X104.048 Y135.727 E.01297
G1 X104.402 Y135.434 E.01441
G1 X104.701 Y135.084 E.01443
G1 X104.938 Y134.69 E.01442
G1 X105.144 Y134.106 E.01942
G1 X105.208 Y133.5 E.01911
G1 X105.144 Y132.894 E.01911
G1 X105.003 Y132.456 E.01443
G1 X104.791 Y132.048 E.01442
G1 X104.513 Y131.682 E.01441
G1 X104.176 Y131.368 E.01444
G1 X103.691 Y131.064 E.01795
G1 X117.362 Y131.064 E.42864
G1 X117.554 Y131.072 E.00603
G1 X118.067 Y131.145 E.01625
G1 X118.604 Y131.333 E.01784
G1 X119.076 Y131.657 E.01795
G1 X119.468 Y132.07 E.01785
G1 X119.741 Y132.572 E.01792
G1 X119.903 Y133.119 E.01789
G1 X119.918 Y133.69 E.01791
G1 X119.907 Y133.821 E.00412
G1 X119.907 Y133.821 F9000
G1 X120.276 Y133.94
G1 F1200
G1 X120.089 Y134.572 E.02067
G1 X119.774 Y135.152 E.02069
G1 X119.32 Y135.631 E.02069
G1 X118.776 Y136.004 E.02068
G1 X118.154 Y136.225 E.0207
G1 X117.473 Y136.313 E.02153
G1 X103.806 Y136.313 E.42852
;WIDTH:0.430311
G1 X103.198 Y136.308 E.01959
;WIDTH:0.467274
G1 X102.442 Y136.283 E.02669
G1 X101.891 Y136.213 E.0196
;WIDTH:0.464919
G1 X101.399 Y136.053 E.01815
;WIDTH:0.470875
G1 X100.85 Y135.742 E.02245
G1 X100.384 Y135.303 E.02278
;WIDTH:0.464884
G1 X100.111 Y134.922 E.01645
;WIDTH:0.465014
G1 X99.896 Y134.477 E.01735
;WIDTH:0.467963
G1 X99.746 Y133.919 E.02042
G1 X99.719 Y133.415 E.01784
;WIDTH:0.467848
G1 X99.791 Y132.884 E.01893
;WIDTH:0.469788
G1 X100.027 Y132.221 E.02498
G1 X100.354 Y131.732 E.02088
;WIDTH:0.464844
G1 X100.717 Y131.367 E.01806
;WIDTH:0.469763
G1 X101.197 Y131.041 E.02059
;WIDTH:0.473758
G1 X101.66 Y130.848 E.01797
G1 X102.207 Y130.737 E.02
;WIDTH:0.476474
G1 X103.046 Y130.701 E.03027
;WIDTH:0.448237
G1 X103.345 Y130.687 E.01009
;WIDTH:0.419999
G1 X117.362 Y130.687 E.43949
G1 X117.583 Y130.696 E.00694
G1 X118.152 Y130.777 E.01802
G1 X118.776 Y130.996 E.02074
G1 X119.321 Y131.37 E.02072
G1 X119.774 Y131.848 E.02065
G1 X120.089 Y132.428 E.02069
G1 X120.276 Y133.06 E.02067
G1 X120.294 Y133.72 E.0207
G1 X120.281 Y133.88 E.00503
G1 X120.281 Y133.88 F9000
G1 X120.65 Y133.999
;TYPE:External perimeter
G1 F1200
G1 X120.533 Y134.485 E.01567
G1 X120.341 Y134.948 E.01572
G1 X120.08 Y135.374 E.01566
G1 X119.755 Y135.755 E.0157
G1 X119.374 Y136.08 E.0157
G1 X118.948 Y136.341 E.01566
G1 X118.485 Y136.533 E.01572
G1 X117.999 Y136.65 E.01567
G1 X117.488 Y136.69 E.01607
G1 X102.512 Y136.69 E.46956
G1 X102.001 Y136.65 E.01607
G1 X101.515 Y136.533 E.01567
G1 X101.052 Y136.341 E.01572
G1 X100.626 Y136.08 E.01566
G1 X100.245 Y135.755 E.0157
G1 X99.92 Y135.374 E.0157
G1 X99.659 Y134.948 E.01566
G1 X99.467 Y134.485 E.01572
G1 X99.35 Y133.999 E.01567
G1 X99.311 Y133.5 E.01569
G1 X99.361 Y132.954 E.01719
G1 X99.486 Y132.469 E.0157
G1 X99.77 Y131.87 E.02079
G1 X100.08 Y131.438 E.01667
G1 X100.458 Y131.063 E.01669
G1 X100.987 Y130.698 E.02015
G1 X101.468 Y130.487 E.01647
G1 X102.001 Y130.35 E.01726
G1 X102.512 Y130.31 E.01607
G1 X117.362 Y130.31 E.46561
G1 X117.733 Y130.329 E.01165
G1 X118.236 Y130.41 E.01597
G1 X118.723 Y130.566 E.01603
G1 X119.155 Y130.786 E.0152
G1 X119.563 Y131.081 E.01579
G1 X119.917 Y131.434 E.01567
G1 X120.21 Y131.838 E.01565
G1 X120.437 Y132.283 E.01566
G1 X120.591 Y132.757 E.01563
G1 X120.669 Y133.25 E.01565
G1 X120.669 Y133.749 E.01565
G1 X120.654 Y133.939 E.00598
G1 E-8.75 F2700
;WIPE_START
G1 F7200
G1 X120.65 Y133.999 E-.02142
G1 X120.533 Y134.485 E-.17808
G1 X120.341 Y134.948 E-.17856
G1 X120.08 Y135.374 E-.17798
G1 X119.755 Y135.755 E-.1784
G1 X119.374 Y136.08 E-.1784
G1 X118.948 Y136.341 E-.17798
G1 X118.485 Y136.533 E-.17856
G1 X117.999 Y136.65 E-.17808
G1 X117.488 Y136.69 E-.1826
G1 X111.537 Y136.69 E-2.11994
;WIPE_END
G1 X104.628 Y134.45 F9000
G1 E12.5 F2400
;TYPE:Perimeter
G1 F1200
G1 X104.608 Y134.506 E.00186
G1 X104.408 Y134.848 E.01242
G1 X104.153 Y135.151 E.01242
G1 X103.85 Y135.406 E.01242
G1 X103.509 Y135.607 E.01241
;WIDTH:0.44876
G1 X103.179 Y135.723 E.0118
;WIDTH:0.47752
G1 X102.85 Y135.839 E.01261
G1 X102.35 Y135.854 E.01808
;WIDTH:0.470736
G1 X101.768 Y135.74 E.0211
G1 X101.306 Y135.534 E.01799
;WIDTH:0.470631
G1 X100.837 Y135.17 E.02111
G1 X100.466 Y134.693 E.02149
;WIDTH:0.468627
G1 X100.258 Y134.239 E.01768
G1 X100.166 Y133.849 E.01418
;WIDTH:0.467462
G1 X100.141 Y133.45 E.01411
;WIDTH:0.467848
G1 X100.198 Y133.004 E.01589
;WIDTH:0.470348
G1 X100.396 Y132.439 E.02128
G1 X100.675 Y132.005 E.01834
;WIDTH:0.470874
G1 X101.116 Y131.592 E.0215
G1 X101.575 Y131.331 E.01879
;WIDTH:0.477566
G1 X102.146 Y131.18 E.02135
G1 X102.531 Y131.144 E.01397
;WIDTH:0.485519
G1 X102.851 Y131.157 E.01179
G1 X103.18 Y131.275 E.01286
;WIDTH:0.452759
G1 X103.509 Y131.393 E.01191
;WIDTH:0.419999
G1 X103.927 Y131.651 E.0154
G1 X104.219 Y131.919 E.01243
G1 X104.462 Y132.232 E.01242
G1 X104.648 Y132.582 E.01243
G1 X104.772 Y132.958 E.01241
G1 X104.831 Y133.5 E.01709
G1 X104.772 Y134.042 E.01709
G1 X104.648 Y134.393 E.01167
G1 E-8.75 F2700
;WIPE_START
G1 F7200
G1 X104.628 Y134.45 E-.02152
G1 X104.608 Y134.506 E-.02118
G1 X104.408 Y134.848 E-.14114
G1 X104.153 Y135.151 E-.14108
G1 X103.85 Y135.406 E-.14108
G1 X103.509 Y135.607 E-.14101
G1 X103.179 Y135.723 E-.12461
G1 X102.85 Y135.839 E-.12428
G1 X102.35 Y135.854 E-.17821
G1 X101.768 Y135.74 E-.21128
G1 X101.306 Y135.534 E-.18021
G1 X100.837 Y135.17 E-.2115
G1 X100.466 Y134.693 E-.21528
G1 X100.258 Y134.239 E-.1779
G1 X100.166 Y133.849 E-.14275
G1 X100.141 Y133.45 E-.14242
G1 X100.198 Y133.004 E-.16018
G1 X100.396 Y132.439 E-.21328
G1 X100.675 Y132.005 E-.1838
G1 X101.116 Y131.592 E-.21524
G1 X101.575 Y131.331 E-.18811
G1 X102.146 Y131.18 E-.21041
G1 X102.531 Y131.144 E-.13775
G1 X102.851 Y131.157 E-.11409
G1 X102.882 Y131.168 E-.01169
;WIPE_END
G1 X103.368 Y135.257 F9000
G1 E12.5 F2400
;TYPE:External perimeter
G1 F1200
G1 X103.059 Y135.379 E.01042
G1 X102.51 Y135.455 E.01738
G1 X102.071 Y135.412 E.01383
G1 X101.611 Y135.24 E.0154
G1 X101.193 Y134.961 E.01576
G1 X100.93 Y134.667 E.01237
G1 X100.658 Y134.168 E.01782
G1 X100.566 Y133.815 E.01144
G1 X100.54 Y133.484 E.01041
G1 X100.576 Y133.138 E.01091
G1 X100.775 Y132.573 E.01878
G1 X100.978 Y132.264 E.01159
G1 X101.356 Y131.916 E.01611
G1 X101.799 Y131.672 E.01586
G1 X102.356 Y131.549 E.01789
G1 X102.765 Y131.558 E.01283
G1 X103.089 Y131.631 E.01041
G1 X103.397 Y131.757 E.01043
G1 X103.678 Y131.934 E.01041
G1 X103.926 Y132.156 E.01044
G1 X104.133 Y132.416 E.01042
G1 X104.292 Y132.707 E.0104
G1 X104.401 Y133.022 E.01045
G1 X104.454 Y133.5 E.01508
G1 X104.392 Y134.009 E.01608
G1 X104.279 Y134.322 E.01043
G1 X104.115 Y134.611 E.01042
G1 X103.904 Y134.868 E.01043
G1 X103.652 Y135.085 E.01043
G1 X103.419 Y135.226 E.00854
G1 E-8.75 F2700
;WIPE_START
G1 F7200
G1 X103.368 Y135.257 E-.02126
G1 X103.059 Y135.379 E-.11835
G1 X102.51 Y135.455 E-.19745
G1 X102.071 Y135.412 E-.15714
G1 X101.611 Y135.24 E-.17496
G1 X101.193 Y134.961 E-.17904
G1 X100.93 Y134.667 E-.14053
G1 X100.658 Y134.168 E-.20246
G1 X100.566 Y133.815 E-.12996
G1 X100.54 Y133.484 E-.11828
G1 X100.576 Y133.138 E-.12393
G1 X100.775 Y132.573 E-.2134
G1 X100.978 Y132.264 E-.13171
G1 X101.356 Y131.916 E-.18304
G1 X101.799 Y131.672 E-.18017
G1 X102.356 Y131.549 E-.20321
G1 X102.765 Y131.558 E-.14574
G1 X103.089 Y131.631 E-.11832
G1 X103.397 Y131.757 E-.11855
G1 X103.678 Y131.934 E-.11831
G1 X103.926 Y132.156 E-.11858
G1 X104.133 Y132.416 E-.1184
G1 X104.292 Y132.707 E-.11813
G1 X104.401 Y133.022 E-.11875
G1 X104.454 Y133.5 E-.17133
G1 X104.411 Y133.86 E-.129
;WIPE_END
G1 X118.193 Y131.701 F9000
G1 E12.5 F2400
;TYPE:Solid infill
;WIDTH:0.422599
G1 F1200
G1 X118.753 Y132.261 E.025
G1 X118.926 Y132.464 E.00842
G1 X119.071 Y132.7 E.00874
G1 X119.177 Y132.955 E.00872
G1 X119.247 Y133.291 E.01084
G1 X117.709 Y131.754 E.06865
G1 X117.15 Y131.732 E.01766
G1 X119.232 Y133.814 E.09296
G1 X119.177 Y134.045 E.0075
G1 X119.103 Y134.222 E.00606
G1 X116.613 Y131.732 E.11117
G1 X116.076 Y131.732 E.01695
G1 X118.905 Y134.561 E.12631
G1 X118.747 Y134.747 E.0077
G1 X118.643 Y134.835 E.0043
G1 X115.539 Y131.732 E.13856
G1 X115.002 Y131.732 E.01695
G1 X118.326 Y135.055 E.14839
G1 X118.045 Y135.177 E.00967
G1 X117.936 Y135.203 E.00354
G1 X114.465 Y131.732 E.15497
G1 X113.928 Y131.732 E.01695
G1 X117.463 Y135.266 E.15781
G1 X117.432 Y135.268 E.00098
G1 X116.928 Y135.268 E.01591
G1 X113.391 Y131.732 E.1579
G1 X112.854 Y131.732 E.01695
G1 X116.391 Y135.268 E.1579
G1 X115.854 Y135.268 E.01695
G1 X112.317 Y131.732 E.1579
G1 X111.78 Y131.732 E.01695
G1 X115.317 Y135.268 E.1579
G1 X114.78 Y135.268 E.01695
G1 X111.244 Y131.732 E.15787
G1 X110.707 Y131.732 E.01695
G1 X114.243 Y135.268 E.15787
G1 X113.706 Y135.268 E.01695
G1 X110.17 Y131.732 E.15787
G1 X109.633 Y131.732 E.01695
G1 X113.17 Y135.268 E.1579
G1 X112.633 Y135.268 E.01695
G1 X109.096 Y131.732 E.1579
G1 X108.559 Y131.732 E.01695
G1 X112.096 Y135.268 E.1579
G1 X111.559 Y135.268 E.01695
G1 X108.022 Y131.732 E.1579
G1 X107.485 Y131.732 E.01695
G1 X111.022 Y135.268 E.1579
G1 X110.485 Y135.268 E.01695
G1 X106.948 Y131.732 E.1579
G1 X106.411 Y131.732 E.01695
G1 X109.948 Y135.268 E.1579
G1 X109.411 Y135.268 E.01695
G1 X105.874 Y131.732 E.1579
G1 X105.368 Y131.732 E.01597
G1 X105.415 Y131.81 E.00287
G1 X108.874 Y135.268 E.15441
G1 X108.337 Y135.268 E.01695
G1 X105.774 Y132.705 E.11443
G1 X105.853 Y133.08 E.0121
G1 X105.863 Y133.331 E.00793
G1 X107.8 Y135.268 E.08648
G1 X107.263 Y135.268 E.01695
G1 X105.85 Y133.855 E.06309
G1 X105.776 Y134.318 E.0148
G1 X106.726 Y135.268 E.04241
G1 X106.189 Y135.268 E.01695
G1 X105.639 Y134.718 E.02456
G1 X105.475 Y135.091 E.01286
G1 X105.822 Y135.438 E.01549
G1 E-8.75 F2700
;WIPE_START
G1 F7200
G1 X105.475 Y135.091 E-.17482
G1 X105.639 Y134.718 E-.14516
G1 X106.189 Y135.268 E-.2771
G1 X106.726 Y135.268 E-.19131
G1 X105.776 Y134.318 E-.47862
G1 X105.85 Y133.855 E-.16704
G1 X107.263 Y135.268 E-.71189
G1 X107.8 Y135.268 E-.19131
G1 X105.863 Y133.331 E-.97589
G1 X105.853 Y133.08 E-.08949
G1 X105.774 Y132.705 E-.13653
G1 X106.192 Y133.124 E-.21084
;WIPE_END
; stop printing object 1吐片钣金固定销.STL id:1 copy 0
; printing object 2吐片钣金连接件.STL id:2 copy 0
G1 X135.192 Y100.916 F9000
G1 E12.5 F2400
;TYPE:Perimeter
;WIDTH:0.419999
G1 F1200
G1 X135.401 Y100.885 E.00662
G1 X135.757 Y100.717 E.01234
G1 X136.055 Y100.443 E.01269
G1 X136.26 Y100.078 E.01313
G1 X136.341 Y99.621 E.01455
G1 X136.341 Y97.441 E.06835
G1 X148.835 Y97.441 E.39174
G1 X149.168 Y97.485 E.01053
G1 X149.378 Y97.621 E.00784
G1 X149.515 Y97.832 E.00789
G1 X149.559 Y98.165 E.01053
G1 X149.559 Y122.559 E.76486
G1 X70.441 Y122.559 E2.48069
G1 X70.441 Y98.165 E.76486
G1 X70.472 Y97.916 E.00787
G1 X70.562 Y97.681 E.00789
G1 X70.757 Y97.523 E.00787
G1 X71.108 Y97.441 E.0113
G1 X83.659 Y97.441 E.39353
G1 X83.659 Y99.621 E.06835
G1 X83.735 Y100.062 E.01403
G1 X83.948 Y100.446 E.01377
G1 X84.267 Y100.733 E.01345
G1 X84.638 Y100.896 E.01271
G1 X84.979 Y100.941 E.01078
G1 X89.339 Y100.936 E.1367
G1 X89.77 Y100.822 E.01398
G1 X90.048 Y100.651 E.01023
G1 X90.316 Y100.359 E.01243
G1 X90.482 Y100.012 E.01206
G1 X90.541 Y99.621 E.0124
G1 X90.541 Y97.441 E.06835
G1 X129.459 Y97.441 E1.22024
G1 X129.466 Y99.762 E.07277
G1 X129.588 Y100.191 E.01398
G1 X129.797 Y100.503 E.01177
G1 X130.147 Y100.78 E.01399
G1 X130.47 Y100.905 E.01086
G1 X130.779 Y100.941 E.00975
G1 X135.021 Y100.941 E.133
G1 X135.133 Y100.925 E.00355
G1 X135.133 Y100.925 F9000
G1 X135.078 Y100.552
G1 F1200
G1 X135.194 Y100.548 E.00364
G1 X135.547 Y100.404 E.01195
G1 X135.759 Y100.208 E.00905
G1 X135.906 Y99.948 E.00936
G1 X135.964 Y99.621 E.01041
G1 X135.964 Y97.064 E.08017
G1 X148.835 Y97.064 E.40356
G1 X149.286 Y97.122 E.01426
G1 X149.543 Y97.253 E.00904
G1 X149.747 Y97.457 E.00905
G1 X149.878 Y97.714 E.00904
G1 X149.936 Y98.165 E.01426
G1 X149.936 Y122.936 E.77668
