; generated by PrusaSlicer 2.7.4+win64 on 2024-07-13 at 16:10:41 UTC

; 

; external perimeters extrusion width = 0.42mm
; perimeters extrusion width = 0.44mm
; infill extrusion width = 0.44mm
; solid infill extrusion width = 0.44mm
; top infill extrusion width = 0.40mm
; support material extrusion width = 0.36mm
; first layer extrusion width = 0.42mm

M201 X500 Y500 Z100 E5000 ; sets maximum accelerations, mm/sec^2
M203 X500 Y500 Z10 E60 ; sets maximum feedrates, mm / sec
M204 S500 T1000 ; sets acceleration (S) and retract acceleration (R), mm/sec^2
M205 X8.00 Y8.00 Z0.40 E5.00 ; sets the jerk limits, mm/sec
M205 S0 T0 ; sets the minimum extruding and travel feed rate, mm/sec

; printing object 5马达座.STL id:0 copy 0
; stop printing object 5马达座.STL id:0 copy 0

;TYPE:Custom
G90 ; use absolute coordinates
M83 ; extruder relative mode
M104 S150 ; set temporary nozzle temp to prevent oozing during homing
M140 S60 ; set final bed temp
G4 S30 ; allow partial nozzle warmup
G28 ; home all axis
G1 Z50 F240
G1 X2.0 Y10 F3000
M104 S205 ; set final nozzle temp
M190 S60 ; wait for bed temp to stabilize
M109 S205 ; wait for nozzle temp to stabilize
G1 Z0.28 F240
G92 E0
G1 X2.0 Y140 E10 F1500 ; prime the nozzle
G1 X2.3 Y140 F5000
G92 E0
G1 X2.3 Y10 E10 F1200 ; prime the nozzle
G92 E0
G21 ; set units to millimeters
G90 ; use absolute coordinates
M83 ; use relative distances for extrusion
; Filament gcode
M107
;LAYER_CHANGE
;Z:0.2
;HEIGHT:0.2
G1 E-12.5 F2700
G1 Z.2 F9000
G1 X56.107 Y87.203
G1 Z.2
G1 E12.5 F2400
M204 S500
;TYPE:Skirt/Brim
;WIDTH:0.42
G1 F1200
G1 X58 Y86.623 E.06208
G1 X162 Y86.623 E3.26085
G1 X163.583 Y87.017 E.05115
G1 X164.797 Y88.107 E.05116
G1 X165.377 Y90 E.06208
G1 X165.377 Y130 E1.25417
G1 X164.983 Y131.583 E.05115
G1 X163.893 Y132.797 E.05116
G1 X162 Y133.377 E.06208
G1 X85.5 Y133.377 E2.3986
G1 X83.917 Y132.983 E.05115
G1 X83.091 Y132.366 E.03233
G1 X55.591 Y104.366 E1.23053
G1 X54.762 Y102.961 E.05115
G1 X54.623 Y102 E.03045
G1 X54.623 Y90 E.37625
G1 X55.017 Y88.417 E.05115
G1 X56.067 Y87.248 E.04927
G1 E-8.75 F2700
;WIPE_START
G1 F7200
G1 X56.107 Y87.203 E-.02145
G1 X58 Y86.623 E-.70533
G1 X66.486 Y86.623 E-3.02322
;WIPE_END
; printing object 5马达座.STL id:0 copy 0
G1 X76.204 Y92.566 F9000
G1 E12.5 F2400
;TYPE:Support material
G1 F1200
G1 X76.804 Y92.712 E.01936
G1 X77.354 Y93.022 E.0198
G1 X77.695 Y93.328 E.01437
G1 X78.219 Y94.107 E.02944
G1 X78.501 Y95.055 E.03101
G1 X78.538 Y97.778 E.08539
G1 X73.462 Y97.778 E.15915
G1 X73.499 Y95.055 E.08539
G1 X73.781 Y94.107 E.03101
G1 X74.305 Y93.328 E.02944
G1 X74.817 Y92.904 E.02084
G1 X75.393 Y92.644 E.01981
G1 X76.147 Y92.564 E.02377
G1 X76.147 Y92.564 F9000
G1 X78.158 Y97.608
G1 F1200
G1 X78.158 Y95.075 E.07942
G1 X78.067 Y94.663 E.01323
G1 X77.739 Y93.947 E.02469
G1 X77.739 Y97.438 E.10946
G1 X77.32 Y97.438 E.01314
G1 X77.32 Y93.447 E.12514
G1 X77.144 Y93.289 E.00742
G1 X76.901 Y93.134 E.00904
G1 X76.901 Y97.438 E.13495
G1 X76.482 Y97.438 E.01314
G1 X76.482 Y92.963 E.14031
G1 X76.063 Y92.9 E.01329
G1 X76.063 Y97.438 E.14229
G1 X75.644 Y97.438 E.01314
G1 X75.644 Y92.933 E.14125
G1 X75.225 Y93.071 E.01383
G1 X75.225 Y97.438 E.13692
G1 X74.806 Y97.438 E.01314
G1 X74.806 Y93.334 E.12868
G1 X74.387 Y93.77 E.01896
G1 X74.387 Y97.438 E.11501
G1 X73.968 Y97.438 E.01314
G1 X73.968 Y94.121 E.104
G1 E-8.75 F2700
;WIPE_START
G1 F7200
G1 X73.968 Y97.438 E-1.18168
G1 X74.387 Y97.438 E-.14927
G1 X74.387 Y93.77 E-1.30673
G1 X74.806 Y93.334 E-.21542
G1 X74.806 Y95.852 E-.8969
;WIPE_END
G1 X73.646 Y99.266 F9000
G1 E12.5 F2400
;TYPE:Support material interface
;WIDTH:0.36
G1 F1200
G1 X73.411 Y99.266 E.0062
G1 X73.411 Y98.146 E.02953
G1 X73.804 Y98.146 E.01036
G1 X73.804 Y99.266 E.02953
G1 X74.322 Y99.266 E.01366
G1 X74.322 Y98.146 E.02953
G1 X74.839 Y98.146 E.01363
G1 X74.839 Y99.266 E.02953
G1 X75.356 Y99.266 E.01363
G1 X75.356 Y98.146 E.02953
G1 X75.873 Y98.146 E.01363
G1 X75.873 Y99.266 E.02953
G1 X76.39 Y99.266 E.01363
G1 X76.39 Y98.146 E.02953
G1 X76.907 Y98.146 E.01363
G1 X76.907 Y99.266 E.02953
G1 X77.424 Y99.266 E.01363
G1 X77.424 Y98.146 E.02953
G1 X77.941 Y98.146 E.01363
G1 X77.941 Y99.266 E.02953
G1 X78.458 Y99.266 E.01363
G1 X78.458 Y98.146 E.02953
G1 E-8.75 F2700
;WIPE_START
G1 F7200
G1 X78.458 Y99.266 E-.399
G1 X77.941 Y99.266 E-.18418
G1 X77.941 Y98.146 E-.399
G1 X77.424 Y98.146 E-.18418
G1 X77.424 Y99.266 E-.399
G1 X76.907 Y99.266 E-.18418
G1 X76.907 Y98.146 E-.399
G1 X76.39 Y98.146 E-.18418
G1 X76.39 Y99.266 E-.399
G1 X75.873 Y99.266 E-.18418
G1 X75.873 Y98.146 E-.399
G1 X75.356 Y98.146 E-.18418
G1 X75.356 Y98.85 E-.25092
;WIPE_END
G1 X72.576 Y100.936 F9000
G1 E12.5 F2400
;TYPE:Perimeter
;WIDTH:0.419999
G1 F1200
G1 X59.064 Y100.936 E.42366
G1 X59.064 Y91.064 E.30953
G1 X74.328 Y91.064 E.47859
;WIDTH:0.465754
G1 X74.693 Y91.087 E.01286
;WIDTH:0.511508
G1 X75.059 Y91.11 E.01429
G1 X74.874 Y91.187 E.00781
;WIDTH:0.464406
G1 X74.24 Y91.478 E.02445
;WIDTH:0.419999
G1 X73.654 Y91.861 E.02195
G1 X73.142 Y92.338 E.02194
G1 X72.711 Y92.898 E.02216
G1 X72.37 Y93.523 E.02232
G1 X72.125 Y94.197 E.02249
G1 X71.98 Y94.903 E.0226
G1 X71.936 Y95.554 E.02046
G1 X71.936 Y100.144 E.14392
G1 X72.124 Y100.71 E.0187
G1 X72.522 Y100.909 E.01395
G1 E-8.75 F2700
;WIPE_START
G1 F7200
G1 X72.576 Y100.936 E-.02151
G1 X62.11 Y100.936 E-3.72849
;WIPE_END
G1 X109.06 Y109.57 F9000
G1 E12.5 F2400
G1 F1200
G1 X109.237 Y109.65 E.00609
G1 X109.719 Y109.976 E.01824
G1 X109.949 Y110.196 E.00998
G1 X110.295 Y110.664 E.01825
G1 X110.439 Y110.949 E.01001
G1 X110.609 Y111.505 E.01823
G1 X110.647 Y111.883 E.01191
G1 X110.625 Y112.409 E.01651
G1 X110.558 Y112.714 E.00979
G1 X110.341 Y113.254 E.01825
G1 X110.051 Y113.698 E.01663
G1 X109.432 Y114.237 E.02573
G1 X109.154 Y114.392 E.00998
G1 X108.605 Y114.586 E.01826
G1 X108.434 Y114.629 E.00553
G1 X107.709 Y114.64 E.02273
G1 X107.395 Y114.586 E.00999
G1 X106.844 Y114.391 E.01833
G1 X106.568 Y114.237 E.00991
G1 X106.115 Y113.871 E.01826
G1 X105.905 Y113.632 E.00998
G1 X105.6 Y113.136 E.01826
G1 X105.481 Y112.841 E.00997
G1 X105.358 Y112.272 E.01825
G1 X105.345 Y111.953 E.01001
G1 X105.419 Y111.376 E.01824
G1 X105.512 Y111.071 E.01
G1 X105.774 Y110.552 E.01823
G1 X105.963 Y110.296 E.00998
G1 X106.383 Y109.893 E.01825
G1 X106.648 Y109.714 E.01003
G1 X107.178 Y109.474 E.01824
G1 X107.488 Y109.394 E.01004
G1 X108.07 Y109.345 E.01831
G1 X108.386 Y109.373 E.00995
G1 X108.947 Y109.519 E.01818
G1 X109.006 Y109.545 E.00202
G1 X109.006 Y109.545 F9000
G1 X108.909 Y109.909
G1 F1200
G1 X109.026 Y109.962 E.00403
G1 X109.508 Y110.288 E.01824
G1 X109.646 Y110.421 E.00601
G1 X109.992 Y110.888 E.01822
G1 X110.171 Y111.361 E.01586
G1 X110.273 Y111.805 E.01428
G1 X110.248 Y112.391 E.01839
G1 X110.074 Y112.908 E.0171
G1 X109.921 Y113.239 E.01143
G1 X109.648 Y113.578 E.01365
G1 X109.195 Y113.943 E.01824
G1 X109.028 Y114.037 E.00601
G1 X108.377 Y114.256 E.02154
G1 X107.709 Y114.263 E.02095
G1 X107.521 Y114.23 E.00598
G1 X106.971 Y114.036 E.01829
G1 X106.805 Y113.943 E.00597
G1 X106.352 Y113.578 E.01824
G1 X106.226 Y113.434 E.006
G1 X105.921 Y112.939 E.01823
G1 X105.849 Y112.761 E.00602
G1 X105.727 Y112.192 E.01825
G1 X105.719 Y112.001 E.00599
G1 X105.793 Y111.424 E.01824
G1 X105.849 Y111.241 E.006
G1 X106.11 Y110.722 E.01821
G1 X106.224 Y110.568 E.00601
G1 X106.644 Y110.165 E.01825
G1 X106.803 Y110.058 E.00601
G1 X107.334 Y109.818 E.01827
G1 X107.519 Y109.77 E.00599
G1 X108.101 Y109.721 E.01831
G1 X108.291 Y109.737 E.00598
G1 X108.852 Y109.884 E.01818
G1 X108.854 Y109.885 E.00007
G1 X108.854 Y109.885 F9000
G1 X108.757 Y110.249
;TYPE:External perimeter
G1 F1200
G1 X109.283 Y110.591 E.01967
G1 X109.689 Y111.113 E.02073
G1 X109.888 Y111.726 E.02021
G1 X109.872 Y112.371 E.02023
G1 X109.641 Y112.973 E.02022
G1 X109.411 Y113.284 E.01213
G1 X108.958 Y113.65 E.01826
G1 X108.32 Y113.883 E.0213
G1 X107.709 Y113.886 E.01916
G1 X107.097 Y113.681 E.02024
G1 X106.589 Y113.284 E.02021
G1 X106.242 Y112.741 E.0202
G1 X106.095 Y112.113 E.02022
G1 X106.167 Y111.472 E.02022
G1 X106.447 Y110.891 E.02022
G1 X106.905 Y110.437 E.02022
G1 X107.489 Y110.162 E.02024
G1 X108.133 Y110.097 E.02029
G1 X108.699 Y110.234 E.01826
G1 E-8.75 F2700
;WIPE_START
G1 F7200
G1 X108.757 Y110.249 E-.02134
G1 X109.283 Y110.591 E-.22351
G1 X109.689 Y111.113 E-.23559
G1 X109.888 Y111.726 E-.2296
G1 X109.872 Y112.371 E-.22985
G1 X109.641 Y112.973 E-.22971
G1 X109.411 Y113.284 E-.1378
G1 X108.958 Y113.65 E-.20747
G1 X108.32 Y113.883 E-.24197
G1 X107.709 Y113.886 E-.21767
G1 X107.097 Y113.681 E-.22993
G1 X106.589 Y113.284 E-.22968
G1 X106.242 Y112.741 E-.22957
G1 X106.095 Y112.113 E-.22977
G1 X106.167 Y111.472 E-.22979
G1 X106.447 Y110.891 E-.22976
G1 X106.905 Y110.437 E-.22974
G1 X107.33 Y110.237 E-.16725
;WIPE_END
G1 X115.089 Y112.692 F9000
G1 E12.5 F2400
;TYPE:Perimeter
G1 F1200
G1 X115.346 Y111.814 E.02868
G1 X115.797 Y110.89 E.03224
G1 X116.293 Y110.196 E.02675
G1 X116.503 Y109.936 E.01048
G1 X117.13 Y109.334 E.02725
G1 X117.974 Y108.747 E.03223
G1 X118.905 Y108.312 E.03222
G1 X119.897 Y108.039 E.03226
G1 X120.883 Y107.942 E.03106
G1 X121.939 Y108.012 E.03318
G1 X122.944 Y108.258 E.03244
G1 X123.886 Y108.669 E.03222
G1 X124.746 Y109.234 E.03226
G1 X125.497 Y109.936 E.03223
G1 X126.119 Y110.754 E.03222
G1 X126.594 Y111.666 E.03224
G1 X126.908 Y112.645 E.03224
G1 X127.052 Y113.663 E.03224
G1 X127.024 Y114.643 E.03074
G1 X126.819 Y115.698 E.0337
G1 X126.448 Y116.657 E.03224
G1 X126.06 Y117.313 E.0239
G1 X125.826 Y117.668 E.01333
G1 X125.252 Y118.321 E.02726
G1 X124.46 Y118.977 E.03224
G1 X123.569 Y119.49 E.03224
G1 X122.605 Y119.845 E.03221
G1 X121.594 Y120.033 E.03224
G1 X120.566 Y120.046 E.03223
G1 X119.55 Y119.886 E.03225
G1 X118.576 Y119.556 E.03224
G1 X118.091 Y119.301 E.01718
G1 X117.606 Y119.026 E.01748
G1 X116.765 Y118.339 E.03405
G1 X116.079 Y117.54 E.03302
G1 X115.624 Y116.8 E.02724
G1 X115.228 Y115.851 E.03224
G1 X115.181 Y115.698 E.00502
G1 X114.998 Y114.849 E.02723
G1 X114.95 Y114.044 E.02528
G1 X114.957 Y113.593 E.01414
G1 X115.059 Y112.795 E.02522
G1 X115.072 Y112.75 E.00147
G1 X115.448 Y112.793 F9000
G1 F1200
G1 X115.707 Y111.925 E.0284
G1 X116.133 Y111.06 E.03023
G1 X116.764 Y110.208 E.03324
G1 X117.391 Y109.607 E.02723
G1 X118.185 Y109.06 E.03023
G1 X119.061 Y108.655 E.03026
G1 X119.992 Y108.404 E.03023
G1 X120.915 Y108.318 E.02907
G1 X121.91 Y108.388 E.03127
G1 X122.849 Y108.623 E.03035
G1 X123.731 Y109.013 E.03024
G1 X124.534 Y109.546 E.03022
G1 X125.236 Y110.208 E.03025
G1 X125.816 Y110.978 E.03023
G1 X126.258 Y111.836 E.03026
G1 X126.548 Y112.755 E.03022
G1 X126.678 Y113.711 E.03025
G1 X126.648 Y114.627 E.02874
G1 X126.45 Y115.619 E.03172
G1 X126.098 Y116.517 E.03024
G1 X125.739 Y117.116 E.0219
G1 X125.543 Y117.419 E.01131
G1 X124.969 Y118.071 E.02724
G1 X124.223 Y118.684 E.03027
G1 X123.386 Y119.161 E.03021
G1 X122.479 Y119.49 E.03025
G1 X121.53 Y119.661 E.03023
G1 X120.566 Y119.669 E.03023
G1 X119.614 Y119.514 E.03024
G1 X118.702 Y119.201 E.03023
G1 X117.856 Y118.737 E.03025
G1 X117.031 Y118.071 E.03324
G1 X116.457 Y117.419 E.02724
G1 X115.945 Y116.602 E.03023
G1 X115.55 Y115.619 E.03322
G1 X115.367 Y114.77 E.02723
G1 X115.327 Y114.028 E.0233
G1 X115.331 Y113.641 E.01213
G1 X115.432 Y112.85 E.025
G1 X115.432 Y112.85 F9000
G1 X115.806 Y112.896
;TYPE:External perimeter
G1 F1200
G1 X116.067 Y112.035 E.02821
G1 X116.47 Y111.23 E.02823
G1 X117.025 Y110.48 E.02925
G1 X117.652 Y109.879 E.02723
G1 X118.397 Y109.372 E.02825
G1 X119.216 Y108.999 E.02822
G1 X120.087 Y108.769 E.02825
G1 X120.947 Y108.693 E.02707
G1 X121.88 Y108.764 E.02934
G1 X122.754 Y108.988 E.02829
G1 X123.576 Y109.357 E.02825
G1 X124.323 Y109.859 E.02822
G1 X124.975 Y110.48 E.02823
G1 X125.513 Y111.202 E.02823
G1 X125.921 Y112.005 E.02824
G1 X126.187 Y112.866 E.02825
G1 X126.304 Y113.759 E.02824
G1 X126.271 Y114.611 E.02673
G1 X126.082 Y115.54 E.02972
G1 X125.748 Y116.376 E.02823
G1 X125.418 Y116.918 E.0199
G1 X125.26 Y117.17 E.00933
G1 X124.686 Y117.822 E.02724
G1 X123.987 Y118.39 E.02824
G1 X123.202 Y118.832 E.02825
G1 X122.353 Y119.134 E.02825
G1 X121.466 Y119.289 E.02823
G1 X120.566 Y119.292 E.02822
G1 X119.678 Y119.142 E.02824
G1 X118.827 Y118.845 E.02826
G1 X118.04 Y118.408 E.02822
G1 X117.314 Y117.822 E.02925
G1 X116.74 Y117.17 E.02724
G1 X116.266 Y116.405 E.02822
G1 X115.918 Y115.54 E.02923
G1 X115.735 Y114.69 E.02726
G1 X115.705 Y113.689 E.0314
G1 X115.799 Y112.955 E.0232
G1 E-8.75 F2700
;WIPE_START
G1 F7200
G1 X115.806 Y112.896 E-.02117
G1 X116.067 Y112.035 E-.32051
G1 X116.47 Y111.23 E-.32071
G1 X117.025 Y110.48 E-.33239
G1 X117.652 Y109.879 E-.30941
G1 X118.397 Y109.372 E-.32104
G1 X119.216 Y108.999 E-.3206
G1 X120.087 Y108.769 E-.32093
G1 X120.947 Y108.693 E-.30757
G1 X121.88 Y108.764 E-.33334
G1 X122.754 Y108.988 E-.32143
G1 X123.576 Y109.357 E-.32099
G1 X124.042 Y109.67 E-.19991
;WIPE_END
G1 X109.459 Y122.785 F9000
G1 E12.5 F2400
;TYPE:Perimeter
G1 F1200
G1 X109.617 Y122.893 E.006
G1 X110.037 Y123.296 E.01825
G1 X110.226 Y123.552 E.00998
G1 X110.488 Y124.071 E.01823
G1 X110.581 Y124.376 E.01
G1 X110.655 Y124.953 E.01824
G1 X110.642 Y125.272 E.01001
G1 X110.519 Y125.841 E.01825
G1 X110.4 Y126.136 E.00997
G1 X110.095 Y126.632 E.01826
G1 X109.885 Y126.871 E.00998
G1 X109.432 Y127.237 E.01826
G1 X109.154 Y127.392 E.00998
G1 X108.605 Y127.586 E.01826
G1 X108.291 Y127.64 E.00999
G1 X107.709 Y127.64 E.01825
G1 X107.395 Y127.586 E.00999
G1 X106.846 Y127.392 E.01826
G1 X106.568 Y127.237 E.00998
G1 X106.115 Y126.871 E.01826
G1 X105.905 Y126.632 E.00998
G1 X105.6 Y126.136 E.01826
G1 X105.481 Y125.841 E.00997
G1 X105.358 Y125.272 E.01825
G1 X105.345 Y124.953 E.01001
G1 X105.419 Y124.376 E.01824
G1 X105.512 Y124.071 E.01
G1 X105.774 Y123.552 E.01823
G1 X105.963 Y123.296 E.00998
G1 X106.383 Y122.893 E.01825
G1 X106.648 Y122.714 E.01003
G1 X107.18 Y122.474 E.0183
G1 X107.446 Y122.399 E.00867
G1 X107.99 Y122.336 E.01717
G1 X108.55 Y122.398 E.01767
G1 X108.822 Y122.475 E.00886
G1 X109.359 Y122.717 E.01847
G1 X109.409 Y122.752 E.00191
G1 X109.409 Y122.752 F9000
G1 X109.249 Y123.093
G1 F1200
G1 X109.356 Y123.165 E.00404
G1 X109.776 Y123.568 E.01825
G1 X109.975 Y123.891 E.0119
G1 X110.2 Y124.379 E.01685
G1 X110.281 Y125.001 E.01967
G1 X110.273 Y125.192 E.00599
G1 X110.151 Y125.761 E.01825
G1 X109.774 Y126.434 E.02419
G1 X109.195 Y126.943 E.02417
G1 X108.479 Y127.23 E.02419
G1 X108.291 Y127.263 E.00598
G1 X107.709 Y127.263 E.01825
G1 X106.972 Y127.037 E.02417
G1 X106.352 Y126.578 E.02419
G1 X105.921 Y125.939 E.02417
G1 X105.727 Y125.192 E.0242
G1 X105.719 Y125.001 E.00599
G1 X105.793 Y124.424 E.01824
G1 X105.849 Y124.241 E.006
G1 X106.11 Y123.722 E.01821
G1 X106.224 Y123.568 E.00601
G1 X106.644 Y123.165 E.01825
G1 X106.803 Y123.058 E.00601
G1 X107.335 Y122.818 E.0183
G1 X107.918 Y122.718 E.01855
G1 X108.503 Y122.772 E.01842
G1 X109.197 Y123.058 E.02354
G1 X109.2 Y123.06 E.00011
G1 X109.2 Y123.06 F9000
G1 X109.042 Y123.402
;TYPE:External perimeter
G1 F1200
G1 X109.515 Y123.84 E.02021
G1 X109.815 Y124.411 E.02022
G1 X109.907 Y125.049 E.02021
G1 X109.782 Y125.682 E.02023
G1 X109.453 Y126.236 E.0202
G1 X108.958 Y126.65 E.02023
G1 X108.354 Y126.875 E.02021
G1 X107.709 Y126.886 E.02023
G1 X107.097 Y126.681 E.02024
G1 X106.589 Y126.284 E.02021
G1 X106.242 Y125.741 E.0202
G1 X106.095 Y125.113 E.02022
G1 X106.167 Y124.472 E.02022
G1 X106.485 Y123.84 E.02218
G1 X106.905 Y123.437 E.01825
G1 X107.489 Y123.162 E.02024
G1 X107.99 Y123.09 E.01587
G1 X108.491 Y123.154 E.01584
G1 X108.987 Y123.377 E.01705
G1 E-8.75 F2700
;WIPE_START
G1 F7200
G1 X109.042 Y123.402 E-.02152
G1 X109.515 Y123.84 E-.22966
G1 X109.815 Y124.411 E-.22979
G1 X109.907 Y125.049 E-.22964
G1 X109.782 Y125.682 E-.22986
G1 X109.453 Y126.236 E-.22954
G1 X108.958 Y126.65 E-.22989
G1 X108.354 Y126.875 E-.22962
G1 X107.709 Y126.886 E-.22981
G1 X107.097 Y126.681 E-.22993
G1 X106.589 Y126.284 E-.22968
G1 X106.242 Y125.741 E-.22957
G1 X106.095 Y125.113 E-.22977
G1 X106.167 Y124.472 E-.22979
G1 X106.485 Y123.84 E-.25204
G1 X106.905 Y123.437 E-.20736
G1 X107.489 Y123.162 E-.22996
G1 X107.635 Y123.141 E-.05257
;WIPE_END
G1 X138.594 Y125.679 F9000
G1 E12.5 F2400
;TYPE:Perimeter
G1 F1200
