; generated by PrusaSlicer 2.7.4+win64 on 2024-07-28 at 15:06:21 UTC

; 

; external perimeters extrusion width = 0.42mm
; perimeters extrusion width = 0.44mm
; infill extrusion width = 0.44mm
; solid infill extrusion width = 0.44mm
; top infill extrusion width = 0.40mm
; support material extrusion width = 0.36mm
; first layer extrusion width = 0.42mm

M201 X500 Y500 Z100 E5000 ; sets maximum accelerations, mm/sec^2
M203 X500 Y500 Z10 E60 ; sets maximum feedrates, mm / sec
M204 S500 T1000 ; sets acceleration (S) and retract acceleration (R), mm/sec^2
M205 X8.00 Y8.00 Z0.40 E5.00 ; sets the jerk limits, mm/sec
M205 S0 T0 ; sets the minimum extruding and travel feed rate, mm/sec

; printing object 6吐片上巴.STL id:0 copy 0
; stop printing object 6吐片上巴.STL id:0 copy 0

;TYPE:Custom
G90 ; use absolute coordinates
M83 ; extruder relative mode
M104 S150 ; set temporary nozzle temp to prevent oozing during homing
M140 S60 ; set final bed temp
G4 S30 ; allow partial nozzle warmup
G28 ; home all axis
G1 Z50 F240
G1 X2.0 Y10 F3000
M104 S205 ; set final nozzle temp
M190 S60 ; wait for bed temp to stabilize
M109 S205 ; wait for nozzle temp to stabilize
G1 Z0.28 F240
G92 E0
G1 X2.0 Y140 E10 F1500 ; prime the nozzle
G1 X2.3 Y140 F5000
G92 E0
G1 X2.3 Y10 E10 F1200 ; prime the nozzle
G92 E0
G21 ; set units to millimeters
G90 ; use absolute coordinates
M83 ; use relative distances for extrusion
; Filament gcode
M107
;LAYER_CHANGE
;Z:0.2
;HEIGHT:0.2
G1 E-12.5 F2700
G1 Z.2 F9000
G1 X52.476 Y84.499
G1 Z.2
G1 E12.5 F2400
M204 S500
;TYPE:Skirt/Brim
;WIDTH:0.42
G1 F1200
G1 X54.368 Y83.918 E.06206
G1 X88.112 Y83.924 E1.05802
G1 X162.438 Y88.07 E2.33406
G1 X163.997 Y88.552 E.05116
G1 X165.148 Y89.708 E.05115
G1 X165.622 Y91.262 E.05094
G1 X167.122 Y119.32 E.881
G1 X167.093 Y119.978 E.02065
G1 X165.593 Y130.478 E.33256
G1 X164.979 Y131.989 E.05114
G1 X163.728 Y133.036 E.05115
G1 X162.25 Y133.377 E.04756
G1 X90.75 Y133.377 E2.24183
G1 X88.622 Y132.622 E.0708
G1 X54.122 Y104.622 E1.39315
G1 X53.002 Y102.923 E.0638
G1 X51.12 Y96.303 E.21579
G1 X50.991 Y95.38 E.02922
G1 X50.991 Y87.295 E.2535
G1 X51.385 Y85.712 E.05115
G1 X52.436 Y84.543 E.04929
G1 E-8.75 F2700
;WIPE_START
G1 F7200
G1 X52.476 Y84.499 E-.02118
G1 X54.368 Y83.918 E-.70509
G1 X62.856 Y83.919 E-3.02373
;WIPE_END
; printing object 6吐片上巴.STL id:0 copy 0
G1 X78.817 Y100.42 F9000
G1 E12.5 F2400
;TYPE:Support material interface
;WIDTH:0.36
G1 F1200
G1 X78.661 Y100.42 E.00411
G1 X78.661 Y99.463 E.02523
G1 X78.975 Y99.463 E.00828
G1 X78.975 Y100.42 E.02523
G1 X79.492 Y100.42 E.01363
G1 X79.492 Y99.463 E.02523
G1 X80.009 Y99.463 E.01363
G1 X80.009 Y100.42 E.02523
G1 X80.526 Y100.42 E.01363
G1 X80.526 Y99.463 E.02523
G1 X81.044 Y99.463 E.01366
G1 X81.044 Y100.42 E.02523
G1 X81.561 Y100.42 E.01363
G1 X81.561 Y99.463 E.02523
G1 X82.078 Y99.463 E.01363
G1 X82.078 Y100.42 E.02523
G1 X82.595 Y100.42 E.01363
G1 X82.595 Y99.463 E.02523
G1 X83.112 Y99.463 E.01363
G1 X83.112 Y100.42 E.02523
G1 X83.629 Y100.42 E.01363
G1 X83.629 Y99.463 E.02523
G1 X83.839 Y99.463 E.00554
G1 X83.839 Y100.42 E.02523
G1 X83.788 Y100.42 E.00134
G1 E-8.75 F2700
;WIPE_START
G1 F7200
G1 X83.839 Y100.42 E-.01817
G1 X83.839 Y99.463 E-.34093
G1 X83.629 Y99.463 E-.07481
G1 X83.629 Y100.42 E-.34093
G1 X83.112 Y100.42 E-.18418
G1 X83.112 Y99.463 E-.34093
G1 X82.595 Y99.463 E-.18418
G1 X82.595 Y100.42 E-.34093
G1 X82.078 Y100.42 E-.18418
G1 X82.078 Y99.463 E-.34093
G1 X81.561 Y99.463 E-.18418
G1 X81.561 Y100.42 E-.34093
G1 X81.044 Y100.42 E-.18418
G1 X81.044 Y99.463 E-.34093
G1 X80.526 Y99.463 E-.18454
G1 X80.526 Y99.926 E-.16507
;WIPE_END
G1 X87.924 Y91.038 F9000
G1 E12.5 F2400
;TYPE:Support material
;WIDTH:0.42
G1 F1200
G1 X84.059 Y91.038 E.12118
G1 X83.788 Y91.309 E.01202
G1 X83.788 Y99.095 E.24412
G1 X78.712 Y99.095 E.15915
G1 X78.712 Y91.309 E.24412
G1 X78.441 Y91.038 E.01202
G1 X74.125 Y91.038 E.13533
G1 X74.125 Y87.295 E.11736
G1 X87.924 Y87.295 E.43266
G1 X87.924 Y90.981 E.11557
G1 X87.924 Y90.981 F9000
G1 X87.375 Y90.868
G1 F1200
G1 X87.375 Y87.635 E.10137
G1 X86.956 Y87.635 E.01314
G1 X86.956 Y90.699 E.09607
G1 X86.537 Y90.699 E.01314
G1 X86.537 Y87.635 E.09607
G1 X86.118 Y87.635 E.01314
G1 X86.118 Y90.699 E.09607
G1 X85.699 Y90.699 E.01314
G1 X85.699 Y87.635 E.09607
G1 X85.28 Y87.635 E.01314
G1 X85.28 Y90.699 E.09607
G1 X84.861 Y90.699 E.01314
G1 X84.861 Y87.635 E.09607
G1 X84.442 Y87.635 E.01314
G1 X84.442 Y90.699 E.09607
G1 X84.023 Y90.699 E.01314
G1 X84.023 Y87.635 E.09607
G1 X83.604 Y87.635 E.01314
G1 X83.604 Y91.012 E.10588
G1 X83.449 Y91.168 E.0069
G1 X83.449 Y98.755 E.23789
G1 X83.185 Y98.755 E.00828
G1 X83.185 Y87.635 E.34866
G1 X82.766 Y87.635 E.01314
G1 X82.766 Y98.755 E.34866
G1 X82.348 Y98.755 E.01311
G1 X82.348 Y87.635 E.34866
G1 X81.929 Y87.635 E.01314
G1 X81.929 Y98.755 E.34866
G1 X81.51 Y98.755 E.01314
G1 X81.51 Y87.635 E.34866
G1 X81.091 Y87.635 E.01314
G1 X81.091 Y98.755 E.34866
G1 X80.672 Y98.755 E.01314
G1 X80.672 Y87.635 E.34866
G1 X80.253 Y87.635 E.01314
G1 X80.253 Y98.755 E.34866
G1 X79.834 Y98.755 E.01314
G1 X79.834 Y87.635 E.34866
G1 X79.415 Y87.635 E.01314
G1 X79.415 Y98.755 E.34866
G1 X79.051 Y98.755 E.01141
G1 X78.996 Y87.635 E.34866
G1 X78.577 Y87.635 E.01314
G1 X78.577 Y90.699 E.09607
G1 X78.158 Y90.699 E.01314
G1 X78.158 Y87.635 E.09607
G1 X77.739 Y87.635 E.01314
G1 X77.739 Y90.699 E.09607
G1 X77.32 Y90.699 E.01314
G1 X77.32 Y87.635 E.09607
G1 X76.901 Y87.635 E.01314
G1 X76.901 Y90.699 E.09607
G1 X76.482 Y90.699 E.01314
G1 X76.482 Y87.635 E.09607
G1 X76.063 Y87.635 E.01314
G1 X76.063 Y90.699 E.09607
G1 X75.644 Y90.699 E.01314
G1 X75.644 Y87.635 E.09607
G1 X75.225 Y87.635 E.01314
G1 X75.225 Y90.699 E.09607
G1 X74.806 Y90.699 E.01314
G1 X74.806 Y87.465 E.1014
G1 E-8.75 F2700
;WIPE_START
G1 F7200
G1 X74.806 Y90.699 E-1.15211
G1 X75.225 Y90.699 E-.14927
G1 X75.225 Y87.635 E-1.09155
G1 X75.644 Y87.635 E-.14927
G1 X75.644 Y90.699 E-1.09155
G1 X75.97 Y90.699 E-.11625
;WIPE_END
G1 X65.534 Y91.038 F9000
G1 E12.5 F2400
G1 F1200
G1 X62.059 Y91.038 E.10896
G1 X61.788 Y91.309 E.01202
G1 X61.788 Y101.095 E.30683
G1 X57.912 Y101.095 E.12153
G1 X57.912 Y91.309 E.30683
G1 X57.641 Y91.038 E.01202
G1 X56.059 Y91.038 E.0496
G1 X55.788 Y91.309 E.01202
G1 X55.788 Y93.96 E.08312
G1 X54.368 Y95.38 E.06297
G1 X54.368 Y87.295 E.2535
G1 X65.534 Y87.295 E.3501
G1 X65.534 Y90.981 E.11557
G1 X65.534 Y90.981 F9000
G1 X65.169 Y90.868
G1 F1200
G1 X65.169 Y87.635 E.10137
G1 X64.75 Y87.635 E.01314
G1 X64.75 Y90.699 E.09607
G1 X64.332 Y90.699 E.01311
G1 X64.332 Y87.635 E.09607
G1 X63.913 Y87.635 E.01314
G1 X63.913 Y90.699 E.09607
G1 X63.494 Y90.699 E.01314
G1 X63.494 Y87.635 E.09607
G1 X63.075 Y87.635 E.01314
G1 X63.075 Y90.699 E.09607
G1 X62.656 Y90.699 E.01314
G1 X62.656 Y87.635 E.09607
G1 X62.237 Y87.635 E.01314
G1 X62.237 Y90.699 E.09607
G1 X61.918 Y90.699 E.01
G1 X61.818 Y90.799 E.00443
G1 X61.818 Y87.635 E.0992
G1 X61.399 Y87.635 E.01314
G1 X61.399 Y100.755 E.41137
G1 X60.98 Y100.755 E.01314
G1 X60.98 Y87.635 E.41137
G1 X60.561 Y87.635 E.01314
G1 X60.561 Y100.755 E.41137
G1 X60.142 Y100.755 E.01314
G1 X60.142 Y87.635 E.41137
G1 X59.723 Y87.635 E.01314
G1 X59.723 Y100.755 E.41137
G1 X59.304 Y100.755 E.01314
G1 X59.304 Y87.635 E.41137
G1 X58.885 Y87.635 E.01314
G1 X58.885 Y100.755 E.41137
G1 X58.466 Y100.755 E.01314
G1 X58.466 Y87.635 E.41137
G1 X58.047 Y87.635 E.01314
G1 X58.047 Y90.964 E.10438
G1 X57.782 Y90.699 E.01175
G1 X57.628 Y90.699 E.00483
G1 X57.628 Y87.635 E.09607
G1 X57.209 Y87.635 E.01314
G1 X57.209 Y90.699 E.09607
G1 X56.79 Y90.699 E.01314
G1 X56.79 Y87.635 E.09607
G1 X56.371 Y87.635 E.01314
G1 X56.371 Y90.699 E.09607
G1 X55.952 Y90.699 E.01314
G1 X55.952 Y87.635 E.09607
G1 X55.533 Y87.635 E.01314
G1 X55.449 Y93.82 E.19394
G1 X55.114 Y94.154 E.01483
G1 X55.114 Y87.465 E.20973
G1 E-8.75 F2700
;WIPE_START
G1 F7200
G1 X55.114 Y94.154 E-2.38296
G1 X55.449 Y93.82 E-.16853
G1 X55.495 Y90.456 E-1.19851
;WIPE_END
G1 X150.764 Y110.307 F9000
G1 E12.5 F2400
;TYPE:Perimeter
;WIDTH:0.419999
G1 F1200
G1 X151.136 Y110.319 E.01167
G1 X151.684 Y110.501 E.0181
G1 X151.963 Y110.656 E.01001
G1 X152.373 Y110.995 E.01668
G1 X152.733 Y111.531 E.02024
G1 X152.852 Y111.827 E.01
G1 X152.962 Y112.396 E.01817
G1 X152.901 Y112.992 E.01878
G1 X152.784 Y113.344 E.01163
G1 X152.539 Y113.805 E.01637
G1 X152.115 Y114.234 E.01891
G1 X151.851 Y114.413 E.01
G1 X151.375 Y114.623 E.01631
G1 X150.838 Y114.697 E.017
G1 X150.495 Y114.698 E.01075
G1 X149.989 Y114.571 E.01636
G1 X149.698 Y114.44 E.01001
G1 X149.271 Y114.146 E.01625
G1 X148.856 Y113.633 E.02069
G1 X148.713 Y113.349 E.00997
G1 X148.558 Y112.812 E.01752
G1 X148.565 Y112.192 E.01944
G1 X148.612 Y111.935 E.00819
G1 X148.823 Y111.414 E.01762
G1 X149.243 Y110.888 E.0211
G1 X149.491 Y110.687 E.01001
G1 X149.936 Y110.443 E.01591
G1 X150.573 Y110.301 E.02046
G1 X150.704 Y110.305 E.00411
G1 X150.704 Y110.305 F9000
G1 X150.764 Y110.68
G1 F1200
G1 X151.109 Y110.7 E.01084
G1 X151.614 Y110.879 E.0168
G1 X152.06 Y111.22 E.0176
G1 X152.186 Y111.363 E.00598
G1 X152.454 Y111.813 E.01642
G1 X152.574 Y112.327 E.01655
G1 X152.582 Y112.518 E.00599
G1 X152.507 Y113.039 E.0165
G1 X152.278 Y113.511 E.01645
G1 X152.164 Y113.665 E.00601
G1 X151.779 Y114.022 E.01646
G1 X151.303 Y114.246 E.01649
G1 X150.807 Y114.321 E.01573
G1 X150.5 Y114.315 E.00963
G1 X150.012 Y114.183 E.01585
G1 X149.553 Y113.887 E.01712
G1 X149.415 Y113.755 E.00599
G1 X149.116 Y113.341 E.01601
G1 X148.948 Y112.827 E.01696
G1 X148.923 Y112.638 E.00598
G1 X148.97 Y112.054 E.01837
G1 X149.16 Y111.581 E.01598
G1 X149.526 Y111.137 E.01804
G1 X149.675 Y111.017 E.006
G1 X150.136 Y110.768 E.01643
G1 X150.638 Y110.672 E.01603
G1 X150.704 Y110.676 E.00207
G1 X150.704 Y110.676 F9000
G1 X150.749 Y111.041
;TYPE:External perimeter
G1 F1200
G1 X151.028 Y111.069 E.00879
G1 X151.489 Y111.243 E.01545
G1 X151.865 Y111.561 E.01544
G1 X152.114 Y111.986 E.01544
G1 X152.208 Y112.47 E.01546
G1 X152.111 Y113.004 E.01702
G1 X151.903 Y113.392 E.0138
G1 X151.54 Y113.726 E.01547
G1 X151.086 Y113.919 E.01547
G1 X150.595 Y113.95 E.01543
G1 X150.121 Y113.815 E.01545
G1 X149.718 Y113.53 E.01548
G1 X149.434 Y113.128 E.01543
G1 X149.3 Y112.654 E.01544
G1 X149.328 Y112.173 E.01511
G1 X149.525 Y111.709 E.01581
G1 X149.859 Y111.346 E.01547
G1 X150.294 Y111.115 E.01544
G1 X150.69 Y111.051 E.01258
G1 E-8.75 F2700
;WIPE_START
G1 F7200
G1 X150.749 Y111.041 E-.02132
G1 X151.028 Y111.069 E-.09989
G1 X151.489 Y111.243 E-.17554
G1 X151.865 Y111.561 E-.17543
G1 X152.114 Y111.986 E-.17548
G1 X152.208 Y112.47 E-.17565
G1 X152.111 Y113.004 E-.19335
G1 X151.903 Y113.392 E-.15683
G1 X151.54 Y113.726 E-.17573
G1 X151.086 Y113.919 E-.17575
G1 X150.595 Y113.95 E-.17527
G1 X150.121 Y113.815 E-.17558
G1 X149.718 Y113.53 E-.17584
G1 X149.434 Y113.128 E-.17535
G1 X149.3 Y112.654 E-.17548
G1 X149.328 Y112.173 E-.17165
G1 X149.525 Y111.709 E-.17958
G1 X149.859 Y111.346 E-.17573
G1 X150.294 Y111.115 E-.17546
G1 X150.69 Y111.051 E-.14291
;WIPE_END
G1 E-.50218 F2700
G1 X161.973 Y118.472 F9000
G1 E12.5 F2400
;TYPE:Perimeter
G1 F1200
G1 X161.709 Y118.535 E.00851
G1 X161.386 Y118.798 E.01306
G1 X161.241 Y119.061 E.00942
G1 X161.186 Y119.379 E.01012
G1 X161.186 Y128.936 E.29965
G1 X152.533 Y128.943 E.27131
;WIDTH:0.405106
G1 X152.024 Y128.967 E.01535
;WIDTH:0.406541
G1 X151.96 Y128.943 E.00207
;WIDTH:0.454398
G1 X151.897 Y128.919 E.00231
;WIDTH:0.502256
G1 X151.833 Y128.895 E.00261
;WIDTH:0.550113
G1 X151.769 Y128.871 E.00288
;WIDTH:0.597971
G1 X151.706 Y128.847 E.00311
;WIDTH:0.645828
G1 X151.642 Y128.823 E.00343
G1 X151.704 Y128.794 E.00343
;WIDTH:0.597971
G1 X151.765 Y128.766 E.0031
;WIDTH:0.550113
G1 X151.826 Y128.737 E.00285
;WIDTH:0.502256
G1 X151.888 Y128.709 E.0026
;WIDTH:0.454398
G1 X151.949 Y128.68 E.00231
;WIDTH:0.406541
G1 X152.01 Y128.651 E.00204
;WIDTH:0.405106
G1 X152.456 Y128.583 E.01359
;WIDTH:0.419999
G1 X152.851 Y128.413 E.01348
G1 X153.115 Y128.234 E.01
G1 X153.425 Y127.937 E.01346
G1 X153.614 Y127.681 E.00998
G1 X153.808 Y127.297 E.01349
G1 X153.901 Y126.992 E.01
G1 X153.962 Y126.387 E.01907
G1 X153.843 Y125.806 E.01859
G1 X153.725 Y125.516 E.00982
G1 X153.408 Y125.032 E.01814
G1 X152.963 Y124.656 E.01827
G1 X152.731 Y124.519 E.00845
G1 X152.216 Y124.338 E.01712
G1 X151.706 Y124.287 E.01607
G1 X151.164 Y124.372 E.0172
G1 X150.867 Y124.478 E.00989
G1 X150.333 Y124.799 E.01954
G1 X149.959 Y125.21 E.01742
G1 X149.792 Y125.482 E.01001
G1 X149.575 Y126.086 E.02012
G1 X149.547 Y126.622 E.01683
G1 X149.589 Y126.945 E.01021
G1 X149.723 Y127.369 E.01394
G1 X149.866 Y127.648 E.00983
G1 X150.114 Y127.981 E.01302
G1 X150.342 Y128.199 E.00989
G1 X150.698 Y128.44 E.01348
;WIDTH:0.463407
G1 X150.81 Y128.501 E.00446
;WIDTH:0.506815
G1 X150.923 Y128.562 E.00495
;WIDTH:0.550223
G1 X151.035 Y128.623 E.00538
;WIDTH:0.593631
G1 X151.147 Y128.684 E.00584
;WIDTH:0.637039
G1 X151.26 Y128.745 E.00634
;WIDTH:0.680446
G1 X151.372 Y128.806 E.00676
G1 X151.3 Y128.827 E.00398
;WIDTH:0.637039
G1 X151.228 Y128.849 E.00372
;WIDTH:0.593631
G1 X151.157 Y128.871 E.0034
;WIDTH:0.550223
G1 X151.085 Y128.892 E.00316
;WIDTH:0.506815
G1 X151.014 Y128.914 E.00287
;WIDTH:0.463407
G1 X150.942 Y128.936 E.00263
;WIDTH:0.419999
G1 X142.533 Y128.943 E.26366
;WIDTH:0.405105
G1 X142.024 Y128.967 E.01535
;WIDTH:0.406542
G1 X141.96 Y128.943 E.00207
;WIDTH:0.454399
G1 X141.897 Y128.919 E.00231
;WIDTH:0.502256
G1 X141.833 Y128.895 E.00261
;WIDTH:0.550114
G1 X141.769 Y128.871 E.00288
;WIDTH:0.597971
G1 X141.706 Y128.847 E.00311
;WIDTH:0.645828
G1 X141.642 Y128.823 E.00343
G1 X141.704 Y128.794 E.00343
;WIDTH:0.597971
G1 X141.765 Y128.766 E.0031
;WIDTH:0.550114
G1 X141.826 Y128.737 E.00285
;WIDTH:0.502256
G1 X141.888 Y128.709 E.0026
;WIDTH:0.454399
G1 X141.949 Y128.68 E.00231
;WIDTH:0.406542
G1 X142.01 Y128.651 E.00204
;WIDTH:0.405105
G1 X142.456 Y128.583 E.01359
;WIDTH:0.419999
G1 X142.851 Y128.413 E.01348
G1 X143.114 Y128.234 E.00997
G1 X143.425 Y127.937 E.01348
G1 X143.614 Y127.681 E.00998
G1 X143.808 Y127.297 E.01349
G1 X143.901 Y126.992 E.01
G1 X143.956 Y126.566 E.01347
G1 X143.942 Y126.247 E.01001
G1 X143.786 Y125.631 E.01992
G1 X143.508 Y125.165 E.01701
G1 X143.297 Y124.926 E.01
G1 X142.764 Y124.533 E.02076
G1 X142.236 Y124.343 E.01759
G1 X141.712 Y124.287 E.01652
G1 X141.164 Y124.372 E.01739
G1 X140.867 Y124.478 E.00989
G1 X140.318 Y124.812 E.02015
G1 X139.959 Y125.21 E.01681
G1 X139.792 Y125.482 E.01001
G1 X139.589 Y126.017 E.01794
G1 X139.547 Y126.622 E.01901
G1 X139.587 Y126.938 E.00999
G1 X139.713 Y127.349 E.01348
G1 X139.861 Y127.64 E.01024
G1 X140.129 Y127.995 E.01395
G1 X140.356 Y128.21 E.0098
G1 X140.701 Y128.442 E.01304
;WIDTH:0.463408
G1 X140.812 Y128.502 E.00441
;WIDTH:0.506816
G1 X140.924 Y128.563 E.00492
;WIDTH:0.550224
G1 X141.036 Y128.624 E.00538
;WIDTH:0.593632
G1 X141.148 Y128.684 E.00582
;WIDTH:0.63704
G1 X141.26 Y128.745 E.0063
;WIDTH:0.680448
G1 X141.372 Y128.806 E.00676
G1 X141.3 Y128.827 E.00398
;WIDTH:0.63704
G1 X141.228 Y128.849 E.00372
;WIDTH:0.593632
G1 X141.157 Y128.871 E.0034
;WIDTH:0.550224
G1 X141.085 Y128.892 E.00316
;WIDTH:0.506816
G1 X141.014 Y128.914 E.00287
;WIDTH:0.463408
G1 X140.942 Y128.936 E.00263
;WIDTH:0.419999
G1 X114.303 Y128.936 E.83525
G1 X114.791 Y128.663 E.01753
G1 X115.039 Y128.463 E.00999
G1 X115.424 Y128.026 E.01826
G1 X115.591 Y127.754 E.01001
G1 X115.808 Y127.214 E.01825
G1 X115.875 Y126.903 E.00997
G1 X115.9 Y126.321 E.01826
G1 X115.859 Y126.005 E.00999
G1 X115.689 Y125.449 E.01823
G1 X115.545 Y125.164 E.01001
G1 X115.199 Y124.696 E.01825
G1 X114.969 Y124.476 E.00998
G1 X114.487 Y124.15 E.01824
G1 X114.197 Y124.019 E.00998
G1 X113.636 Y123.873 E.01818
G1 X113.32 Y123.845 E.00995
G1 X112.738 Y123.894 E.01831
G1 X112.43 Y123.974 E.00998
G1 X111.898 Y124.214 E.0183
G1 X111.633 Y124.393 E.01003
G1 X111.213 Y124.796 E.01825
G1 X111.024 Y125.052 E.00998
G1 X110.762 Y125.571 E.01823
G1 X110.669 Y125.876 E.01
G1 X110.595 Y126.693 E.02572
G1 X110.692 Y127.214 E.01662
G1 X110.909 Y127.754 E.01825
G1 X111.076 Y128.026 E.01001
G1 X111.461 Y128.463 E.01826
G1 X111.709 Y128.663 E.00999
G1 X112.197 Y128.936 E.01753
G1 X91.814 Y128.936 E.63909
G1 X91.814 Y121.064 E.24682
