; generated by PrusaSlicer 2.7.4+win64 on 2024-08-03 at 13:05:53 UTC

; 

; external perimeters extrusion width = 0.42mm
; perimeters extrusion width = 0.44mm
; infill extrusion width = 0.44mm
; solid infill extrusion width = 0.44mm
; top infill extrusion width = 0.40mm
; support material extrusion width = 0.36mm
; first layer extrusion width = 0.42mm

; external perimeters extrusion width = 0.42mm
; perimeters extrusion width = 0.44mm
; infill extrusion width = 0.44mm
; solid infill extrusion width = 0.44mm
; top infill extrusion width = 0.40mm
; support material extrusion width = 0.36mm
; first layer extrusion width = 0.42mm

M201 X500 Y500 Z100 E5000 ; sets maximum accelerations, mm/sec^2
M203 X500 Y500 Z10 E60 ; sets maximum feedrates, mm / sec
M204 S500 T1000 ; sets acceleration (S) and retract acceleration (R), mm/sec^2
M205 X8.00 Y8.00 Z0.40 E5.00 ; sets the jerk limits, mm/sec
M205 S0 T0 ; sets the minimum extruding and travel feed rate, mm/sec

; printing object 4马达座.STL id:1 copy 0
; stop printing object 4马达座.STL id:1 copy 0
; printing object 3齿轮罩.STL id:0 copy 0
; stop printing object 3齿轮罩.STL id:0 copy 0

;TYPE:Custom
G90 ; use absolute coordinates
M83 ; extruder relative mode
M104 S150 ; set temporary nozzle temp to prevent oozing during homing
M140 S70 ; set final bed temp
G4 S30 ; allow partial nozzle warmup
G28 ; home all axis
G1 Z50 F240
G1 X2.0 Y10 F3000
M104 S240 ; set final nozzle temp
M190 S70 ; wait for bed temp to stabilize
M109 S240 ; wait for nozzle temp to stabilize
G1 Z0.28 F240
G92 E0
G1 X2.0 Y140 E10 F1500 ; prime the nozzle
G1 X2.3 Y140 F5000
G92 E0
G1 X2.3 Y10 E10 F1200 ; prime the nozzle
G92 E0
G21 ; set units to millimeters
G90 ; use absolute coordinates
M83 ; use relative distances for extrusion
; Filament gcode
M107
;LAYER_CHANGE
;Z:0.2
;HEIGHT:0.2
G1 E-11 F3600
G1 Z.2 F9000
G1 X62.639 Y77.532
G1 Z.2
G1 E11 F2400
M204 S500
;TYPE:Skirt/Brim
;WIDTH:0.42
G1 F1200
G1 X63.516 Y76.9 E.03389
G1 X66.151 Y75.583 E.09236
G1 X67.147 Y75.265 E.03278
G1 X84.269 Y72.631 E.54316
G1 X93.314 Y72.592 E.2836
G1 X94.892 Y72.983 E.05097
G1 X132.417 Y92.817 E1.33081
G1 X133.227 Y93.414 E.03155
G1 X134.544 Y94.732 E.05842
G1 X135.385 Y96.13 E.05115
G1 X135.533 Y97.119 E.03135
G1 X135.533 Y109.602 E.3914
G1 X135.139 Y111.185 E.05115
G1 X134.544 Y111.99 E.03139
G1 X133.227 Y113.307 E.0584
G1 X132.349 Y113.939 E.03392
G1 X129.602 Y115.31 E.09626
G1 X100.626 Y128.481 E.99798
G1 X99.229 Y128.784 E.04482
G1 X88.064 Y128.784 E.35007
G1 X86.674 Y128.485 E.04458
G1 X54.417 Y113.92 E1.10972
G1 X53.419 Y113.23 E.03804
G1 X50.785 Y110.595 E.11682
G1 X49.944 Y109.197 E.05115
G1 X49.796 Y108.207 E.03139
G1 X49.796 Y100.994 E.22616
G1 X50.193 Y99.404 E.05138
G1 X60.73 Y79.648 E.70203
G1 X61.322 Y78.849 E.03118
G1 X62.596 Y77.575 E.05649
G1 E-7.7 F3600
;WIPE_START
G1 F7200
G1 X62.639 Y77.532 E-.02889
G1 X63.516 Y76.9 E-.51347
G1 X66.151 Y75.583 E-1.39925
G1 X67.147 Y75.265 E-.49663
G1 X68.94 Y74.989 E-.86176
;WIPE_END
; printing object 3齿轮罩.STL id:0 copy 0
G1 X130.839 Y97.119 F9000
G1 E11 F2400
;TYPE:Support material
G1 F1200
G1 X132.156 Y97.119 E.04129
G1 X132.156 Y109.602 E.3914
G1 X130.839 Y109.602 E.04129
G1 X130.839 Y110.919 E.04129
G1 X128.205 Y110.919 E.08259
G1 X128.205 Y112.236 E.04129
G1 X119.771 Y112.236 E.26444
G1 X119.465 Y111.004 E.0398
G1 X122.886 Y109.188 E.12144
G1 X123.018 Y108.968 E.00804
G1 X123.018 Y106.714 E.07067
G1 X122.91 Y106.51 E.00724
G1 X122.29 Y106.094 E.02341
G1 X121.858 Y105.688 E.01859
G1 X121.498 Y105.217 E.01859
G1 X121.028 Y104.132 E.03707
G1 X120.932 Y103.547 E.01859
G1 X120.932 Y102.954 E.01859
G1 X121.219 Y101.807 E.03707
G1 X121.858 Y100.813 E.03705
G1 X122.29 Y100.406 E.01861
G1 X122.91 Y99.991 E.02339
G1 X123.018 Y99.787 E.00724
G1 X123.018 Y99.1 E.02154
G1 X122.841 Y98.857 E.00943
G1 X118.683 Y97.515 E.13699
G1 X118.952 Y95.802 E.05437
G1 X130.839 Y95.802 E.37271
G1 X130.839 Y97.063 E.03954
G1 X130.839 Y97.063 F9000
G1 X131.657 Y109.432
G1 F1200
G1 X131.657 Y97.459 E.37541
G1 X131.238 Y97.459 E.01314
G1 X131.238 Y109.262 E.37007
G1 X130.819 Y109.262 E.01314
G1 X130.819 Y97.459 E.37007
G1 X130.499 Y97.459 E.01003
G1 X130.499 Y96.142 E.04129
G1 X130.4 Y96.142 E.0031
G1 X130.4 Y110.579 E.45266
G1 X129.981 Y110.579 E.01314
G1 X129.981 Y96.142 E.45266
G1 X129.562 Y96.142 E.01314
G1 X129.562 Y110.579 E.45266
G1 X129.143 Y110.579 E.01314
G1 X129.143 Y96.142 E.45266
G1 X128.724 Y96.142 E.01314
G1 X128.724 Y110.579 E.45266
G1 X128.305 Y110.579 E.01314
G1 X128.305 Y96.142 E.45266
G1 X127.886 Y96.142 E.01314
G1 X127.865 Y111.897 E.49399
G1 X127.467 Y111.897 E.01248
G1 X127.467 Y96.142 E.49399
G1 X127.048 Y96.142 E.01314
G1 X127.048 Y111.897 E.49399
G1 X126.629 Y111.897 E.01314
G1 X126.629 Y96.142 E.49399
G1 X126.21 Y96.142 E.01314
G1 X126.21 Y111.897 E.49399
G1 X125.791 Y111.897 E.01314
G1 X125.791 Y96.142 E.49399
G1 X125.372 Y96.142 E.01314
G1 X125.372 Y111.897 E.49399
G1 X124.953 Y111.897 E.01314
G1 X124.953 Y96.142 E.49399
G1 X124.534 Y96.142 E.01314
G1 X124.534 Y111.897 E.49399
G1 X124.115 Y111.897 E.01314
G1 X124.115 Y96.142 E.49399
G1 X123.696 Y96.142 E.01314
G1 X123.696 Y111.897 E.49399
G1 X123.277 Y111.897 E.01314
G1 X123.277 Y96.142 E.49399
G1 X122.858 Y96.142 E.01314
G1 X122.858 Y98.506 E.07412
G1 X122.439 Y98.371 E.0138
G1 X122.439 Y96.142 E.06989
G1 X122.02 Y96.142 E.01314
G1 X122.02 Y98.235 E.06562
G1 X121.601 Y98.1 E.0138
G1 X121.601 Y96.142 E.06139
G1 X121.182 Y96.142 E.01314
G1 X121.182 Y97.965 E.05716
G1 X120.764 Y97.83 E.01377
G1 X120.764 Y96.142 E.05293
G1 X120.345 Y96.142 E.01314
G1 X120.345 Y97.695 E.04869
G1 X119.926 Y97.559 E.01381
G1 X119.926 Y96.142 E.04443
G1 X119.507 Y96.142 E.01314
G1 X119.507 Y97.424 E.0402
G1 X119.088 Y97.289 E.0138
G1 X119.088 Y96.033 E.03938
G1 E-7.7 F3600
;WIPE_START
G1 F7200
G1 X119.088 Y97.289 E-.5966
G1 X119.507 Y97.424 E-.2091
G1 X119.507 Y96.142 E-.60895
G1 X119.926 Y96.142 E-.19902
G1 X119.926 Y97.559 E-.67308
G1 X120.345 Y97.695 E-.20925
G1 X120.345 Y96.142 E-.73768
G1 X120.484 Y96.142 E-.06632
;WIPE_END
G1 X122.858 Y112.066 F9000
G1 E11 F2400
G1 F1200
G1 X122.858 Y109.587 E.07773
G1 X122.439 Y109.809 E.01487
G1 X122.439 Y111.897 E.06547
G1 X122.02 Y111.897 E.01314
G1 X122.02 Y110.032 E.05848
G1 X121.601 Y110.254 E.01487
G1 X121.601 Y111.897 E.05152
G1 X121.182 Y111.897 E.01314
G1 X121.182 Y110.476 E.04455
G1 X120.764 Y110.699 E.01485
G1 X120.764 Y111.897 E.03756
G1 X120.345 Y111.897 E.01314
G1 X120.345 Y110.921 E.0306
G1 X119.926 Y111.143 E.01487
G1 X119.926 Y112.066 E.02894
G1 E-7.7 F3600
;WIPE_START
G1 F7200
G1 X119.926 Y111.143 E-.43843
G1 X120.345 Y110.921 E-.22523
G1 X120.345 Y111.897 E-.4636
G1 X120.764 Y111.897 E-.19902
G1 X120.764 Y110.699 E-.56905
G1 X121.182 Y110.476 E-.22504
G1 X121.182 Y111.897 E-.67498
G1 X121.601 Y111.897 E-.19902
G1 X121.601 Y111.254 E-.30563
;WIPE_END
G1 X122.858 Y106.271 F9000
G1 E11 F2400
G1 F1200
G1 X122.858 Y100.434 E.18302
G1 X122.439 Y100.732 E.01612
G1 X122.439 Y105.769 E.15793
G1 X122.02 Y105.342 E.01876
G1 X122.02 Y101.159 E.13116
G1 X121.601 Y101.81 E.02427
G1 X121.601 Y105.051 E.10162
G1 E-7.7 F3600
;WIPE_START
G1 F7200
G1 X121.601 Y101.81 E-1.53947
G1 X122.02 Y101.159 E-.36774
G1 X122.02 Y104.091 E-1.39279
;WIPE_END
G1 X104.756 Y93.414 F9000
G1 E11 F2400
G1 F1200
G1 X96.579 Y96.553 E.27463
G1 X96.423 Y96.903 E.01201
G1 X96.729 Y97.7 E.02677
G1 X95.966 Y97.993 E.02563
G1 X95.966 Y91.851 E.19258
G1 X104.467 Y91.851 E.26654
G1 X104.746 Y93.359 E.04808
G1 X104.746 Y93.359 F9000
G1 X104.004 Y93.521
G1 F1200
G1 X104.004 Y92.191 E.0417
G1 X103.585 Y92.191 E.01314
G1 X103.585 Y93.5 E.04104
G1 X103.166 Y93.661 E.01407
G1 X103.166 Y92.191 E.04609
G1 X102.747 Y92.191 E.01314
G1 X102.747 Y93.822 E.05114
G1 X102.329 Y93.983 E.01404
G1 X102.329 Y92.191 E.05619
G1 X101.91 Y92.191 E.01314
G1 X101.91 Y94.143 E.0612
G1 X101.491 Y94.304 E.01407
G1 X101.491 Y92.191 E.06625
G1 X101.072 Y92.191 E.01314
G1 X101.072 Y94.465 E.0713
G1 X100.653 Y94.626 E.01407
G1 X100.653 Y92.191 E.07635
G1 X100.234 Y92.191 E.01314
G1 X100.234 Y94.787 E.0814
G1 X99.815 Y94.948 E.01407
G1 X99.815 Y92.191 E.08644
G1 X99.396 Y92.191 E.01314
G1 X99.396 Y95.108 E.09146
G1 X98.977 Y95.269 E.01407
G1 X98.977 Y92.191 E.09651
G1 X98.558 Y92.191 E.01314
G1 X98.558 Y95.43 E.10156
G1 X98.139 Y95.591 E.01407
G1 X98.139 Y92.191 E.1066
G1 X97.72 Y92.191 E.01314
G1 X97.72 Y95.752 E.11165
G1 X97.301 Y95.913 E.01407
G1 X97.301 Y92.191 E.1167
G1 X96.882 Y92.191 E.01314
G1 X96.882 Y96.073 E.12172
G1 X96.463 Y96.234 E.01407
G1 X96.463 Y92.021 E.1321
G1 E-7.7 F3600
;WIPE_START
G1 F7200
G1 X96.463 Y96.234 E-2.00118
G1 X96.882 Y96.073 E-.21321
G1 X96.882 Y93.787 E-1.08561
;WIPE_END
G1 X93.875 Y113.659 F9000
G1 E11 F2400
G1 F1200
G1 X91.227 Y115.775 E.10628
G1 X91.184 Y116.155 E.01199
G1 X92.041 Y117.227 E.04303
G1 X92.397 Y117.282 E.01129
G1 X93.164 Y116.833 E.02787
G1 X93.823 Y116.714 E.021
G1 X94.486 Y116.816 E.02103
G1 X94.796 Y116.947 E.01055
G1 X95.33 Y117.352 E.02101
G1 X95.704 Y117.909 E.02104
G1 X95.817 Y118.225 E.01052
G1 X95.881 Y118.893 E.02104
G1 X95.725 Y119.544 E.02099
G1 X95.365 Y120.11 E.02103
G1 X94.962 Y120.491 E.01739
G1 X94.937 Y120.851 E.01131
G1 X95.74 Y121.855 E.04031
G1 X95.929 Y121.947 E.00659
G1 X99.229 Y121.947 E.10347
G1 X99.229 Y125.407 E.10849
G1 X88.064 Y125.407 E.35007
G1 X88.064 Y124.09 E.04129
G1 X86.747 Y124.09 E.04129
G1 X86.747 Y112.924 E.3501
G1 X93.617 Y112.924 E.2154
G1 X93.856 Y113.605 E.02263
G1 E-7.7 F3600
;WIPE_START
G1 F7200
G1 X93.617 Y112.924 E-.34282
G1 X87.391 Y112.924 E-2.95718
;WIPE_END
G1 X98.558 Y125.237 F9000
G1 E11 F2400
G1 F1200
G1 X98.558 Y122.286 E.09253
G1 X98.139 Y122.286 E.01314
G1 X98.139 Y125.067 E.0872
G1 X97.72 Y125.067 E.01314
G1 X97.72 Y122.286 E.0872
G1 X97.301 Y122.286 E.01314
G1 X97.301 Y125.067 E.0872
G1 X96.882 Y125.067 E.01314
G1 X96.882 Y122.286 E.0872
G1 X96.463 Y122.286 E.01314
G1 X96.463 Y125.067 E.0872
G1 X96.044 Y125.067 E.01314
G1 X96.044 Y122.286 E.0872
G1 X95.625 Y122.177 E.01357
G1 X95.625 Y125.067 E.09061
G1 X95.206 Y125.067 E.01314
G1 X95.206 Y121.731 E.1046
G1 X94.787 Y121.207 E.02104
G1 X94.787 Y125.067 E.12103
G1 X94.368 Y125.067 E.01314
G1 X94.368 Y117.137 E.24864
G1 X93.949 Y117.063 E.01334
G1 X93.949 Y125.067 E.25096
G1 X93.53 Y125.067 E.01314
G1 X93.53 Y117.087 E.25021
G1 X93.111 Y117.23 E.01388
G1 X93.111 Y125.067 E.24572
G1 X92.692 Y125.067 E.01314
G1 X92.692 Y117.492 E.23751
G1 X92.476 Y117.637 E.00816
G1 X92.273 Y117.606 E.00644
G1 X92.273 Y125.067 E.23393
G1 X91.854 Y125.067 E.01314
G1 X91.854 Y117.537 E.2361
G1 X91.435 Y117.013 E.02104
G1 X91.435 Y125.067 E.25253
G1 X91.016 Y125.067 E.01314
G1 X91.016 Y116.489 E.26896
G1 X90.831 Y116.257 E.0093
G1 X90.905 Y115.598 E.02079
G1 X91.016 Y115.509 E.00446
G1 X91.016 Y113.264 E.07039
G1 X91.435 Y113.264 E.01314
G1 X91.435 Y115.174 E.05989
G1 X91.854 Y114.839 E.01682
G1 X91.854 Y113.264 E.04938
G1 X92.273 Y113.264 E.01314
G1 X92.273 Y114.504 E.03888
G1 X92.692 Y114.169 E.01682
G1 X92.692 Y113.264 E.02838
G1 X93.111 Y113.264 E.01314
G1 X93.111 Y114.052 E.02471
G1 E-7.7 F3600
;WIPE_START
G1 F7200
G1 X93.111 Y113.264 E-.3743
G1 X92.692 Y113.264 E-.19902
G1 X92.692 Y114.169 E-.42988
G1 X92.273 Y114.504 E-.25482
G1 X92.273 Y113.264 E-.589
G1 X91.854 Y113.264 E-.19902
G1 X91.854 Y114.839 E-.74813
G1 X91.435 Y115.174 E-.25482
G1 X91.435 Y114.646 E-.25101
;WIPE_END
G1 X95.206 Y120.028 F9000
G1 E11 F2400
G1 F1200
G1 X95.206 Y117.74 E.07174
G1 X94.787 Y117.344 E.01808
G1 X94.787 Y120.564 E.10096
G1 X94.787 Y120.564 F9000
G1 X90.597 Y125.237
G1 F1200
G1 X90.597 Y113.264 E.37541
G1 X90.178 Y113.264 E.01314
G1 X90.178 Y125.067 E.37007
G1 X89.759 Y125.067 E.01314
G1 X89.759 Y113.264 E.37007
G1 X89.34 Y113.264 E.01314
G1 X89.34 Y125.067 E.37007
G1 X88.921 Y125.067 E.01314
G1 X88.921 Y113.264 E.37007
G1 X88.502 Y113.264 E.01314
G1 X88.502 Y125.067 E.37007
G1 X88.403 Y125.067 E.0031
G1 X88.403 Y123.75 E.04129
G1 X88.083 Y123.75 E.01003
G1 X88.083 Y113.264 E.32878
G1 X87.664 Y113.264 E.01314
G1 X87.664 Y123.75 E.32878
G1 X87.245 Y123.75 E.01314
G1 X87.245 Y113.094 E.33411
G1 E-7.7 F3600
;WIPE_START
G1 F7200
G1 X87.245 Y120.042 E-3.3
;WIPE_END
G1 X94.359 Y115.226 F9000
G1 E11 F2400
;TYPE:Perimeter
;WIDTH:0.419999
G1 F1200
G1 X95.056 Y114.668 E.02799
G1 X96.124 Y113.691 E.04538
G1 X97.023 Y112.628 E.04365
G1 X97.782 Y111.461 E.04365
G1 X98.161 Y110.689 E.02697
G1 X98.388 Y110.209 E.01665
G1 X98.801 Y109.004 E.03994
G1 X99.107 Y107.525 E.04736
G1 X99.208 Y106.137 E.04363
G1 X99.151 Y104.943 E.03748
G1 X99.093 Y104.511 E.01367
G1 X98.905 Y103.446 E.03391
G1 X98.128 Y100.224 E.10392
G1 X98.234 Y100.031 E.0069
G1 X98.615 Y99.452 E.02173
G1 X98.743 Y99.16 E.01
G1 X98.766 Y98.847 E.00984
G1 X98.708 Y98.595 E.00811
G1 X98.298 Y97.528 E.03584
G1 X105.356 Y94.819 E.23704
G1 X120.735 Y99.781 E.50667
G1 X120.171 Y100.527 E.02932
G1 X119.783 Y101.289 E.02681
G1 X119.53 Y102.074 E.02586
G1 X119.418 Y102.753 E.02158
G1 X119.406 Y103.166 E.01295
G1 X119.418 Y103.748 E.01825
G1 X119.568 Y104.576 E.02638
G1 X119.849 Y105.37 E.02641
G1 X120.256 Y106.107 E.0264
G1 X120.778 Y106.767 E.02638
G1 X121.492 Y107.397 E.02986
G1 X121.492 Y107.508 E.00348
G1 X121.492 Y108.2 E.0217
G1 X114.756 Y111.77 E.23903
;WIDTH:0.450398
G1 X114.033 Y112.136 E.02746
G1 X113.462 Y112.452 E.02211
;WIDTH:0.423617
G1 X112.941 Y112.625 E.01738
;WIDTH:0.419999
G1 X109.972 Y113.232 E.09502
G1 X107.404 Y113.967 E.08375
G1 X104.855 Y114.911 E.08523
G1 X104.329 Y115.196 E.01876
G1 X103.857 Y115.566 E.0188
G1 X103.453 Y116.011 E.01884
G1 X103.13 Y116.517 E.01882
G1 X102.891 Y117.088 E.01941
G1 X102.758 Y117.655 E.01826
G1 X102.718 Y118.169 E.01616
G1 X102.718 Y120.42 E.07058
G1 X96.989 Y120.42 E.17963
G1 X97.159 Y120.067 E.01228
G1 X97.331 Y119.505 E.01843
G1 X97.408 Y118.921 E.01847
G1 X97.387 Y118.333 E.01845
G1 X97.267 Y117.747 E.01875
G1 X97.043 Y117.177 E.0192
G1 X96.762 Y116.7 E.01736
G1 X96.385 Y116.248 E.01845
G1 X95.939 Y115.865 E.01843
G1 X95.435 Y115.561 E.01845
G1 X94.889 Y115.343 E.01843
G1 X94.417 Y115.239 E.01515
G1 X94.417 Y115.239 F9000
G1 X93.262 Y115.62
G1 F1200
G1 X94.821 Y114.373 E.06259
G1 X95.838 Y113.446 E.04315
G1 X96.708 Y112.421 E.04215
G1 X97.443 Y111.295 E.04216
G1 X98.031 Y110.086 E.04215
G1 X98.444 Y108.882 E.03991
G1 X98.731 Y107.496 E.04438
G1 X98.832 Y106.155 E.04217
G1 X98.775 Y104.961 E.03748
G1 X98.538 Y103.535 E.04532
G1 X97.728 Y100.171 E.10849
G1 X97.91 Y99.836 E.01195
G1 X98.3 Y99.244 E.02223
G1 X98.39 Y98.995 E.0083
G1 X98.356 Y98.73 E.00838
G1 X97.811 Y97.311 E.04766
G1 X105.345 Y94.419 E.25303
G1 X121.453 Y99.616 E.53069
G1 X120.974 Y100.077 E.02084
G1 X120.505 Y100.703 E.02453
G1 X120.14 Y101.41 E.02495
G1 X119.902 Y102.135 E.02393
G1 X119.79 Y102.814 E.02158
G1 X119.79 Y103.687 E.02737
G1 X119.925 Y104.455 E.02445
G1 X120.182 Y105.192 E.02447
G1 X120.556 Y105.877 E.02447
G1 X121.036 Y106.493 E.02449
G1 X121.519 Y106.946 E.02076
G1 X121.869 Y107.196 E.01349
G1 X121.869 Y107.508 E.00978
G1 X121.869 Y108.427 E.02881
G1 X113.662 Y112.777 E.29124
G1 X113.178 Y112.96 E.01622
G1 X110.075 Y113.594 E.0993
G1 X107.534 Y114.321 E.08287
G1 X105.048 Y115.237 E.08307
G1 X104.6 Y115.467 E.01579
G1 X104.163 Y115.794 E.01711
G1 X103.789 Y116.188 E.01703
G1 X103.506 Y116.61 E.01593
G1 X103.274 Y117.12 E.01757
G1 X103.14 Y117.639 E.01681
G1 X103.095 Y118.169 E.01668
G1 X103.095 Y120.798 E.08243
G1 X96.39 Y120.798 E.21023
G1 X96.325 Y120.747 E.00259
G1 X96.564 Y120.419 E.01272
G1 X96.801 Y119.949 E.0165
G1 X96.958 Y119.447 E.01649
G1 X97.031 Y118.926 E.0165
G1 X97.016 Y118.4 E.0165
G1 X96.912 Y117.874 E.01681
G1 X96.731 Y117.391 E.01617
G1 X96.468 Y116.935 E.01651
G1 X96.133 Y116.529 E.0165
G1 X95.737 Y116.183 E.01649
G1 X95.288 Y115.908 E.01651
G1 X94.801 Y115.71 E.01648
G1 X94.287 Y115.595 E.01651
G1 X93.762 Y115.566 E.01649
G1 X93.321 Y115.613 E.01391
G1 X93.321 Y115.613 F9000
G1 X92.353 Y116.381
;TYPE:External perimeter
G1 F1200
G1 X92.1 Y116.065 E.01269
G1 X94.478 Y114.165 E.09544
G1 X94.952 Y113.746 E.01984
G1 X95.551 Y113.201 E.02539
G1 X96.393 Y112.214 E.04068
G1 X97.105 Y111.129 E.04069
G1 X97.675 Y109.964 E.04067
