; generated by PrusaSlicer 2.7.4+win64 on 2024-08-03 at 09:17:09 UTC

; 

; external perimeters extrusion width = 0.42mm
; perimeters extrusion width = 0.44mm
; infill extrusion width = 0.44mm
; solid infill extrusion width = 0.44mm
; top infill extrusion width = 0.40mm
; support material extrusion width = 0.36mm
; first layer extrusion width = 0.42mm

; external perimeters extrusion width = 0.42mm
; perimeters extrusion width = 0.44mm
; infill extrusion width = 0.44mm
; solid infill extrusion width = 0.44mm
; top infill extrusion width = 0.40mm
; support material extrusion width = 0.36mm
; first layer extrusion width = 0.42mm

; external perimeters extrusion width = 0.42mm
; perimeters extrusion width = 0.44mm
; infill extrusion width = 0.44mm
; solid infill extrusion width = 0.44mm
; top infill extrusion width = 0.40mm
; support material extrusion width = 0.36mm
; first layer extrusion width = 0.42mm

M201 X500 Y500 Z100 E5000 ; sets maximum accelerations, mm/sec^2
M203 X500 Y500 Z10 E60 ; sets maximum feedrates, mm / sec
M204 S500 T1000 ; sets acceleration (S) and retract acceleration (R), mm/sec^2
M205 X8.00 Y8.00 Z0.40 E5.00 ; sets the jerk limits, mm/sec
M205 S0 T0 ; sets the minimum extruding and travel feed rate, mm/sec

; printing object 2反射镜压板盖.STL id:0 copy 0
; stop printing object 2反射镜压板盖.STL id:0 copy 0
; printing object 4推片钩定位.STL id:1 copy 0
; stop printing object 4推片钩定位.STL id:1 copy 0
; printing object 1吐片钣金固定销.STL id:2 copy 0
; stop printing object 1吐片钣金固定销.STL id:2 copy 0

;TYPE:Custom
G90 ; use absolute coordinates
M83 ; extruder relative mode
M104 S150 ; set temporary nozzle temp to prevent oozing during homing
M140 S60 ; set final bed temp
G4 S30 ; allow partial nozzle warmup
G28 ; home all axis
G1 Z50 F240
G1 X2.0 Y10 F3000
M104 S205 ; set final nozzle temp
M190 S60 ; wait for bed temp to stabilize
M109 S205 ; wait for nozzle temp to stabilize
G1 Z0.28 F240
G92 E0
G1 X2.0 Y140 E10 F1500 ; prime the nozzle
G1 X2.3 Y140 F5000
G92 E0
G1 X2.3 Y10 E10 F1200 ; prime the nozzle
G92 E0
G21 ; set units to millimeters
G90 ; use absolute coordinates
M83 ; use relative distances for extrusion
; Filament gcode
M107
;LAYER_CHANGE
;Z:0.2
;HEIGHT:0.2
G1 E-12.5 F2700
G1 Z.2 F9000
G1 X57.234 Y70.719
G1 Z.2
G1 E12.5 F2400
M204 S500
;TYPE:Skirt/Brim
;WIDTH:0.42
G1 F1200
G1 X59.47 Y69.873 E.07496
G1 X121.97 Y69.873 E1.95964
G1 X123.837 Y70.436 E.06114
G1 X134.223 Y77.329 E.39084
G1 X134.967 Y77.931 E.03001
G1 X163.284 Y105.166 E1.23187
G1 X164.152 Y106.548 E.05117
G1 X164.32 Y107.6 E.0334
G1 X164.32 Y119.6 E.37625
G1 X163.926 Y121.183 E.05115
G1 X163.331 Y121.988 E.03139
G1 X156.331 Y128.988 E.31039
G1 X155.419 Y129.638 E.03511
G1 X113.946 Y149.788 E1.44571
G1 X112.47 Y150.127 E.04748
G1 X68.97 Y150.127 E1.36391
G1 X67.387 Y149.733 E.05115
G1 X66.173 Y148.643 E.05116
G1 X65.621 Y147.183 E.04894
G1 X56.121 Y73.683 E2.32371
G1 X56.309 Y72.062 E.05117
G1 X57.2 Y70.768 E.04926
G1 E-8.75 F2700
;WIPE_START
G1 F7200
G1 X57.234 Y70.719 E-.02125
G1 X59.47 Y69.873 E-.85168
G1 X67.546 Y69.873 E-2.87707
;WIPE_END
; printing object 2反射镜压板盖.STL id:0 copy 0
G1 X60.68 Y74.314 F9000
G1 E12.5 F2400
;TYPE:Perimeter
;WIDTH:0.419999
G1 F1200
G1 X120.759 Y74.314 E1.88373
G1 X116.909 Y104.106 E.94187
G1 X111.534 Y145.686 E1.31456
G1 X69.905 Y145.686 E1.30525
G1 X60.688 Y74.374 E2.25453
G1 X60.688 Y74.374 F9000
G1 X60.251 Y73.937
G1 F1200
G1 X121.188 Y73.937 E1.91063
G1 X117.283 Y104.154 E.95531
G1 X111.866 Y146.063 E1.32496
G1 X69.574 Y146.063 E1.32603
G1 X60.259 Y73.997 E2.27837
G1 X60.259 Y73.997 F9000
G1 X59.823 Y73.56
;TYPE:External perimeter
G1 F1200
G1 X121.617 Y73.56 E1.9375
G1 X117.657 Y104.202 E.96875
G1 X112.197 Y146.44 E1.33536
G1 X69.242 Y146.44 E1.34682
G1 X59.83 Y73.62 E2.30221
G1 E-8.75 F2700
;WIPE_START
G1 F7200
G1 X59.823 Y73.56 E-.02152
G1 X70.289 Y73.56 E-3.72848
;WIPE_END
G1 X119.861 Y74.435 F9000
G1 E12.5 F2400
;TYPE:Solid infill
;WIDTH:0.420715
G1 F1200
G1 X120.383 Y74.957 E.02319
G1 X120.322 Y75.431 E.01501
G1 X119.496 Y74.605 E.0367
G1 X118.962 Y74.605 E.01677
G1 X120.261 Y75.904 E.05771
G1 X120.2 Y76.377 E.01498
G1 X118.428 Y74.605 E.07872
G1 X117.893 Y74.605 E.01681
G1 X120.139 Y76.85 E.09976
G1 X120.078 Y77.323 E.01498
G1 X117.359 Y74.605 E.12077
G1 X116.825 Y74.605 E.01677
G1 X120.017 Y77.796 E.14178
G1 X119.955 Y78.269 E.01499
G1 X116.291 Y74.605 E.16278
G1 X115.756 Y74.605 E.01681
G1 X119.894 Y78.742 E.18381
G1 X119.833 Y79.216 E.01501
G1 X115.222 Y74.605 E.20485
G1 X114.688 Y74.605 E.01677
G1 X119.772 Y79.689 E.22586
G1 X119.711 Y80.162 E.01498
G1 X114.153 Y74.605 E.2469
G1 X113.619 Y74.605 E.01677
G1 X119.65 Y80.635 E.26791
G1 X119.588 Y81.108 E.01499
G1 X113.085 Y74.605 E.2889
G1 X112.551 Y74.605 E.01677
G1 X119.527 Y81.581 E.30991
G1 X119.466 Y82.054 E.01498
G1 X112.016 Y74.605 E.33095
G1 X111.482 Y74.605 E.01677
G1 X119.405 Y82.527 E.35196
G1 X119.344 Y83.001 E.01501
G1 X110.948 Y74.605 E.373
G1 X110.413 Y74.605 E.01681
G1 X119.283 Y83.474 E.39403
G1 X119.222 Y83.947 E.01498
G1 X109.879 Y74.605 E.41505
G1 X109.345 Y74.605 E.01677
G1 X119.16 Y84.42 E.43604
G1 X119.099 Y84.893 E.01498
G1 X108.811 Y74.605 E.45705
G1 X108.276 Y74.605 E.01681
G1 X119.038 Y85.366 E.47809
G1 X118.977 Y85.839 E.01498
G1 X107.742 Y74.605 E.4991
G1 X107.208 Y74.605 E.01677
G1 X118.916 Y86.312 E.52012
G1 X118.855 Y86.786 E.01501
G1 X106.673 Y74.605 E.54117
G1 X106.139 Y74.605 E.01677
G1 X118.793 Y87.259 E.56216
G1 X118.732 Y87.732 E.01498
G1 X105.605 Y74.605 E.58318
G1 X105.071 Y74.605 E.01677
G1 X118.671 Y88.205 E.60419
G1 X118.61 Y88.678 E.01498
G1 X104.536 Y74.605 E.62523
G1 X104.002 Y74.605 E.01677
G1 X118.549 Y89.151 E.64624
G1 X118.488 Y89.624 E.01498
G1 X103.468 Y74.605 E.66725
G1 X102.934 Y74.605 E.01677
G1 X118.427 Y90.098 E.68829
G1 X118.365 Y90.571 E.01499
G1 X102.399 Y74.605 E.7093
G1 X101.865 Y74.605 E.01677
G1 X118.304 Y91.044 E.73032
G1 X118.243 Y91.517 E.01498
G1 X101.331 Y74.605 E.75133
G1 X100.796 Y74.605 E.01681
G1 X118.182 Y91.99 E.77236
G1 X118.121 Y92.463 E.01498
G1 X100.262 Y74.605 E.79338
G1 X99.728 Y74.605 E.01677
G1 X118.06 Y92.936 E.81439
G1 X117.998 Y93.409 E.01499
G1 X99.194 Y74.605 E.83538
G1 X98.659 Y74.605 E.01681
G1 X117.937 Y93.883 E.85644
G1 X117.876 Y94.356 E.01498
G1 X98.125 Y74.605 E.87745
G1 X97.591 Y74.605 E.01677
G1 X117.815 Y94.829 E.89847
G1 X117.754 Y95.302 E.01498
G1 X97.056 Y74.605 E.9195
G1 X96.522 Y74.605 E.01677
G1 X117.693 Y95.775 E.94052
G1 X117.632 Y96.248 E.01498
G1 X95.988 Y74.605 E.96153
G1 X95.454 Y74.605 E.01677
G1 X117.57 Y96.721 E.98252
G1 X117.509 Y97.194 E.01498
G1 X94.919 Y74.605 E1.00356
G1 X94.385 Y74.605 E.01677
G1 X117.448 Y97.668 E1.02459
G1 X117.387 Y98.141 E.01498
G1 X93.851 Y74.605 E1.04561
G1 X93.316 Y74.605 E.01681
G1 X117.326 Y98.614 E1.06664
G1 X117.265 Y99.087 E.01498
G1 X92.782 Y74.605 E1.08765
G1 X92.248 Y74.605 E.01677
G1 X117.203 Y99.56 E1.10865
G1 X117.142 Y100.033 E.01498
G1 X91.714 Y74.605 E1.12966
G1 X91.179 Y74.605 E.01681
G1 X117.081 Y100.506 E1.15069
G1 X117.02 Y100.98 E.01501
G1 X90.645 Y74.605 E1.17173
G1 X90.111 Y74.605 E.01677
G1 X116.959 Y101.453 E1.19274
G1 X116.898 Y101.926 E.01498
G1 X89.576 Y74.605 E1.21378
G1 X89.042 Y74.605 E.01677
G1 X116.837 Y102.399 E1.23479
G1 X116.775 Y102.872 E.01499
G1 X88.508 Y74.605 E1.25578
G1 X87.974 Y74.605 E.01677
G1 X116.714 Y103.345 E1.2768
G1 X116.653 Y103.818 E.01498
G1 X87.439 Y74.605 E1.29783
G1 X86.905 Y74.605 E.01677
G1 X116.592 Y104.291 E1.31885
G1 X116.531 Y104.765 E.01501
G1 X86.371 Y74.605 E1.33988
G1 X85.836 Y74.605 E.01681
G1 X116.47 Y105.238 E1.36092
G1 X116.409 Y105.711 E.01498
G1 X85.302 Y74.605 E1.38193
G1 X84.768 Y74.605 E.01677
G1 X116.347 Y106.184 E1.40292
G1 X116.286 Y106.657 E.01498
G1 X84.234 Y74.605 E1.42394
G1 X83.699 Y74.605 E.01681
G1 X116.225 Y107.13 E1.44497
G1 X116.164 Y107.603 E.01498
G1 X83.165 Y74.605 E1.46598
G1 X82.631 Y74.605 E.01677
G1 X116.103 Y108.076 E1.487
G1 X116.042 Y108.55 E.01501
G1 X82.096 Y74.605 E1.50806
G1 X81.562 Y74.605 E.01677
G1 X115.98 Y109.023 E1.52905
G1 X115.919 Y109.496 E.01498
G1 X81.028 Y74.605 E1.55006
G1 X80.494 Y74.605 E.01677
G1 X115.858 Y109.969 E1.57107
G1 X115.797 Y110.442 E.01498
G1 X79.959 Y74.605 E1.59211
G1 X79.425 Y74.605 E.01677
G1 X115.736 Y110.915 E1.61312
G1 X115.675 Y111.388 E.01498
G1 X78.891 Y74.605 E1.63414
G1 X78.357 Y74.605 E.01677
G1 X115.614 Y111.862 E1.65517
G1 X115.552 Y112.335 E.01499
G1 X77.822 Y74.605 E1.67619
G1 X77.288 Y74.605 E.01677
G1 X115.491 Y112.808 E1.6972
G1 X115.43 Y113.281 E.01498
G1 X76.754 Y74.605 E1.71821
G1 X76.219 Y74.605 E.01681
G1 X115.369 Y113.754 E1.73925
G1 X115.308 Y114.227 E.01498
G1 X75.685 Y74.605 E1.76026
G1 X75.151 Y74.605 E.01677
G1 X115.247 Y114.7 E1.78127
G1 X115.185 Y115.173 E.01499
G1 X74.617 Y74.605 E1.80227
G1 X74.082 Y74.605 E.01681
G1 X115.124 Y115.647 E1.82332
G1 X115.063 Y116.12 E.01498
G1 X73.548 Y74.605 E1.84434
G1 X73.014 Y74.605 E.01677
G1 X115.002 Y116.593 E1.86535
G1 X114.941 Y117.066 E.01498
G1 X72.479 Y74.605 E1.88639
G1 X71.945 Y74.605 E.01677
G1 X114.88 Y117.539 E1.9074
G1 X114.819 Y118.012 E.01498
G1 X71.411 Y74.605 E1.92841
G1 X70.877 Y74.605 E.01677
G1 X114.757 Y118.485 E1.9494
G1 X114.696 Y118.958 E.01498
G1 X70.342 Y74.605 E1.97044
G1 X69.808 Y74.605 E.01677
G1 X114.635 Y119.432 E1.99148
G1 X114.574 Y119.905 E.01498
G1 X69.274 Y74.605 E2.01249
G1 X68.739 Y74.605 E.01681
G1 X114.513 Y120.378 E2.03352
G1 X114.452 Y120.851 E.01498
G1 X68.205 Y74.605 E2.05454
G1 X67.671 Y74.605 E.01677
G1 X114.39 Y121.324 E2.07553
G1 X114.329 Y121.797 E.01498
G1 X67.137 Y74.605 E2.09654
G1 X66.602 Y74.605 E.01681
G1 X114.268 Y122.27 E2.11758
G1 X114.207 Y122.744 E.01501
G1 X66.068 Y74.605 E2.13861
G1 X65.534 Y74.605 E.01677
G1 X114.146 Y123.217 E2.15963
G1 X114.085 Y123.69 E.01498
G1 X64.999 Y74.605 E2.18066
G1 X64.465 Y74.605 E.01677
G1 X114.024 Y124.163 E2.20168
G1 X113.962 Y124.636 E.01499
G1 X63.931 Y74.605 E2.22267
G1 X63.397 Y74.605 E.01677
G1 X113.901 Y125.109 E2.24368
G1 X113.84 Y125.582 E.01498
G1 X62.862 Y74.605 E2.26472
G1 X62.328 Y74.605 E.01677
G1 X113.779 Y126.055 E2.28573
G1 X113.718 Y126.529 E.01501
G1 X61.794 Y74.605 E2.30677
G1 X61.259 Y74.605 E.01681
G1 X113.657 Y127.002 E2.3278
G1 X113.595 Y127.475 E.01499
G1 X61.053 Y74.932 E2.33424
G1 X61.132 Y75.546 E.01945
G1 X113.534 Y127.948 E2.328
G1 X113.473 Y128.421 E.01498
G1 X61.212 Y76.16 E2.32174
G1 X61.291 Y76.773 E.01942
G1 X113.412 Y128.894 E2.31552
G1 X113.351 Y129.367 E.01498
G1 X61.37 Y77.387 E2.30928
G1 X61.45 Y78 E.01942
G1 X113.29 Y129.84 E2.30303
G1 X113.229 Y130.314 E.01501
G1 X61.529 Y78.614 E2.29681
G1 X61.608 Y79.228 E.01945
G1 X113.167 Y130.787 E2.29055
G1 X113.106 Y131.26 E.01498
G1 X61.688 Y79.841 E2.28431
G1 X61.767 Y80.455 E.01945
G1 X113.045 Y131.733 E2.27807
G1 X112.984 Y132.206 E.01498
G1 X61.846 Y81.068 E2.27185
G1 X61.926 Y81.682 E.01945
G1 X112.923 Y132.679 E2.26558
G1 X112.862 Y133.152 E.01498
G1 X62.005 Y82.296 E2.25934
G1 X62.084 Y82.909 E.01942
G1 X112.8 Y133.625 E2.2531
G1 X112.739 Y134.099 E.01501
G1 X62.163 Y83.523 E2.24688
G1 X62.243 Y84.136 E.01942
G1 X112.678 Y134.572 E2.24064
G1 X112.617 Y135.045 E.01498
G1 X62.322 Y84.75 E2.2344
G1 X62.401 Y85.364 E.01945
G1 X112.556 Y135.518 E2.22815
G1 X112.495 Y135.991 E.01498
G1 X62.481 Y85.977 E2.22191
G1 X62.56 Y86.591 E.01945
G1 X112.434 Y136.464 E2.21567
G1 X112.372 Y136.937 E.01499
G1 X62.639 Y87.204 E2.20943
G1 X62.719 Y87.818 E.01945
G1 X112.311 Y137.411 E2.20319
G1 X112.25 Y137.884 E.01498
G1 X62.798 Y88.431 E2.19697
G1 X62.877 Y89.045 E.01945
G1 X112.189 Y138.357 E2.19073
G1 X112.128 Y138.83 E.01498
G1 X62.957 Y89.659 E2.18446
G1 X63.036 Y90.272 E.01942
G1 X112.067 Y139.303 E2.17824
G1 X112.005 Y139.776 E.01499
G1 X63.115 Y90.886 E2.17198
G1 X63.194 Y91.499 E.01942
G1 X111.944 Y140.249 E2.16576
G1 X111.883 Y140.722 E.01498
G1 X63.274 Y92.113 E2.15949
G1 X63.353 Y92.727 E.01945
G1 X111.822 Y141.196 E2.15327
G1 X111.761 Y141.669 E.01498
G1 X63.432 Y93.34 E2.14705
G1 X63.512 Y93.954 E.01945
G1 X111.7 Y142.142 E2.14079
G1 X111.639 Y142.615 E.01498
G1 X63.591 Y94.567 E2.13457
G1 X63.67 Y95.181 E.01945
G1 X111.577 Y143.088 E2.12831
G1 X111.516 Y143.561 E.01498
G1 X63.75 Y95.795 E2.12204
G1 X63.829 Y96.408 E.01942
G1 X111.455 Y144.034 E2.11582
G1 X111.394 Y144.507 E.01498
G1 X63.908 Y97.022 E2.10958
G1 X63.988 Y97.635 E.01942
G1 X111.333 Y144.981 E2.10336
G1 X111.279 Y145.395 E.01312
G1 X111.213 Y145.395 E.00207
G1 X64.067 Y98.249 E2.0945
G1 X64.146 Y98.862 E.01942
G1 X110.679 Y145.395 E2.06727
G1 X110.145 Y145.395 E.01677
G1 X64.225 Y99.476 E2.04001
G1 X64.305 Y100.09 E.01945
G1 X109.611 Y145.395 E2.01273
G1 X109.076 Y145.395 E.01681
G1 X64.384 Y100.703 E1.98548
G1 X64.463 Y101.317 E.01945
G1 X108.542 Y145.395 E1.95822
G1 X108.008 Y145.395 E.01677
G1 X64.543 Y101.93 E1.93097
G1 X64.622 Y102.544 E.01945
G1 X107.473 Y145.395 E1.90369
G1 X106.939 Y145.395 E.01677
G1 X64.701 Y103.158 E1.87643
G1 X64.781 Y103.771 E.01942
G1 X106.405 Y145.395 E1.84918
G1 X105.871 Y145.395 E.01677
G1 X64.86 Y104.385 E1.82192
G1 X64.939 Y104.998 E.01942
G1 X105.336 Y145.395 E1.79467
G1 X104.802 Y145.395 E.01677
G1 X65.019 Y105.612 E1.76739
G1 X65.098 Y106.226 E.01945
G1 X104.268 Y145.395 E1.74014
G1 X103.733 Y145.395 E.01681
G1 X65.177 Y106.839 E1.71288
G1 X65.256 Y107.453 E.01945
G1 X103.199 Y145.395 E1.68563
G1 X102.665 Y145.395 E.01677
G1 X65.336 Y108.066 E1.65837
G1 X65.415 Y108.68 E.01945
G1 X102.131 Y145.395 E1.63112
G1 X101.596 Y145.395 E.01681
G1 X65.494 Y109.294 E1.60384
G1 X65.574 Y109.907 E.01942
G1 X101.062 Y145.395 E1.57658
G1 X100.528 Y145.395 E.01677
G1 X65.653 Y110.521 E1.54933
G1 X65.732 Y111.134 E.01942
G1 X99.993 Y145.395 E1.52207
G1 X99.459 Y145.395 E.01677
G1 X65.812 Y111.748 E1.49479
G1 X65.891 Y112.361 E.01942
G1 X98.925 Y145.395 E1.46756
G1 X98.391 Y145.395 E.01677
G1 X65.97 Y112.975 E1.44031
G1 X66.05 Y113.589 E.01945
G1 X97.856 Y145.395 E1.41301
G1 X97.322 Y145.395 E.01677
G1 X66.129 Y114.202 E1.38577
G1 X66.208 Y114.816 E.01945
G1 X96.788 Y145.395 E1.35852
G1 X96.253 Y145.395 E.01681
G1 X66.287 Y115.429 E1.33126
G1 X66.367 Y116.043 E.01945
G1 X95.719 Y145.395 E1.30399
G1 X95.185 Y145.395 E.01677
G1 X66.446 Y116.657 E1.27673
G1 X66.525 Y117.27 E.01942
G1 X94.651 Y145.395 E1.2495
G1 X94.116 Y145.395 E.01681
G1 X66.605 Y117.884 E1.2222
G1 X66.684 Y118.497 E.01942
G1 X93.582 Y145.395 E1.19497
G1 X93.048 Y145.395 E.01677
G1 X66.763 Y119.111 E1.16771
G1 X66.843 Y119.725 E.01945
G1 X92.514 Y145.395 E1.14043
G1 X91.979 Y145.395 E.01681
G1 X66.922 Y120.338 E1.11318
G1 X67.001 Y120.952 E.01945
G1 X91.445 Y145.395 E1.08592
G1 X90.911 Y145.395 E.01677
G1 X67.081 Y121.565 E1.05867
G1 X67.16 Y122.179 E.01945
G1 X90.376 Y145.395 E1.03139
G1 X89.842 Y145.395 E.01677
G1 X67.239 Y122.793 E1.00413
G1 X67.318 Y123.406 E.01942
G1 X89.308 Y145.395 E.9769
G1 X88.774 Y145.395 E.01677
G1 X67.398 Y124.02 E.94962
G1 X67.477 Y124.633 E.01942
G1 X88.239 Y145.395 E.92237
G1 X87.705 Y145.395 E.01677
G1 X67.556 Y125.247 E.89511
G1 X67.636 Y125.86 E.01942
G1 X87.171 Y145.395 E.86786
G1 X86.636 Y145.395 E.01681
G1 X67.715 Y126.474 E.84058
G1 X67.794 Y127.088 E.01945
G1 X86.102 Y145.395 E.81333
G1 X85.568 Y145.395 E.01677
G1 X67.874 Y127.701 E.78607
G1 X67.953 Y128.315 E.01945
G1 X85.034 Y145.395 E.75881
G1 X84.499 Y145.395 E.01681
G1 X68.032 Y128.928 E.73156
G1 X68.112 Y129.542 E.01945
G1 X83.965 Y145.395 E.70428
G1 X83.431 Y145.395 E.01677
G1 X68.191 Y130.156 E.67703
G1 X68.27 Y130.769 E.01942
G1 X82.896 Y145.395 E.64977
G1 X82.362 Y145.395 E.01677
G1 X68.349 Y131.383 E.62252
G1 X68.429 Y131.996 E.01942
G1 X81.828 Y145.395 E.59526
G1 X81.294 Y145.395 E.01677
G1 X68.508 Y132.61 E.56801
G1 X68.587 Y133.224 E.01945
G1 X80.759 Y145.395 E.54073
G1 X80.225 Y145.395 E.01677
G1 X68.667 Y133.837 E.51347
G1 X68.746 Y134.451 E.01945
G1 X79.691 Y145.395 E.48622
G1 X79.156 Y145.395 E.01681
G1 X68.825 Y135.064 E.45896
G1 X68.905 Y135.678 E.01945
G1 X78.622 Y145.395 E.43169
G1 X78.088 Y145.395 E.01677
G1 X68.984 Y136.292 E.40443
G1 X69.063 Y136.905 E.01942
G1 X77.554 Y145.395 E.3772
G1 X77.019 Y145.395 E.01681
G1 X69.143 Y137.519 E.3499
