; generated by PrusaSlicer 2.7.4+win64 on 2024-08-26 at 14:49:03 UTC

; 

; external perimeters extrusion width = 0.42mm
; perimeters extrusion width = 0.44mm
; infill extrusion width = 0.44mm
; solid infill extrusion width = 0.44mm
; top infill extrusion width = 0.40mm
; support material extrusion width = 0.36mm
; first layer extrusion width = 0.42mm

M201 X500 Y500 Z100 E5000 ; sets maximum accelerations, mm/sec^2
M203 X500 Y500 Z10 E60 ; sets maximum feedrates, mm / sec
M204 S500 T1000 ; sets acceleration (S) and retract acceleration (R), mm/sec^2
M205 X8.00 Y8.00 Z0.40 E5.00 ; sets the jerk limits, mm/sec
M205 S0 T0 ; sets the minimum extruding and travel feed rate, mm/sec

; printing object 4推片钩定位.STL id:0 copy 0
; stop printing object 4推片钩定位.STL id:0 copy 0

;TYPE:Custom
G90 ; use absolute coordinates
M83 ; extruder relative mode
M104 S150 ; set temporary nozzle temp to prevent oozing during homing
M140 S70 ; set final bed temp
G4 S30 ; allow partial nozzle warmup
G28 ; home all axis
G1 Z50 F240
G1 X2.0 Y10 F3000
M104 S240 ; set final nozzle temp
M190 S70 ; wait for bed temp to stabilize
M109 S240 ; wait for nozzle temp to stabilize
G1 Z0.28 F240
G92 E0
G1 X2.0 Y140 E10 F1500 ; prime the nozzle
G1 X2.3 Y140 F5000
G92 E0
G1 X2.3 Y10 E10 F1200 ; prime the nozzle
G92 E0
G21 ; set units to millimeters
G90 ; use absolute coordinates
M83 ; use relative distances for extrusion
; Filament gcode
M107
;LAYER_CHANGE
;Z:0.2
;HEIGHT:0.2
G1 E-12.5 F2400
G1 Z.2 F9000
G1 X90.742 Y97.501
G1 Z.2
G1 E12.5 F2400
M204 S500
;TYPE:Skirt/Brim
;WIDTH:0.42
G1 F1200
G1 X93 Y96.746 E.07465
G1 X127 Y96.746 E1.06605
G1 X128.676 Y97.141 E.05399
G1 X129.999 Y98.242 E.05397
G1 X130.754 Y100.5 E.07465
G1 X130.754 Y112.5 E.37625
G1 X130.359 Y114.176 E.05399
G1 X129.655 Y115.155 E.03781
G1 X122.655 Y122.155 E.31039
G1 X121.191 Y123.06 E.05397
G1 X120 Y123.254 E.03784
G1 X96 Y123.254 E.7525
G1 X94.324 Y122.859 E.05399
G1 X93.345 Y122.155 E.03781
G1 X90.345 Y119.155 E.13303
G1 X89.44 Y117.691 E.05397
G1 X89.246 Y116.5 E.03784
G1 X89.246 Y100.5 E.50167
G1 X89.641 Y98.824 E.05399
G1 X90.703 Y97.547 E.05208
G1 X90.703 Y97.547 F9000
G1 X91.004 Y97.818
G1 F1200
G1 X91.107 Y97.703 E.00484
G1 X93 Y97.123 E.06208
G1 X127 Y97.123 E1.06605
G1 X128.583 Y97.517 E.05115
G1 X129.797 Y98.607 E.05116
G1 X130.377 Y100.5 E.06208
G1 X130.377 Y112.5 E.37625
G1 X129.983 Y114.083 E.05115
G1 X129.388 Y114.888 E.03139
G1 X122.388 Y121.888 E.31039
G1 X120.99 Y122.729 E.05115
G1 X120 Y122.877 E.03139
G1 X96 Y122.877 E.7525
G1 X94.417 Y122.483 E.05115
G1 X93.612 Y121.888 E.03139
G1 X90.612 Y118.888 E.13303
G1 X89.771 Y117.49 E.05115
G1 X89.623 Y116.5 E.03139
G1 X89.623 Y100.5 E.50167
G1 X90.017 Y98.917 E.05115
G1 X90.964 Y97.862 E.04445
G1 E-8.75 F2400
;WIPE_START
G1 F7200
G1 X91.004 Y97.818 E-.01883
G1 X91.107 Y97.703 E-.04889
G1 X93 Y97.123 E-.62696
G1 X102.648 Y97.123 E-3.05532
;WIPE_END
; printing object 4推片钩定位.STL id:0 copy 0
G1 X94.064 Y101.564 F9000
G1 E12.5 F2400
;TYPE:Perimeter
;WIDTH:0.419999
G1 F1200
G1 X125.936 Y101.564 E.99932
G1 X125.936 Y107.404 E.18311
G1 X125.936 Y112.059 E.14595
G1 X119.559 Y118.436 E.28277
G1 X117.791 Y118.456 E.05544
;WIDTH:0.411534
G1 X116.835 Y118.44 E.02931
;WIDTH:0.419999
G1 X101.747 Y118.436 E.47307
G1 X100.791 Y118.456 E.02998
;WIDTH:0.411534
G1 X99.835 Y118.44 E.02931
;WIDTH:0.419999
G1 X96.441 Y118.436 E.10642
G1 X94.064 Y116.059 E.1054
G1 X94.064 Y101.624 E.4526
G1 X94.064 Y101.624 F9000
G1 X93.687 Y101.187
G1 F1200
G1 X126.313 Y101.187 E1.02296
G1 X126.313 Y107.404 E.19493
G1 X126.313 Y112.215 E.15085
G1 X119.715 Y118.813 E.29257
G1 X96.285 Y118.813 E.73463
G1 X93.687 Y116.215 E.1152
G1 X93.687 Y101.247 E.46931
G1 X93.31 Y100.81 F9000
;TYPE:External perimeter
G1 F1200
G1 X126.69 Y100.81 E1.0466
G1 X126.69 Y107.404 E.20675
G1 X126.69 Y112.372 E.15577
G1 X119.872 Y119.19 E.30232
G1 X96.128 Y119.19 E.74448
G1 X93.31 Y116.372 E.12495
G1 X93.31 Y100.87 E.48605
G1 E-8.75 F2400
;WIPE_START
G1 F7200
G1 X93.31 Y100.81 E-.019
G1 X105.092 Y100.81 E-3.731
;WIPE_END
G1 X115.046 Y114.503 F9000
G1 E12.5 F2400
;TYPE:Perimeter
G1 F1200
G1 X115.274 Y114.052 E.01585
G1 X115.463 Y113.796 E.00998
G1 X115.883 Y113.393 E.01825
G1 X116.148 Y113.214 E.01003
G1 X116.678 Y112.974 E.01824
G1 X116.945 Y112.899 E.0087
G1 X117.485 Y112.836 E.01705
G1 X118.049 Y112.898 E.01779
G1 X118.322 Y112.975 E.00889
G1 X118.853 Y113.214 E.01826
G1 X119.117 Y113.393 E.01
G1 X119.537 Y113.796 E.01825
G1 X119.726 Y114.052 E.00998
G1 X119.988 Y114.571 E.01823
G1 X120.081 Y114.876 E.01
G1 X120.155 Y115.453 E.01824
G1 X120.142 Y115.772 E.01001
G1 X120.019 Y116.341 E.01825
G1 X119.9 Y116.636 E.00997
G1 X119.595 Y117.132 E.01826
G1 X119.385 Y117.371 E.00998
G1 X118.932 Y117.737 E.01826
G1 X118.654 Y117.892 E.00998
G1 X118.102 Y118.078 E.01826
;WIDTH:0.40271
G1 X117.791 Y118.12 E.00939
;WIDTH:0.379466
G1 X117.209 Y118.12 E.01629
;WIDTH:0.411534
G1 X116.896 Y118.082 E.00966
;WIDTH:0.419999
G1 X116.346 Y117.892 E.01824
G1 X116.068 Y117.737 E.00998
G1 X115.615 Y117.371 E.01826
G1 X115.405 Y117.132 E.00998
G1 X115.1 Y116.636 E.01826
G1 X114.981 Y116.341 E.00997
G1 X114.858 Y115.772 E.01825
G1 X114.845 Y115.453 E.01001
G1 X114.919 Y114.876 E.01824
G1 X115.012 Y114.571 E.01
G1 X115.019 Y114.557 E.00049
G1 X115.019 Y114.557 F9000
G1 X115.497 Y114.447
G1 F1200
G1 X115.611 Y114.221 E.00794
G1 X115.724 Y114.068 E.00596
G1 X116.144 Y113.665 E.01825
G1 X116.303 Y113.558 E.00601
G1 X116.834 Y113.318 E.01827
G1 X117.415 Y113.218 E.01848
G1 X118.003 Y113.272 E.01851
G1 X118.697 Y113.558 E.02354
G1 X118.856 Y113.665 E.00601
G1 X119.276 Y114.068 E.01825
G1 X119.389 Y114.221 E.00596
G1 X119.651 Y114.741 E.01826
G1 X119.781 Y115.501 E.02418
G1 X119.651 Y116.261 E.02418
G1 X119.274 Y116.934 E.02419
G1 X118.843 Y117.324 E.01822
G1 X118.528 Y117.537 E.01192
G1 X117.979 Y117.73 E.01825
G1 X117.791 Y117.763 E.00598
G1 X117.209 Y117.763 E.01825
G1 X116.472 Y117.537 E.02417
G1 X115.852 Y117.078 E.02419
G1 X115.421 Y116.439 E.02417
G1 X115.227 Y115.692 E.0242
G1 X115.219 Y115.501 E.00599
G1 X115.293 Y114.924 E.01824
G1 X115.349 Y114.741 E.006
G1 X115.47 Y114.501 E.00843
G1 X115.47 Y114.501 F9000
G1 X115.947 Y114.391
;TYPE:External perimeter
G1 F1200
G1 X116.405 Y113.937 E.02022
G1 X116.989 Y113.662 E.02024
G1 X117.487 Y113.59 E.01578
G1 X117.994 Y113.655 E.01603
G1 X118.542 Y113.902 E.01885
G1 X119.015 Y114.34 E.02021
G1 X119.315 Y114.911 E.02022
G1 X119.407 Y115.549 E.02021
G1 X119.282 Y116.182 E.02023
G1 X118.953 Y116.736 E.0202
G1 X118.458 Y117.15 E.02023
G1 X117.854 Y117.375 E.02021
G1 X117.209 Y117.386 E.02023
G1 X116.597 Y117.181 E.02024
G1 X116.089 Y116.784 E.02021
G1 X115.742 Y116.241 E.0202
G1 X115.595 Y115.613 E.02022
G1 X115.667 Y114.972 E.02022
G1 X115.921 Y114.445 E.01834
G1 E-8.75 F2400
;WIPE_START
G1 F7200
G1 X115.947 Y114.391 E-.01898
G1 X116.405 Y113.937 E-.20421
G1 X116.989 Y113.662 E-.20441
G1 X117.487 Y113.59 E-.15934
G1 X117.994 Y113.655 E-.16186
G1 X118.542 Y113.902 E-.19035
G1 X119.015 Y114.34 E-.20414
G1 X119.315 Y114.911 E-.20425
G1 X119.407 Y115.549 E-.20412
G1 X119.282 Y116.182 E-.20432
G1 X118.953 Y116.736 E-.20404
G1 X118.458 Y117.15 E-.20435
G1 X117.854 Y117.375 E-.20411
G1 X117.209 Y117.386 E-.20428
G1 X116.597 Y117.181 E-.20438
G1 X116.089 Y116.784 E-.20416
G1 X115.742 Y116.241 E-.20406
G1 X115.595 Y115.613 E-.20424
G1 X115.667 Y114.972 E-.20426
G1 X115.881 Y114.528 E-.15614
;WIPE_END
G1 X103.025 Y114.69 F9000
G1 E12.5 F2400
;TYPE:Perimeter
G1 F1200
G1 X103.081 Y114.876 E.00609
G1 X103.155 Y115.453 E.01824
G1 X103.142 Y115.772 E.01001
G1 X103.019 Y116.341 E.01825
G1 X102.9 Y116.636 E.00997
G1 X102.595 Y117.132 E.01826
G1 X102.385 Y117.371 E.00998
G1 X101.932 Y117.737 E.01826
G1 X101.654 Y117.892 E.00998
G1 X101.102 Y118.078 E.01826
;WIDTH:0.40271
G1 X100.791 Y118.12 E.00939
;WIDTH:0.379466
G1 X100.209 Y118.12 E.01629
;WIDTH:0.411534
G1 X99.896 Y118.082 E.00966
;WIDTH:0.419999
G1 X99.346 Y117.892 E.01824
G1 X99.068 Y117.737 E.00998
G1 X98.615 Y117.371 E.01826
G1 X98.405 Y117.132 E.00998
G1 X98.1 Y116.636 E.01826
G1 X97.981 Y116.341 E.00997
G1 X97.858 Y115.772 E.01825
G1 X97.845 Y115.453 E.01001
G1 X97.919 Y114.876 E.01824
G1 X98.012 Y114.571 E.01
G1 X98.274 Y114.052 E.01823
G1 X98.463 Y113.796 E.00998
G1 X98.883 Y113.393 E.01825
G1 X99.148 Y113.214 E.01003
G1 X99.678 Y112.974 E.01824
G1 X99.945 Y112.899 E.0087
G1 X100.488 Y112.836 E.01714
G1 X101.049 Y112.898 E.0177
G1 X101.322 Y112.975 E.00889
G1 X101.853 Y113.214 E.01826
G1 X102.117 Y113.393 E.01
G1 X102.537 Y113.796 E.01825
G1 X102.726 Y114.052 E.00998
G1 X102.988 Y114.571 E.01823
G1 X103.007 Y114.633 E.00203
G1 X102.67 Y114.801 F9000
G1 F1200
G1 X102.707 Y114.924 E.00403
G1 X102.781 Y115.501 E.01824
G1 X102.773 Y115.692 E.00599
G1 X102.651 Y116.261 E.01825
G1 X102.274 Y116.934 E.02419
G1 X101.695 Y117.443 E.02417
G1 X100.979 Y117.73 E.02419
G1 X100.791 Y117.763 E.00598
G1 X100.209 Y117.763 E.01825
G1 X99.472 Y117.537 E.02417
G1 X98.852 Y117.078 E.02419
G1 X98.421 Y116.439 E.02417
G1 X98.349 Y116.261 E.00602
G1 X98.227 Y115.692 E.01825
G1 X98.293 Y114.924 E.02417
G1 X98.61 Y114.222 E.02415
G1 X99.144 Y113.665 E.02419
G1 X99.303 Y113.558 E.00601
G1 X99.834 Y113.318 E.01827
G1 X100.415 Y113.218 E.01848
G1 X101.003 Y113.272 E.01851
G1 X101.697 Y113.558 E.02354
G1 X101.856 Y113.665 E.00601
G1 X102.276 Y114.068 E.01825
G1 X102.389 Y114.221 E.00596
G1 X102.651 Y114.741 E.01826
G1 X102.652 Y114.743 E.00007
G1 X102.652 Y114.743 F9000
G1 X102.315 Y114.911
;TYPE:External perimeter
G1 F1200
G1 X102.407 Y115.549 E.02021
G1 X102.282 Y116.182 E.02023
G1 X101.953 Y116.736 E.0202
G1 X101.458 Y117.15 E.02023
G1 X100.854 Y117.375 E.02021
G1 X100.209 Y117.386 E.02023
G1 X99.597 Y117.181 E.02024
G1 X99.089 Y116.784 E.02021
G1 X98.742 Y116.241 E.0202
G1 X98.595 Y115.613 E.02022
G1 X98.667 Y114.972 E.02022
G1 X98.947 Y114.391 E.02022
G1 X99.405 Y113.937 E.02022
G1 X99.989 Y113.662 E.02024
G1 X100.488 Y113.59 E.01581
G1 X100.994 Y113.655 E.016
G1 X101.542 Y113.902 E.01885
G1 X102.015 Y114.34 E.02021
G1 X102.287 Y114.858 E.01834
G1 E-8.75 F2400
;WIPE_START
G1 F7200
G1 X102.315 Y114.911 E-.01898
G1 X102.407 Y115.549 E-.20412
G1 X102.282 Y116.182 E-.20432
G1 X101.953 Y116.736 E-.20404
G1 X101.458 Y117.15 E-.20435
G1 X100.854 Y117.375 E-.20411
G1 X100.209 Y117.386 E-.20428
G1 X99.597 Y117.181 E-.20438
G1 X99.089 Y116.784 E-.20416
G1 X98.742 Y116.241 E-.20406
G1 X98.595 Y115.613 E-.20424
G1 X98.667 Y114.972 E-.20426
G1 X98.947 Y114.391 E-.20423
G1 X99.405 Y113.937 E-.20421
G1 X99.989 Y113.662 E-.20441
G1 X100.488 Y113.59 E-.15965
G1 X100.994 Y113.655 E-.16155
G1 X101.542 Y113.902 E-.19035
G1 X102.015 Y114.34 E-.20414
G1 X102.244 Y114.776 E-.15616
;WIPE_END
G1 X125.815 Y102.45 F9000
G1 E12.5 F2400
;TYPE:Solid infill
;WIDTH:0.421297
G1 F1200
G1 X125.22 Y101.855 E.02647
G1 X124.685 Y101.855 E.01683
G1 X125.645 Y102.815 E.04271
G1 X125.645 Y103.35 E.01683
G1 X124.15 Y101.855 E.06652
G1 X123.615 Y101.855 E.01683
G1 X125.645 Y103.885 E.09032
G1 X125.645 Y104.421 E.01686
G1 X123.079 Y101.855 E.11417
G1 X122.544 Y101.855 E.01683
G1 X125.645 Y104.956 E.13798
G1 X125.645 Y105.491 E.01683
G1 X122.009 Y101.855 E.16178
G1 X121.474 Y101.855 E.01683
G1 X125.645 Y106.026 E.18559
G1 X125.645 Y106.561 E.01683
G1 X120.939 Y101.855 E.20939
G1 X120.404 Y101.855 E.01683
G1 X125.645 Y107.096 E.23319
G1 X125.645 Y107.631 E.01683
G1 X119.869 Y101.855 E.257
G1 X119.334 Y101.855 E.01683
G1 X125.645 Y108.166 E.2808
G1 X125.645 Y108.701 E.01683
G1 X118.799 Y101.855 E.30461
G1 X118.263 Y101.855 E.01686
G1 X125.645 Y109.237 E.32846
G1 X125.645 Y109.772 E.01683
G1 X117.728 Y101.855 E.35226
G1 X117.193 Y101.855 E.01683
G1 X125.645 Y110.307 E.37607
G1 X125.645 Y110.842 E.01683
G1 X116.658 Y101.855 E.39987
G1 X116.123 Y101.855 E.01683
G1 X125.645 Y111.377 E.42367
G1 X125.645 Y111.912 E.01683
G1 X115.588 Y101.855 E.44748
G1 X115.053 Y101.855 E.01683
G1 X125.391 Y112.193 E.45998
G1 X125.124 Y112.461 E.0119
G1 X114.518 Y101.855 E.47191
G1 X113.983 Y101.855 E.01683
G1 X124.856 Y112.728 E.48379
G1 X124.589 Y112.996 E.0119
G1 X113.448 Y101.855 E.49571
G1 X112.912 Y101.855 E.01686
G1 X124.321 Y113.263 E.50761
G1 X124.054 Y113.531 E.0119
G1 X112.377 Y101.855 E.51954
G1 X111.842 Y101.855 E.01683
G1 X123.786 Y113.798 E.53142
G1 X123.519 Y114.066 E.0119
G1 X111.307 Y101.855 E.54334
G1 X110.772 Y101.855 E.01683
G1 X123.251 Y114.333 E.55522
G1 X122.983 Y114.601 E.01192
G1 X110.237 Y101.855 E.56712
G1 X109.702 Y101.855 E.01683
G1 X122.716 Y114.869 E.57905
G1 X122.448 Y115.136 E.0119
G1 X109.167 Y101.855 E.59093
G1 X108.632 Y101.855 E.01683
G1 X122.181 Y115.404 E.60285
G1 X121.913 Y115.671 E.0119
G1 X108.096 Y101.855 E.61475
G1 X107.561 Y101.855 E.01683
G1 X118.409 Y112.702 E.48265
G1 X119.134 Y113.037 E.02513
G1 X119.315 Y113.18 E.00726
G1 X119.866 Y113.728 E.02445
G1 X119.983 Y113.917 E.00699
G1 X120.251 Y114.448 E.01871
G1 X120.294 Y114.587 E.00458
G1 X121.646 Y115.939 E.06016
G1 X121.378 Y116.206 E.0119
G1 X120.422 Y115.25 E.04254
G1 X120.445 Y115.425 E.00555
G1 X120.429 Y115.792 E.01156
G1 X121.111 Y116.474 E.03035
G1 X120.843 Y116.741 E.0119
G1 X120.339 Y116.237 E.02243
G1 X120.301 Y116.41 E.00557
G1 X120.208 Y116.642 E.00786
G1 X120.575 Y117.009 E.01633
G1 X120.308 Y117.277 E.0119
G1 X120.023 Y116.991 E.0127
G1 X119.816 Y117.319 E.0122
G1 X120.04 Y117.544 E.00999
G1 X119.773 Y117.812 E.0119
G1 X119.558 Y117.597 E.00957
G1 X119.265 Y117.839 E.01196
G1 X119.505 Y118.079 E.01068
G1 X119.439 Y118.145 E.00294
G1 X119.036 Y118.145 E.01268
G1 X118.823 Y117.932 E.00948
G1 E-8.75 F2400
;WIPE_START
G1 F7200
G1 X119.036 Y118.145 E-.09539
G1 X119.439 Y118.145 E-.12762
G1 X119.505 Y118.079 E-.02956
G1 X119.265 Y117.839 E-.10748
G1 X119.558 Y117.597 E-.12034
G1 X119.773 Y117.812 E-.09628
G1 X120.04 Y117.544 E-.1198
G1 X119.816 Y117.319 E-.10054
G1 X120.023 Y116.991 E-.12282
G1 X120.308 Y117.277 E-.12786
G1 X120.575 Y117.009 E-.1198
G1 X120.208 Y116.642 E-.16436
G1 X120.301 Y116.41 E-.07915
G1 X120.339 Y116.237 E-.05609
G1 X120.843 Y116.741 E-.22571
G1 X121.111 Y116.474 E-.1198
G1 X120.429 Y115.792 E-.30542
G1 X120.445 Y115.425 E-.11633
G1 X120.422 Y115.25 E-.05589
G1 X121.378 Y116.206 E-.42813
G1 X121.646 Y115.939 E-.1198
G1 X120.294 Y114.587 E-.60547
G1 X120.251 Y114.448 E-.04607
G1 X119.983 Y113.917 E-.18835
G1 X119.866 Y113.728 E-.07039
G1 X119.863 Y113.725 E-.00155
;WIPE_END
G1 X117.936 Y112.764 F9000
G1 E12.5 F2400
G1 F1200
G1 X107.026 Y101.855 E.48541
G1 X106.491 Y101.855 E.01683
G1 X117.218 Y112.581 E.47727
G1 X116.746 Y112.644 E.01498
G1 X105.956 Y101.855 E.48007
G1 X105.421 Y101.855 E.01683
G1 X116.369 Y112.802 E.4871
G1 X115.998 Y112.967 E.01277
G1 X104.886 Y101.855 E.49442
G1 X104.351 Y101.855 E.01683
G1 X115.685 Y113.189 E.5043
G1 X115.409 Y113.448 E.01191
G1 X103.816 Y101.855 E.51582
G1 X103.281 Y101.855 E.01683
G1 X115.15 Y113.724 E.5281
G1 X115.064 Y113.831 E.00432
G1 X114.949 Y114.058 E.00801
G1 X102.745 Y101.855 E.54299
G1 X102.21 Y101.855 E.01683
G1 X114.768 Y114.412 E.55874
G1 X114.674 Y114.637 E.00767
G1 X114.635 Y114.815 E.00573
G1 X101.675 Y101.855 E.57665
G1 X101.14 Y101.855 E.01683
G1 X114.573 Y115.288 E.59769
G1 X114.547 Y115.609 E.01013
G1 X114.573 Y115.822 E.00675
G1 X100.605 Y101.855 E.62147
G1 X100.07 Y101.855 E.01683
G1 X114.748 Y116.532 E.65306
G1 X114.848 Y116.781 E.00844
G1 X115.162 Y117.291 E.01884
G1 X115.426 Y117.592 E.0126
G1 X115.892 Y117.968 E.01884
G1 X116.194 Y118.137 E.01089
G1 X116.19 Y118.154 E.00055
G1 X115.834 Y118.153 E.0112
G1 X99.535 Y101.855 E.72519
G1 X99 Y101.855 E.01683
G1 X115.298 Y118.153 E.72517
G1 X114.763 Y118.153 E.01683
G1 X98.465 Y101.855 E.72517
G1 X97.929 Y101.855 E.01686
G1 X114.227 Y118.152 E.72514
G1 X113.692 Y118.152 E.01683
G1 X97.394 Y101.855 E.72514
G1 X96.859 Y101.855 E.01683
G1 X113.157 Y118.152 E.72514
G1 X112.621 Y118.152 E.01686
G1 X96.324 Y101.855 E.72512
G1 X95.789 Y101.855 E.01683
G1 X112.086 Y118.151 E.7251
G1 X111.55 Y118.151 E.01686
G1 X95.254 Y101.855 E.72508
G1 X94.719 Y101.855 E.01683
G1 X111.015 Y118.151 E.72508
G1 X110.48 Y118.15 E.01683
G1 X94.355 Y102.025 E.71747
G1 X94.355 Y102.56 E.01683
