; generated by PrusaSlicer 2.9.0 on 2025-03-26 at 12:29:29 UTC

; 

; external perimeters extrusion width = 0.42mm
; perimeters extrusion width = 0.44mm
; infill extrusion width = 0.44mm
; solid infill extrusion width = 0.44mm
; top infill extrusion width = 0.40mm
; support material extrusion width = 0.36mm
; first layer extrusion width = 0.42mm

; external perimeters extrusion width = 0.42mm
; perimeters extrusion width = 0.44mm
; infill extrusion width = 0.44mm
; solid infill extrusion width = 0.44mm
; top infill extrusion width = 0.40mm
; support material extrusion width = 0.36mm
; first layer extrusion width = 0.42mm

M201 X500 Y500 Z100 E5000 ; sets maximum accelerations, mm/sec^2
M203 X500 Y500 Z10 E60 ; sets maximum feedrates, mm / sec
M204 S500 T1000 ; sets acceleration (S) and retract acceleration (R), mm/sec^2
M205 X8.00 Y8.00 Z0.40 E5.00 ; sets the jerk limits, mm/sec
M205 S0 T0 ; sets the minimum extruding and travel feed rate, mm/sec

; printing object 10片仓地板.STL id:0 copy 0
; stop printing object 10片仓地板.STL id:0 copy 0
; printing object 11片盒弹簧.STL id:1 copy 0
; stop printing object 11片盒弹簧.STL id:1 copy 0

;TYPE:Custom
G90 ; use absolute coordinates
M83 ; extruder relative mode
M104 S160 ; set temporary nozzle temp to prevent oozing during homing
M140 S70 ; set final bed temp
G4 S30 ; allow partial nozzle warmup
G28 ; home all axis
G1 Z50 F240
G1 X2.0 Y10 F3000
M104 S245 ; set final nozzle temp
M190 S70 ; wait for bed temp to stabilize
M109 S245 ; wait for nozzle temp to stabilize
G1 Z0.28 F240
G92 E0
G1 X2.0 Y140 E10 F1500 ; prime the nozzle
G1 X2.3 Y140 F5000
G92 E0
G1 X2.3 Y10 E10 F1200 ; prime the nozzle
G92 E0
G21 ; set units to millimeters
G90 ; use absolute coordinates
M83 ; use relative distances for extrusion
; Filament gcode
M107
;LAYER_CHANGE
;Z:0.2
;HEIGHT:0.2
G1 E-12.5 F2400
G1 Z.2 F7200
G1 X51.625 Y36.54
G1 Z.2
G1 E12.5 F2400
M204 S500
;TYPE:Skirt/Brim
;WIDTH:0.42
G1 F1800
G1 X52.942 Y35.313 E.05644
G1 X60.845 Y31.362 E.27703
G1 X62.271 Y31.026 E.04594
G1 X157.729 Y31.026 E2.99302
G1 X159.642 Y31.663 E.06322
G1 X164.911 Y35.615 E.20651
G1 X166.112 Y37.482 E.0696
G1 X169.615 Y53.451 E.5126
G1 X169.689 Y54.134 E.02154
G1 X169.689 Y153.634 E3.11975
G1 X168.966 Y155.655 E.0673
G1 X150.027 Y178.763 E.93679
G1 X148.749 Y179.701 E.04971
G1 X147.865 Y179.916 E.02853
G1 X92.272 Y185.238 E1.75105
G1 X90.866 Y185.311 E.04414
G1 X90.172 Y185.209 E.02199
G1 X89.507 Y184.993 E.02192
G1 X88.606 Y184.476 E.03257
G1 X51.564 Y156.167 E1.46177
G1 X50.583 Y154.922 E.0497
G1 X50.311 Y153.634 E.04128
G1 X50.311 Y64.634 E2.79053
G1 X51.182 Y38.061 E.83363
G1 X51.609 Y36.597 E.04782
G1 E-8.75 F2400
;WIPE_START
G1 F5760
G1 X51.625 Y36.54 E-.02343
G1 X52.942 Y35.313 E-.7125
G1 X59.753 Y31.908 E-3.01407
;WIPE_END
; printing object 10片仓地板.STL id:0 copy 0
G1 X57.616 Y42.431 F7200
G1 E12.5 F2400
;TYPE:Support material interface
;WIDTH:0.36
G1 F1800
G1 X57.317 Y42.431 E.00788
G1 X57.317 Y43.748 E.03472
G1 X57.775 Y43.748 E.01208
G1 X57.775 Y42.431 E.03472
G1 X58.292 Y42.431 E.01363
G1 X58.292 Y43.206 E.02043
G1 X58.809 Y43.168 E.01367
G1 X58.809 Y42.431 E.01943
G1 X59.326 Y42.431 E.01363
G1 X59.326 Y43.168 E.01943
G1 X59.843 Y43.168 E.01363
G1 X59.843 Y42.431 E.01943
G1 X60.36 Y42.431 E.01363
G1 X60.36 Y43.168 E.01943
G1 X60.877 Y43.168 E.01363
G1 X60.877 Y42.431 E.01943
G1 X61.395 Y42.431 E.01366
G1 X61.395 Y43.168 E.01943
G1 X61.912 Y43.168 E.01363
G1 X61.912 Y42.431 E.01943
G1 X62.429 Y42.431 E.01363
G1 X62.429 Y43.168 E.01943
G1 X62.946 Y43.168 E.01363
G1 X62.946 Y42.431 E.01943
G1 X63.463 Y42.431 E.01363
G1 X63.463 Y43.168 E.01943
G1 X63.98 Y43.168 E.01363
G1 X63.98 Y42.431 E.01943
G1 X64.497 Y42.431 E.01363
G1 X64.497 Y43.168 E.01943
G1 X65.014 Y43.168 E.01363
G1 X65.014 Y42.431 E.01943
G1 X65.531 Y42.431 E.01363
G1 X65.531 Y43.168 E.01943
G1 X66.048 Y43.168 E.01363
G1 X66.048 Y42.431 E.01943
G1 X66.565 Y42.431 E.01363
G1 X66.565 Y43.168 E.01943
G1 X67.082 Y43.168 E.01363
G1 X67.082 Y42.431 E.01943
G1 X67.6 Y42.431 E.01366
G1 X67.6 Y43.168 E.01943
G1 X68.117 Y43.168 E.01363
G1 X68.117 Y42.431 E.01943
G1 X68.634 Y42.431 E.01363
G1 X68.634 Y43.168 E.01943
G1 X69.151 Y43.168 E.01363
G1 X69.151 Y42.431 E.01943
G1 X69.668 Y42.431 E.01363
G1 X69.668 Y43.168 E.01943
G1 X70.185 Y43.168 E.01363
G1 X70.185 Y42.431 E.01943
G1 X70.702 Y42.431 E.01363
G1 X70.702 Y43.168 E.01943
G1 X71.219 Y43.168 E.01363
G1 X71.219 Y42.431 E.01943
G1 X71.736 Y42.431 E.01363
G1 X71.736 Y43.168 E.01943
G1 X72.253 Y43.168 E.01363
G1 X72.253 Y42.431 E.01943
G1 X72.77 Y42.431 E.01363
G1 X72.77 Y43.168 E.01943
G1 X73.287 Y43.168 E.01363
G1 X73.287 Y42.431 E.01943
G1 X73.804 Y42.431 E.01363
G1 X73.804 Y43.168 E.01943
G1 X74.322 Y43.168 E.01366
G1 X74.322 Y42.431 E.01943
G1 X74.839 Y42.431 E.01363
G1 X74.839 Y43.168 E.01943
G1 X75.356 Y43.168 E.01363
G1 X75.356 Y42.431 E.01943
G1 X75.873 Y42.431 E.01363
G1 X75.873 Y43.168 E.01943
G1 X76.39 Y43.168 E.01363
G1 X76.39 Y42.431 E.01943
G1 X76.907 Y42.431 E.01363
G1 X76.907 Y43.168 E.01943
G1 X77.424 Y43.168 E.01363
G1 X77.424 Y42.431 E.01943
G1 X77.941 Y42.431 E.01363
G1 X77.941 Y43.168 E.01943
G1 X78.458 Y43.168 E.01363
G1 X78.458 Y42.431 E.01943
G1 X78.975 Y42.431 E.01363
G1 X78.975 Y43.168 E.01943
G1 X79.492 Y43.168 E.01363
G1 X79.492 Y42.431 E.01943
G1 X80.009 Y42.431 E.01363
G1 X80.009 Y43.168 E.01943
G1 X80.527 Y43.168 E.01366
G1 X80.527 Y42.431 E.01943
G1 X81.044 Y42.431 E.01363
G1 X81.044 Y43.168 E.01943
G1 X81.561 Y43.168 E.01363
G1 X81.561 Y42.431 E.01943
G1 X82.078 Y42.431 E.01363
G1 X82.078 Y43.168 E.01943
G1 X82.595 Y43.168 E.01363
G1 X82.595 Y42.431 E.01943
G1 X83.112 Y42.431 E.01363
G1 X83.112 Y43.168 E.01943
G1 X83.629 Y43.168 E.01363
G1 X83.629 Y42.431 E.01943
G1 X84.146 Y42.431 E.01363
G1 X84.146 Y43.168 E.01943
G1 X84.663 Y43.168 E.01363
G1 X84.663 Y42.431 E.01943
G1 X85.18 Y42.431 E.01363
G1 X85.18 Y43.168 E.01943
G1 X85.697 Y43.168 E.01363
G1 X85.697 Y42.431 E.01943
G1 X86.214 Y42.431 E.01363
G1 X86.214 Y43.168 E.01943
G1 X86.731 Y43.168 E.01363
G1 X86.731 Y42.431 E.01943
G1 X87.249 Y42.431 E.01366
G1 X87.249 Y43.168 E.01943
G1 X87.766 Y43.168 E.01363
G1 X87.766 Y42.431 E.01943
G1 X88.283 Y42.431 E.01363
G1 X88.283 Y43.168 E.01943
G1 X88.8 Y43.168 E.01363
G1 X88.8 Y42.431 E.01943
G1 X89.317 Y42.431 E.01363
G1 X89.317 Y43.168 E.01943
G1 X89.834 Y43.168 E.01363
G1 X89.834 Y42.431 E.01943
G1 X90.351 Y42.431 E.01363
G1 X90.351 Y43.168 E.01943
G1 X90.868 Y43.168 E.01363
G1 X90.868 Y42.431 E.01943
G1 X91.385 Y42.431 E.01363
G1 X91.385 Y43.168 E.01943
G1 X91.902 Y43.168 E.01363
G1 X91.902 Y42.431 E.01943
G1 X92.419 Y42.431 E.01363
G1 X92.419 Y43.168 E.01943
G1 X92.936 Y43.168 E.01363
G1 X92.936 Y42.431 E.01943
G1 X93.453 Y42.431 E.01363
G1 X93.453 Y43.168 E.01943
G1 X93.971 Y43.168 E.01366
G1 X93.971 Y42.431 E.01943
G1 X94.488 Y42.431 E.01363
G1 X94.488 Y43.168 E.01943
G1 X95.005 Y43.168 E.01363
G1 X95.005 Y42.431 E.01943
G1 X95.522 Y42.431 E.01363
G1 X95.522 Y43.168 E.01943
G1 X96.039 Y43.168 E.01363
G1 X96.039 Y42.431 E.01943
G1 X96.556 Y42.431 E.01363
G1 X96.556 Y43.168 E.01943
G1 X97.073 Y43.168 E.01363
G1 X97.073 Y42.431 E.01943
G1 X97.59 Y42.431 E.01363
G1 X97.59 Y43.168 E.01943
G1 X98.107 Y43.168 E.01363
G1 X98.107 Y42.431 E.01943
G1 X98.624 Y42.431 E.01363
G1 X98.624 Y43.168 E.01943
G1 X99.141 Y43.168 E.01363
G1 X99.141 Y42.431 E.01943
G1 X99.658 Y42.431 E.01363
G1 X99.658 Y43.168 E.01943
G1 X100.176 Y43.168 E.01366
G1 X100.176 Y42.431 E.01943
G1 X100.693 Y42.431 E.01363
G1 X100.693 Y43.168 E.01943
G1 X101.21 Y43.168 E.01363
G1 X101.21 Y42.431 E.01943
G1 X101.727 Y42.431 E.01363
G1 X101.727 Y43.168 E.01943
G1 X102.244 Y43.168 E.01363
G1 X102.244 Y42.431 E.01943
G1 X102.761 Y42.431 E.01363
G1 X102.761 Y43.168 E.01943
G1 X103.278 Y43.168 E.01363
G1 X103.278 Y42.431 E.01943
G1 X103.795 Y42.431 E.01363
G1 X103.795 Y43.168 E.01943
G1 X104.312 Y43.168 E.01363
G1 X104.312 Y42.431 E.01943
G1 X104.829 Y42.431 E.01363
G1 X104.829 Y43.168 E.01943
G1 X105.346 Y43.168 E.01363
G1 X105.346 Y42.431 E.01943
G1 X105.863 Y42.431 E.01363
G1 X105.863 Y43.168 E.01943
G1 X106.38 Y43.168 E.01363
G1 X106.38 Y42.431 E.01943
G1 X106.898 Y42.431 E.01366
G1 X106.898 Y43.168 E.01943
G1 X107.415 Y43.168 E.01363
G1 X107.415 Y42.431 E.01943
G1 X107.932 Y42.431 E.01363
G1 X107.932 Y43.168 E.01943
G1 X108.449 Y43.168 E.01363
G1 X108.449 Y42.431 E.01943
G1 X108.966 Y42.431 E.01363
G1 X108.966 Y43.168 E.01943
G1 X109.483 Y43.168 E.01363
G1 X109.483 Y42.431 E.01943
G1 X110 Y42.431 E.01363
G1 X110 Y43.168 E.01943
G1 X110.517 Y43.168 E.01363
G1 X110.517 Y42.431 E.01943
G1 X111.034 Y42.431 E.01363
G1 X111.034 Y43.168 E.01943
G1 X111.551 Y43.168 E.01363
G1 X111.551 Y42.431 E.01943
G1 X112.068 Y42.431 E.01363
G1 X112.068 Y43.168 E.01943
G1 X112.585 Y43.168 E.01363
G1 X112.585 Y42.431 E.01943
G1 X113.102 Y42.431 E.01363
G1 X113.102 Y43.168 E.01943
G1 X113.62 Y43.168 E.01366
G1 X113.62 Y42.431 E.01943
G1 X114.137 Y42.431 E.01363
G1 X114.137 Y43.168 E.01943
G1 X114.654 Y43.168 E.01363
G1 X114.654 Y42.431 E.01943
G1 X115.171 Y42.431 E.01363
G1 X115.171 Y43.168 E.01943
G1 X115.688 Y43.168 E.01363
G1 X115.688 Y42.431 E.01943
G1 X116.205 Y42.431 E.01363
G1 X116.205 Y43.168 E.01943
G1 X116.722 Y43.168 E.01363
G1 X116.722 Y42.431 E.01943
G1 X117.239 Y42.431 E.01363
G1 X117.239 Y43.168 E.01943
G1 X117.756 Y43.168 E.01363
G1 X117.756 Y42.431 E.01943
G1 X118.273 Y42.431 E.01363
G1 X118.273 Y43.168 E.01943
G1 X118.79 Y43.168 E.01363
G1 X118.79 Y42.431 E.01943
G1 X119.307 Y42.431 E.01363
G1 X119.307 Y43.168 E.01943
G1 X119.825 Y43.168 E.01366
G1 X119.825 Y42.431 E.01943
G1 X120.342 Y42.431 E.01363
G1 X120.342 Y43.168 E.01943
G1 X120.859 Y43.168 E.01363
G1 X120.859 Y42.431 E.01943
G1 X121.376 Y42.431 E.01363
G1 X121.376 Y43.168 E.01943
G1 X121.893 Y43.168 E.01363
G1 X121.893 Y42.431 E.01943
G1 X122.41 Y42.431 E.01363
G1 X122.41 Y43.168 E.01943
G1 X122.927 Y43.168 E.01363
G1 X122.927 Y42.431 E.01943
G1 X123.444 Y42.431 E.01363
G1 X123.444 Y43.168 E.01943
G1 X123.961 Y43.168 E.01363
G1 X123.961 Y42.431 E.01943
G1 X124.478 Y42.431 E.01363
G1 X124.478 Y43.168 E.01943
G1 X124.995 Y43.168 E.01363
G1 X124.995 Y42.431 E.01943
G1 X125.512 Y42.431 E.01363
G1 X125.512 Y43.168 E.01943
G1 X126.029 Y43.168 E.01363
G1 X126.029 Y42.431 E.01943
G1 X126.547 Y42.431 E.01366
G1 X126.547 Y43.168 E.01943
G1 X127.064 Y43.168 E.01363
G1 X127.064 Y42.431 E.01943
G1 X127.581 Y42.431 E.01363
G1 X127.581 Y43.168 E.01943
G1 X128.098 Y43.168 E.01363
G1 X128.098 Y42.431 E.01943
G1 X128.615 Y42.431 E.01363
G1 X128.615 Y43.168 E.01943
G1 X129.132 Y43.168 E.01363
G1 X129.132 Y42.431 E.01943
G1 X129.649 Y42.431 E.01363
G1 X129.649 Y43.168 E.01943
G1 X130.166 Y43.168 E.01363
G1 X130.166 Y42.431 E.01943
G1 X130.683 Y42.431 E.01363
G1 X130.683 Y43.168 E.01943
G1 X131.2 Y43.168 E.01363
G1 X131.2 Y42.431 E.01943
G1 X131.717 Y42.431 E.01363
G1 X131.717 Y43.168 E.01943
G1 X132.234 Y43.168 E.01363
G1 X132.234 Y42.431 E.01943
G1 X132.751 Y42.431 E.01363
G1 X132.751 Y43.168 E.01943
G1 X133.269 Y43.168 E.01366
G1 X133.269 Y42.431 E.01943
G1 X133.786 Y42.431 E.01363
G1 X133.786 Y43.168 E.01943
G1 X134.303 Y43.168 E.01363
G1 X134.303 Y42.431 E.01943
G1 X134.82 Y42.431 E.01363
G1 X134.82 Y43.168 E.01943
G1 X135.337 Y43.168 E.01363
G1 X135.337 Y42.431 E.01943
G1 X135.854 Y42.431 E.01363
G1 X135.854 Y43.168 E.01943
G1 X136.371 Y43.168 E.01363
G1 X136.371 Y42.431 E.01943
G1 X136.888 Y42.431 E.01363
G1 X136.888 Y43.168 E.01943
G1 X137.405 Y43.168 E.01363
G1 X137.405 Y42.431 E.01943
G1 X137.922 Y42.431 E.01363
G1 X137.922 Y43.168 E.01943
G1 X138.439 Y43.168 E.01363
G1 X138.439 Y42.431 E.01943
G1 X138.956 Y42.431 E.01363
G1 X138.956 Y43.168 E.01943
G1 X139.474 Y43.168 E.01366
G1 X139.474 Y42.431 E.01943
G1 X139.991 Y42.431 E.01363
G1 X139.991 Y43.168 E.01943
G1 X140.508 Y43.168 E.01363
G1 X140.508 Y42.431 E.01943
G1 X141.025 Y42.431 E.01363
G1 X141.025 Y43.168 E.01943
G1 X141.542 Y43.168 E.01363
G1 X141.542 Y42.431 E.01943
G1 X142.059 Y42.431 E.01363
G1 X142.059 Y43.168 E.01943
G1 X142.576 Y43.168 E.01363
G1 X142.576 Y42.431 E.01943
G1 X143.093 Y42.431 E.01363
G1 X143.093 Y43.168 E.01943
G1 X143.61 Y43.168 E.01363
G1 X143.61 Y42.431 E.01943
G1 X144.127 Y42.431 E.01363
G1 X144.127 Y43.168 E.01943
G1 X144.644 Y43.168 E.01363
G1 X144.644 Y42.431 E.01943
G1 X145.161 Y42.431 E.01363
G1 X145.161 Y43.168 E.01943
G1 X145.678 Y43.168 E.01363
G1 X145.678 Y42.431 E.01943
G1 X146.196 Y42.431 E.01366
G1 X146.196 Y43.168 E.01943
G1 X146.713 Y43.168 E.01363
G1 X146.713 Y42.431 E.01943
G1 X147.23 Y42.431 E.01363
G1 X147.23 Y43.168 E.01943
G1 X147.747 Y43.168 E.01363
G1 X147.747 Y42.431 E.01943
G1 X148.264 Y42.431 E.01363
G1 X148.264 Y43.168 E.01943
G1 X148.781 Y43.168 E.01363
G1 X148.781 Y42.431 E.01943
G1 X149.298 Y42.431 E.01363
G1 X149.298 Y43.168 E.01943
G1 X149.815 Y43.168 E.01363
G1 X149.815 Y42.431 E.01943
G1 X150.332 Y42.431 E.01363
G1 X150.332 Y43.168 E.01943
G1 X150.849 Y43.168 E.01363
G1 X150.849 Y42.431 E.01943
G1 X151.366 Y42.431 E.01363
G1 X151.366 Y43.168 E.01943
G1 X151.883 Y43.168 E.01363
G1 X151.883 Y42.431 E.01943
G1 X152.4 Y42.431 E.01363
G1 X152.4 Y43.168 E.01943
G1 X152.918 Y43.168 E.01366
G1 X152.918 Y42.431 E.01943
G1 X153.435 Y42.431 E.01363
G1 X153.435 Y43.168 E.01943
G1 X153.952 Y43.168 E.01363
G1 X153.952 Y42.431 E.01943
G1 X154.469 Y42.431 E.01363
G1 X154.469 Y43.168 E.01943
G1 X154.986 Y43.168 E.01363
G1 X154.986 Y42.431 E.01943
G1 X155.503 Y42.431 E.01363
G1 X155.503 Y43.168 E.01943
G1 X156.02 Y43.168 E.01363
G1 X156.02 Y42.431 E.01943
G1 X156.537 Y42.431 E.01363
G1 X156.537 Y43.168 E.01943
G1 X157.054 Y43.168 E.01363
G1 X157.054 Y42.431 E.01943
G1 X157.571 Y42.431 E.01363
G1 X157.571 Y43.168 E.01943
G1 X158.088 Y43.168 E.01363
G1 X158.088 Y42.431 E.01943
G1 X158.605 Y42.431 E.01363
G1 X158.605 Y43.168 E.01943
G1 X159.123 Y43.168 E.01366
G1 X159.123 Y42.431 E.01943
G1 X159.64 Y42.431 E.01363
G1 X159.64 Y43.168 E.01943
G1 X159.911 Y43.408 E.00954
G1 X159.911 Y43.748 E.00896
G1 X160.049 Y43.748 E.00364
G1 X160.049 Y42.431 E.03472
G1 X159.798 Y42.431 E.00662
G1 E-8.75 F2400
;WIPE_START
G1 F5760
G1 X160.049 Y42.431 E-.09935
G1 X160.049 Y43.748 E-.52131
G1 X159.911 Y43.748 E-.05463
G1 X159.911 Y43.408 E-.13458
G1 X159.64 Y43.168 E-.14329
G1 X159.64 Y42.431 E-.29173
G1 X159.123 Y42.431 E-.20465
G1 X159.123 Y43.168 E-.29173
G1 X158.605 Y43.168 E-.20504
G1 X158.605 Y42.431 E-.29173
G1 X158.088 Y42.431 E-.20465
G1 X158.088 Y43.168 E-.29173
G1 X157.571 Y43.168 E-.20465
G1 X157.571 Y42.431 E-.29173
G1 X157.054 Y42.431 E-.20465
G1 X157.054 Y43.168 E-.29173
G1 X156.996 Y43.168 E-.02282
;WIPE_END
G1 X157.729 Y38.165 F7200
G1 E12.5 F2400
;TYPE:Support material
;WIDTH:0.42
G1 F1800
G1 X162.998 Y38.165 E.16521
G1 X162.998 Y45.062 E.21625
G1 X159.962 Y45.062 E.09519
G1 X159.962 Y44.117 E.02963
G1 X160.418 Y44.117 E.0143
G1 X160.418 Y42.062 E.06443
G1 X56.948 Y42.062 E3.24423
G1 X56.948 Y44.117 E.06443
G1 X58.038 Y44.117 E.03418
G1 X58.038 Y45.062 E.02963
G1 X54.368 Y45.062 E.11507
G1 X54.368 Y38.165 E.21625
G1 X62.271 Y38.165 E.24779
G1 X62.271 Y34.214 E.12388
G1 X157.729 Y34.214 E2.99302
G1 X157.729 Y38.109 E.12212
G1 X157.729 Y38.109 F7200
G1 X162.372 Y44.893
G1 F1800
G1 X162.372 Y38.505 E.20029
G1 X161.953 Y38.505 E.01314
G1 X161.953 Y44.723 E.19496
G1 X161.534 Y44.723 E.01314
G1 X161.534 Y38.505 E.19496
G1 X161.115 Y38.505 E.01314
G1 X161.115 Y44.723 E.19496
G1 X160.696 Y44.723 E.01314
G1 X160.696 Y38.505 E.19496
G1 X160.277 Y38.505 E.01314
G1 X160.277 Y41.723 E.1009
G1 X159.858 Y41.723 E.01314
G1 X159.858 Y38.505 E.1009
G1 X159.439 Y38.505 E.01314
G1 X159.439 Y41.723 E.1009
G1 X159.02 Y41.723 E.01314
G1 X159.02 Y38.505 E.1009
G1 X158.601 Y38.505 E.01314
G1 X158.601 Y41.723 E.1009
G1 X158.182 Y41.723 E.01314
G1 X158.182 Y38.505 E.1009
G1 X157.763 Y38.505 E.01314
G1 X157.763 Y41.723 E.1009
G1 X157.344 Y41.723 E.01314
G1 X157.344 Y34.553 E.22481
G1 X156.925 Y34.553 E.01314
G1 X156.925 Y41.723 E.22481
G1 X156.506 Y41.723 E.01314
G1 X156.506 Y34.553 E.22481
G1 X156.087 Y34.553 E.01314
G1 X156.087 Y41.723 E.22481
G1 X155.668 Y41.723 E.01314
G1 X155.668 Y34.553 E.22481
