; generated by PrusaSlicer 2.9.0 on 2025-04-01 at 15:02:31 UTC

; 

; external perimeters extrusion width = 0.42mm
; perimeters extrusion width = 0.44mm
; infill extrusion width = 0.44mm
; solid infill extrusion width = 0.44mm
; top infill extrusion width = 0.40mm
; support material extrusion width = 0.36mm
; first layer extrusion width = 0.42mm

M201 X500 Y500 Z100 E5000 ; sets maximum accelerations, mm/sec^2
M203 X500 Y500 Z10 E60 ; sets maximum feedrates, mm / sec
M204 S500 T1000 ; sets acceleration (S) and retract acceleration (R), mm/sec^2
M205 X8.00 Y8.00 Z0.40 E5.00 ; sets the jerk limits, mm/sec
M205 S0 T0 ; sets the minimum extruding and travel feed rate, mm/sec

; printing object 12PCB盖板.STL id:0 copy 0
; stop printing object 12PCB盖板.STL id:0 copy 0

;TYPE:Custom
G90 ; use absolute coordinates
M83 ; extruder relative mode
M104 S160 ; set temporary nozzle temp to prevent oozing during homing
M140 S70 ; set final bed temp
G4 S30 ; allow partial nozzle warmup
G28 ; home all axis
G1 Z50 F240
G1 X2.0 Y10 F3000
M104 S240 ; set final nozzle temp
M190 S70 ; wait for bed temp to stabilize
M109 S240 ; wait for nozzle temp to stabilize
G1 Z0.28 F240
G92 E0
G1 X2.0 Y140 E10 F1500 ; prime the nozzle
G1 X2.3 Y140 F5000
G92 E0
G1 X2.3 Y10 E10 F1200 ; prime the nozzle
G92 E0
G21 ; set units to millimeters
G90 ; use absolute coordinates
M83 ; use relative distances for extrusion
; Filament gcode
M107
;LAYER_CHANGE
;Z:0.2
;HEIGHT:0.2
G1 E-4 F2400
G1 Z.2 F7200
G1 X82.942 Y52.077
G1 Z.2
G1 E4 F2400
M204 S500
;TYPE:Skirt/Brim
;WIDTH:0.42
G1 F1800
G1 X83.786 Y50.736 E.04968
G1 X85.171 Y49.967 E.04967
G1 X85.978 Y49.863 E.02551
G1 X137.973 Y49.863 E1.63027
G1 X139.508 Y50.257 E.04969
G1 X140.988 Y52.013 E.07201
G1 X146.572 Y68.236 E.53795
G1 X146.726 Y68.911 E.02171
G1 X152.807 Y122.113 E1.67897
G1 X152.858 Y123.198 E.03406
G1 X152.723 Y124.575 E.04338
G1 X152.357 Y125.91 E.0434
G1 X151.771 Y127.164 E.0434
G1 X150.625 Y128.706 E.06024
G1 X149.593 Y129.629 E.04341
G1 X148.822 Y130.147 E.02912
G1 X94.316 Y164.824 E2.02555
G1 X93.156 Y165.49 E.04194
G1 X91.955 Y165.945 E.04027
G1 X91.192 Y166.128 E.0246
G1 X89.916 Y166.268 E.04025
G1 X75.323 Y166.277 E.45755
G1 X74.21 Y166.194 E.03499
G1 X72.86 Y165.891 E.04338
G1 X71.108 Y165.101 E.06026
G1 X70.407 Y164.629 E.0265
G1 X69.375 Y163.706 E.04341
G1 X68.513 Y162.623 E.0434
G1 X67.846 Y161.41 E.0434
G1 X67.277 Y159.575 E.06024
G1 X67.142 Y158.198 E.04338
G1 X67.194 Y157.101 E.03443
G1 X77.61 Y68.894 E2.78488
G1 X77.74 Y68.294 E.01925
G1 X82.924 Y52.135 E.53209
G1 E-2.8 F2400
;WIPE_START
G1 F5760
G1 X82.942 Y52.077 E-.02404
G1 X83.786 Y50.736 E-.6272
G1 X84.998 Y50.063 E-.54876
;WIPE_END
; printing object 12PCB盖板.STL id:0 copy 0
G1 X137.973 Y62.651 F7200
G1 E4 F2400
;TYPE:Support material
G1 F1800
G1 X137.187 Y62.178 E.02876
G1 X136.009 Y61.639 E.04062
G1 X134.752 Y61.229 E.04146
G1 X133.492 Y60.984 E.04025
G1 X132.18 Y60.895 E.04123
G1 X92.159 Y60.895 E1.25483
G1 X90.847 Y60.983 E.04123
G1 X89.599 Y61.223 E.03985
G1 X88.317 Y61.642 E.04229
G1 X87.128 Y62.187 E.04101
G1 X85.978 Y62.876 E.04203
G1 X85.978 Y53.051 E.30806
G1 X137.973 Y53.051 E1.63027
G1 X137.973 Y62.594 E.29921
G1 X137.234 Y62.012 F7200
G1 F1800
G1 X137.234 Y53.391 E.27031
G1 X136.815 Y53.391 E.01314
G1 X136.815 Y61.634 E.25845
G1 X136.396 Y61.443 E.01444
G1 X136.396 Y53.391 E.25246
G1 X135.977 Y53.391 E.01314
G1 X135.977 Y61.271 E.24707
G1 X135.558 Y61.136 E.0138
G1 X135.558 Y53.391 E.24284
G1 X135.139 Y53.391 E.01314
G1 X135.139 Y61.001 E.23861
G1 X134.72 Y60.873 E.01374
G1 X134.72 Y53.391 E.23459
G1 X134.301 Y53.391 E.01314
G1 X134.301 Y60.793 E.23208
G1 X133.882 Y60.713 E.01337
G1 X133.882 Y53.391 E.22958
G1 X133.463 Y53.391 E.01314
G1 X133.463 Y60.64 E.22729
G1 X133.044 Y60.613 E.01316
G1 X133.044 Y53.391 E.22644
G1 X132.625 Y53.391 E.01314
G1 X132.625 Y60.587 E.22563
G1 X132.206 Y60.556 E.01317
G1 X132.206 Y53.391 E.22465
G1 X131.787 Y53.391 E.01314
G1 X131.787 Y60.555 E.22462
G1 X131.368 Y60.555 E.01314
G1 X131.368 Y53.391 E.22462
G1 X130.949 Y53.391 E.01314
G1 X130.949 Y60.555 E.22462
G1 X130.53 Y60.555 E.01314
G1 X130.53 Y53.391 E.22462
G1 X130.111 Y53.391 E.01314
G1 X130.111 Y60.555 E.22462
G1 X129.692 Y60.555 E.01314
G1 X129.692 Y53.391 E.22462
G1 X129.273 Y53.391 E.01314
G1 X129.273 Y60.555 E.22462
G1 X128.854 Y60.555 E.01314
G1 X128.854 Y53.391 E.22462
G1 X128.435 Y53.391 E.01314
G1 X128.435 Y60.555 E.22462
G1 X128.016 Y60.555 E.01314
G1 X128.016 Y53.391 E.22462
G1 X127.597 Y53.391 E.01314
G1 X127.597 Y60.555 E.22462
G1 X127.178 Y60.555 E.01314
G1 X127.178 Y53.391 E.22462
G1 X126.759 Y53.391 E.01314
G1 X126.759 Y60.555 E.22462
G1 X126.34 Y60.555 E.01314
G1 X126.34 Y53.391 E.22462
G1 X125.921 Y53.391 E.01314
G1 X125.921 Y60.555 E.22462
G1 X125.502 Y60.555 E.01314
G1 X125.502 Y53.391 E.22462
G1 X125.083 Y53.391 E.01314
G1 X125.083 Y60.555 E.22462
G1 X124.664 Y60.555 E.01314
G1 X124.664 Y53.391 E.22462
G1 X124.245 Y53.391 E.01314
G1 X124.245 Y60.555 E.22462
G1 X123.826 Y60.555 E.01314
G1 X123.826 Y53.391 E.22462
G1 X123.407 Y53.391 E.01314
G1 X123.407 Y60.555 E.22462
G1 X122.988 Y60.555 E.01314
G1 X122.988 Y53.391 E.22462
G1 X122.569 Y53.391 E.01314
G1 X122.569 Y60.555 E.22462
G1 X122.15 Y60.555 E.01314
G1 X122.15 Y53.391 E.22462
G1 X121.731 Y53.391 E.01314
G1 X121.731 Y60.555 E.22462
G1 X121.312 Y60.555 E.01314
G1 X121.312 Y53.391 E.22462
G1 X120.893 Y53.391 E.01314
G1 X120.893 Y60.555 E.22462
G1 X120.474 Y60.555 E.01314
G1 X120.474 Y53.391 E.22462
G1 X120.055 Y53.391 E.01314
G1 X120.055 Y60.555 E.22462
G1 X119.636 Y60.555 E.01314
G1 X119.636 Y53.391 E.22462
G1 X119.217 Y53.391 E.01314
G1 X119.217 Y60.555 E.22462
G1 X118.799 Y60.555 E.01311
G1 X118.799 Y53.391 E.22462
G1 X118.38 Y53.391 E.01314
G1 X118.38 Y60.555 E.22462
G1 X117.961 Y60.555 E.01314
G1 X117.961 Y53.391 E.22462
G1 X117.542 Y53.391 E.01314
G1 X117.542 Y60.555 E.22462
G1 X117.123 Y60.555 E.01314
G1 X117.123 Y53.391 E.22462
G1 X116.704 Y53.391 E.01314
G1 X116.704 Y60.555 E.22462
G1 X116.285 Y60.555 E.01314
G1 X116.285 Y53.391 E.22462
G1 X115.866 Y53.391 E.01314
G1 X115.866 Y60.555 E.22462
G1 X115.447 Y60.555 E.01314
G1 X115.447 Y53.391 E.22462
G1 X115.028 Y53.391 E.01314
G1 X115.028 Y60.555 E.22462
G1 X114.609 Y60.555 E.01314
G1 X114.609 Y53.391 E.22462
G1 X114.19 Y53.391 E.01314
G1 X114.19 Y60.555 E.22462
G1 X113.771 Y60.555 E.01314
G1 X113.771 Y53.391 E.22462
G1 X113.352 Y53.391 E.01314
G1 X113.352 Y60.555 E.22462
G1 X112.933 Y60.555 E.01314
G1 X112.933 Y53.391 E.22462
G1 X112.514 Y53.391 E.01314
G1 X112.514 Y60.555 E.22462
G1 X112.095 Y60.555 E.01314
G1 X112.095 Y53.391 E.22462
G1 X111.676 Y53.391 E.01314
G1 X111.676 Y60.555 E.22462
G1 X111.257 Y60.555 E.01314
G1 X111.257 Y53.391 E.22462
G1 X110.838 Y53.391 E.01314
G1 X110.838 Y60.555 E.22462
G1 X110.419 Y60.555 E.01314
G1 X110.419 Y53.391 E.22462
G1 X110 Y53.391 E.01314
G1 X110 Y60.555 E.22462
G1 X109.581 Y60.555 E.01314
G1 X109.581 Y53.391 E.22462
G1 X109.162 Y53.391 E.01314
G1 X109.162 Y60.555 E.22462
G1 X108.743 Y60.555 E.01314
G1 X108.743 Y53.391 E.22462
G1 X108.324 Y53.391 E.01314
G1 X108.324 Y60.555 E.22462
G1 X107.905 Y60.555 E.01314
G1 X107.905 Y53.391 E.22462
G1 X107.486 Y53.391 E.01314
G1 X107.486 Y60.555 E.22462
G1 X107.067 Y60.555 E.01314
G1 X107.067 Y53.391 E.22462
G1 X106.648 Y53.391 E.01314
G1 X106.648 Y60.555 E.22462
G1 X106.229 Y60.555 E.01314
G1 X106.229 Y53.391 E.22462
G1 X105.81 Y53.391 E.01314
G1 X105.81 Y60.555 E.22462
G1 X105.391 Y60.555 E.01314
G1 X105.391 Y53.391 E.22462
G1 X104.972 Y53.391 E.01314
G1 X104.972 Y60.555 E.22462
G1 X104.553 Y60.555 E.01314
G1 X104.553 Y53.391 E.22462
G1 X104.134 Y53.391 E.01314
G1 X104.134 Y60.555 E.22462
G1 X103.715 Y60.555 E.01314
G1 X103.715 Y53.391 E.22462
G1 X103.296 Y53.391 E.01314
G1 X103.296 Y60.555 E.22462
G1 X102.877 Y60.555 E.01314
G1 X102.877 Y53.391 E.22462
G1 X102.458 Y53.391 E.01314
G1 X102.458 Y60.555 E.22462
G1 X102.039 Y60.555 E.01314
G1 X102.039 Y53.391 E.22462
G1 X101.62 Y53.391 E.01314
G1 X101.62 Y60.555 E.22462
G1 X101.201 Y60.555 E.01314
G1 X101.201 Y53.391 E.22462
G1 X100.783 Y53.391 E.01311
G1 X100.783 Y60.555 E.22462
G1 X100.364 Y60.555 E.01314
G1 X100.364 Y53.391 E.22462
G1 X99.945 Y53.391 E.01314
G1 X99.945 Y60.555 E.22462
G1 X99.526 Y60.555 E.01314
G1 X99.526 Y53.391 E.22462
G1 X99.107 Y53.391 E.01314
G1 X99.107 Y60.555 E.22462
G1 X98.688 Y60.555 E.01314
G1 X98.688 Y53.391 E.22462
G1 X98.269 Y53.391 E.01314
G1 X98.269 Y60.555 E.22462
G1 X97.85 Y60.555 E.01314
G1 X97.85 Y53.391 E.22462
G1 X97.431 Y53.391 E.01314
G1 X97.431 Y60.555 E.22462
G1 X97.012 Y60.555 E.01314
G1 X97.012 Y53.391 E.22462
G1 X96.593 Y53.391 E.01314
G1 X96.593 Y60.555 E.22462
G1 X96.174 Y60.555 E.01314
G1 X96.174 Y53.391 E.22462
G1 X95.755 Y53.391 E.01314
G1 X95.755 Y60.555 E.22462
G1 X95.336 Y60.555 E.01314
G1 X95.336 Y53.391 E.22462
G1 X94.917 Y53.391 E.01314
G1 X94.917 Y60.555 E.22462
G1 X94.498 Y60.555 E.01314
G1 X94.498 Y53.391 E.22462
G1 X94.079 Y53.391 E.01314
G1 X94.079 Y60.555 E.22462
G1 X93.66 Y60.555 E.01314
G1 X93.66 Y53.391 E.22462
G1 X93.241 Y53.391 E.01314
G1 X93.241 Y60.555 E.22462
G1 X92.822 Y60.555 E.01314
G1 X92.822 Y53.391 E.22462
G1 X92.403 Y53.391 E.01314
G1 X92.403 Y60.555 E.22462
G1 X91.984 Y60.565 E.01314
G1 X91.984 Y53.391 E.22494
G1 X91.565 Y53.391 E.01314
G1 X91.565 Y60.592 E.22578
G1 X91.146 Y60.618 E.01316
G1 X91.146 Y53.391 E.2266
G1 X90.727 Y53.391 E.01314
G1 X90.727 Y60.66 E.22791
G1 X90.308 Y60.74 E.01337
G1 X90.308 Y53.391 E.23042
G1 X89.889 Y53.391 E.01314
G1 X89.889 Y60.82 E.23293
G1 X89.47 Y60.908 E.01342
G1 X89.47 Y53.391 E.23569
G1 X89.051 Y53.391 E.01314
G1 X89.051 Y61.043 E.23992
G1 X88.632 Y61.178 E.0138
G1 X88.632 Y53.391 E.24416
G1 X88.213 Y53.391 E.01314
G1 X88.213 Y61.318 E.24855
G1 X87.794 Y61.508 E.01443
G1 X87.794 Y53.391 E.2545
G1 X87.375 Y53.391 E.01314
G1 X87.375 Y61.699 E.26049
G1 X86.956 Y61.894 E.01449
G1 X86.956 Y53.391 E.26661
G1 X86.537 Y53.391 E.01314
G1 X86.537 Y62.343 E.28068
G1 E-2.8 F2400
;WIPE_START
G1 F5760
G1 X86.537 Y59.311 E-1.2
;WIPE_END
G1 X93.3 Y86.24 F7200
G1 E4 F2400
;TYPE:Perimeter
;WIDTH:0.419999
G1 F1800
G1 X93.788 Y85.961 E.01763
G1 X94.142 Y85.842 E.01171
G1 X94.649 Y85.778 E.01602
G1 X95.064 Y85.811 E.01305
G1 X95.737 Y86.046 E.02235
G1 X96.008 Y86.213 E.00998
G1 X96.356 Y86.519 E.01453
G1 X96.555 Y86.765 E.00992
G1 X96.775 Y87.155 E.01404
G1 X96.881 Y87.451 E.00986
G1 X96.98 Y88.049 E.01901
G1 X96.889 Y88.705 E.02077
G1 X96.782 Y89.006 E.01002
G1 X96.537 Y89.443 E.01571
G1 X96.331 Y89.681 E.00987
G1 X95.878 Y90.061 E.01854
G1 X95.325 Y90.297 E.01885
G1 X94.995 Y90.372 E.01061
G1 X94.446 Y90.391 E.01722
G1 X93.772 Y90.215 E.02184
G1 X93.488 Y90.072 E.00997
G1 X93.024 Y89.719 E.01828
G1 X92.635 Y89.182 E.02079
G1 X92.531 Y88.979 E.00715
G1 X92.387 Y88.443 E.0174
G1 X92.359 Y88.128 E.00992
G1 X92.411 Y87.577 E.01735
G1 X92.667 Y86.939 E.02155
G1 X92.849 Y86.668 E.01024
G1 X93.217 Y86.287 E.01661
G1 X93.247 Y86.27 E.00108
G1 X93.247 Y86.27 F7200
G1 X93.523 Y86.544
G1 F1800
G1 X93.595 Y86.481 E.003
G1 X94.05 Y86.254 E.01594
G1 X94.635 Y86.158 E.01859
G1 X95.021 Y86.186 E.01213
G1 X95.596 Y86.396 E.01919
G1 X96.107 Y86.802 E.02046
G1 X96.446 Y87.34 E.01994
G1 X96.594 Y87.989 E.02087
G1 X96.563 Y88.374 E.01211
G1 X96.453 Y88.822 E.01446
G1 X96.204 Y89.265 E.01593
G1 X95.759 Y89.682 E.01912
G1 X95.596 Y89.782 E.006
G1 X95.087 Y89.98 E.01712
G1 X94.516 Y90.015 E.01794
G1 X94.326 Y89.99 E.00601
G1 X93.783 Y89.814 E.0179
G1 X93.339 Y89.493 E.01718
G1 X93.207 Y89.355 E.00599
G1 X92.885 Y88.849 E.01881
G1 X92.752 Y88.348 E.01625
G1 X92.735 Y88.159 E.00595
G1 X92.781 Y87.65 E.01602
G1 X93.012 Y87.092 E.01894
G1 X93.304 Y86.738 E.01439
G1 X93.478 Y86.584 E.00729
G1 X93.478 Y86.584 F7200
G1 X93.743 Y86.84
;TYPE:External perimeter
G1 F1800
G1 X94.179 Y86.609 E.01547
G1 X94.684 Y86.532 E.01602
G1 X95.025 Y86.573 E.01077
G1 X95.51 Y86.779 E.01652
G1 X95.898 Y87.135 E.01651
G1 X96.138 Y87.584 E.01596
G1 X96.226 Y88.081 E.01583
G1 X96.145 Y88.578 E.01579
G1 X95.898 Y89.043 E.01651
G1 X95.51 Y89.399 E.01651
G1 X95.044 Y89.597 E.01588
G1 X94.5 Y89.638 E.01711
G1 X93.993 Y89.494 E.01653
G1 X93.563 Y89.19 E.01651
G1 X93.239 Y88.719 E.01792
G1 X93.112 Y88.232 E.01578
G1 X93.151 Y87.722 E.01604
G1 X93.357 Y87.244 E.01632
G1 X93.695 Y86.875 E.01569
G1 E-2.8 F2400
;WIPE_START
G1 F5760
G1 X93.743 Y86.84 E-.02351
G1 X94.179 Y86.609 E-.19531
G1 X94.684 Y86.532 E-.20221
G1 X95.025 Y86.573 E-.13595
G1 X95.51 Y86.779 E-.20858
G1 X95.898 Y87.135 E-.20844
G1 X96.138 Y87.584 E-.20153
G1 X96.149 Y87.645 E-.02447
;WIPE_END
G1 X90.944 Y76.13 F7200
G1 E4 F2400
;TYPE:Perimeter
G1 F1800
G1 X90.871 Y76.156 E.00243
G1 X90.212 Y76.244 E.02085
G1 X89.894 Y76.231 E.00998
G1 X89.325 Y76.108 E.01825
G1 X89.03 Y75.989 E.00997
G1 X88.534 Y75.684 E.01826
G1 X88.295 Y75.474 E.00998
G1 X87.929 Y75.021 E.01826
G1 X87.774 Y74.743 E.00998
G1 X87.58 Y74.194 E.01826
G1 X87.526 Y73.88 E.00999
G1 X87.526 Y73.298 E.01825
G1 X87.603 Y72.917 E.01219
G1 X87.774 Y72.435 E.01604
G1 X87.929 Y72.157 E.00998
G1 X88.295 Y71.704 E.01826
G1 X88.534 Y71.494 E.00998
G1 X89.03 Y71.188 E.01827
G1 X89.323 Y71.07 E.0099
G1 X89.874 Y70.95 E.01768
G1 X90.415 Y70.939 E.01697
G1 X91.049 Y71.098 E.02049
G1 X91.368 Y71.211 E.01061
G1 X91.97 Y71.639 E.02316
G1 X92.19 Y71.87 E.01
G1 X92.516 Y72.352 E.01824
G1 X92.647 Y72.642 E.00998
G1 X92.793 Y73.203 E.01818
G1 X92.821 Y73.52 E.00998
G1 X92.772 Y74.102 E.01831
G1 X92.691 Y74.411 E.01002
G1 X92.451 Y74.941 E.01824
G1 X92.273 Y75.205 E.00998
G1 X91.87 Y75.626 E.01827
G1 X91.614 Y75.815 E.00998
G1 X91.094 Y76.077 E.01826
G1 X91.001 Y76.11 E.00309
G1 X91.001 Y76.11 F7200
G1 X90.835 Y75.772
G1 F1800
G1 X90.791 Y75.788 E.00147
G1 X90.165 Y75.87 E.0198
G1 X89.714 Y75.806 E.01428
G1 X89.227 Y75.668 E.01587
G1 X88.732 Y75.363 E.01823
G1 X88.588 Y75.237 E.006
G1 X88.223 Y74.784 E.01824
G1 X88.129 Y74.617 E.00601
G1 X87.935 Y74.068 E.01826
G1 X87.903 Y73.88 E.00598
G1 X87.903 Y73.298 E.01825
G1 X88.062 Y72.752 E.01783
G1 X88.222 Y72.394 E.01229
G1 X88.588 Y71.941 E.01826
G1 X88.732 Y71.815 E.006
G1 X89.227 Y71.509 E.01825
G1 X89.779 Y71.356 E.01796
G1 X90.094 Y71.305 E.01001
G1 X90.55 Y71.34 E.01434
G1 X91.107 Y71.51 E.01826
G1 X91.277 Y71.597 E.00599
G1 X91.745 Y71.943 E.01825
G1 X91.878 Y72.081 E.00601
G1 X92.204 Y72.563 E.01824
G1 X92.282 Y72.737 E.00598
G1 X92.429 Y73.298 E.01818
G1 X92.43 Y73.663 E.01144
G1 X92.368 Y74.204 E.01707
G1 X92.108 Y74.786 E.01999
G1 X92.001 Y74.944 E.00598
G1 X91.598 Y75.365 E.01827
G1 X91.444 Y75.478 E.00599
G1 X90.925 Y75.74 E.01823
G1 X90.891 Y75.752 E.00113
G1 X90.891 Y75.752 F7200
G1 X90.724 Y75.412
;TYPE:External perimeter
G1 F1800
G1 X90.71 Y75.419 E.00049
G1 X90.117 Y75.496 E.01875
G1 X89.484 Y75.371 E.02023
G1 X88.929 Y75.042 E.02023
G1 X88.516 Y74.547 E.02021
G1 X88.291 Y73.943 E.02021
G1 X88.28 Y73.298 E.02023
G1 X88.485 Y72.686 E.02024
G1 X88.882 Y72.178 E.02021
G1 X89.484 Y71.807 E.02217
G1 X90.035 Y71.687 E.01768
G1 X90.44 Y71.701 E.01271
G1 X90.996 Y71.871 E.01823
G1 X91.521 Y72.246 E.02023
G1 X91.891 Y72.774 E.02022
G1 X92.069 Y73.457 E.02213
G1 X92.02 Y74.039 E.01831
G1 X91.764 Y74.631 E.02022
G1 X91.326 Y75.104 E.02021
G1 X90.778 Y75.385 E.01931
G1 E-2.8 F2400
;WIPE_START
G1 F5760
G1 X90.724 Y75.412 E-.0239
G1 X90.71 Y75.419 E-.0062
G1 X90.117 Y75.496 E-.2367
G1 X89.484 Y75.371 E-.2554
G1 X88.929 Y75.042 E-.25539
G1 X88.516 Y74.547 E-.25518
G1 X88.368 Y74.151 E-.16723
;WIPE_END
G1 X109.553 Y72.537 F7200
G1 E4 F2400
;TYPE:Perimeter
G1 F1800
G1 X109.526 Y72.38 E.00499
G1 X109.526 Y71.798 E.01825
G1 X109.58 Y71.484 E.00999
G1 X109.774 Y70.935 E.01826
G1 X109.929 Y70.657 E.00998
G1 X110.295 Y70.204 E.01826
G1 X110.534 Y69.994 E.00998
G1 X111.03 Y69.688 E.01827
G1 X111.323 Y69.57 E.0099
G1 X111.874 Y69.45 E.01768
G1 X112.415 Y69.439 E.01697
G1 X113.217 Y69.65 E.026
G1 X113.502 Y69.793 E.01
G1 X113.97 Y70.139 E.01825
G1 X114.19 Y70.37 E.01
G1 X114.516 Y70.852 E.01824
G1 X114.647 Y71.142 E.00998
G1 X114.793 Y71.703 E.01818
G1 X114.821 Y72.02 E.00998
G1 X114.772 Y72.602 E.01831
G1 X114.691 Y72.911 E.01002
G1 X114.451 Y73.441 E.01824
