; generated by PrusaSlicer 2.7.4+win64 on 2024-07-21 at 09:58:22 UTC

; 

; external perimeters extrusion width = 0.42mm
; perimeters extrusion width = 0.44mm
; infill extrusion width = 0.44mm
; solid infill extrusion width = 0.44mm
; top infill extrusion width = 0.40mm
; support material extrusion width = 0.36mm
; first layer extrusion width = 0.42mm

; external perimeters extrusion width = 0.42mm
; perimeters extrusion width = 0.44mm
; infill extrusion width = 0.44mm
; solid infill extrusion width = 0.44mm
; top infill extrusion width = 0.40mm
; support material extrusion width = 0.36mm
; first layer extrusion width = 0.42mm

M201 X500 Y500 Z100 E5000 ; sets maximum accelerations, mm/sec^2
M203 X500 Y500 Z10 E60 ; sets maximum feedrates, mm / sec
M204 S500 T1000 ; sets acceleration (S) and retract acceleration (R), mm/sec^2
M205 X8.00 Y8.00 Z0.40 E5.00 ; sets the jerk limits, mm/sec
M205 S0 T0 ; sets the minimum extruding and travel feed rate, mm/sec

; printing object 对焦框10080.STL id:0 copy 0
; stop printing object 对焦框10080.STL id:0 copy 0
; printing object 对焦玻璃压板.STL id:1 copy 0
; stop printing object 对焦玻璃压板.STL id:1 copy 0
; printing object 对焦玻璃压板.STL id:1 copy 1
; stop printing object 对焦玻璃压板.STL id:1 copy 1

;TYPE:Custom
G90 ; use absolute coordinates
M83 ; extruder relative mode
M104 S150 ; set temporary nozzle temp to prevent oozing during homing
M140 S60 ; set final bed temp
G4 S30 ; allow partial nozzle warmup
G28 ; home all axis
G1 Z50 F240
G1 X2.0 Y10 F3000
M104 S205 ; set final nozzle temp
M190 S60 ; wait for bed temp to stabilize
M109 S205 ; wait for nozzle temp to stabilize
G1 Z0.28 F240
G92 E0
G1 X2.0 Y140 E10 F1500 ; prime the nozzle
G1 X2.3 Y140 F5000
G92 E0
G1 X2.3 Y10 E10 F1200 ; prime the nozzle
G92 E0
G21 ; set units to millimeters
G90 ; use absolute coordinates
M83 ; use relative distances for extrusion
; Filament gcode
M107
;LAYER_CHANGE
;Z:0.2
;HEIGHT:0.2
G1 E-12.5 F2700
G1 Z.2 F9000
G1 X57.612 Y63.132
G1 Z.2
G1 E12.5 F2400
M204 S500
;TYPE:Skirt/Brim
;WIDTH:0.42
G1 F1200
G1 X59.562 Y62.171 E.06816
G1 X108.7 Y55.746 E1.5538
G1 X109.708 Y55.655 E.03173
G1 X111.155 Y55.73 E.04543
G1 X160.438 Y62.171 E1.55838
G1 X162.388 Y63.132 E.06816
G1 X167.388 Y68.132 E.22171
G1 X168.273 Y69.688 E.05613
G1 X178.12 Y108.461 E1.25429
G1 X178.36 Y110.107 E.05215
G1 X178.314 Y111.489 E.04336
G1 X178.12 Y112.578 E.03468
G1 X168.273 Y151.351 E1.25429
G1 X167.388 Y152.908 E.05615
G1 X162.388 Y157.908 E.22171
G1 X160.438 Y158.868 E.06815
G1 X110.292 Y165.384 E1.58551
G1 X108.7 Y165.293 E.05
G1 X59.562 Y158.868 E1.5538
G1 X57.612 Y157.908 E.06815
G1 X52.612 Y152.908 E.22171
G1 X51.727 Y151.351 E.05615
G1 X41.88 Y112.578 E1.25429
G1 X41.643 Y110.96 E.05127
G1 X41.686 Y109.551 E.0442
G1 X41.877 Y108.477 E.0342
G1 X51.727 Y69.689 E1.25477
G1 X52.612 Y68.132 E.05615
G1 X57.57 Y63.174 E.21985
G1 E-8.75 F2700
;WIPE_START
G1 F7200
G1 X57.612 Y63.132 E-.02116
G1 X59.562 Y62.171 E-.77447
G1 X67.785 Y61.096 E-2.95437
;WIPE_END
; printing object 对焦玻璃压板.STL id:1 copy 1
G1 X95.445 Y95.765 F9000
G1 E12.5 F2400
;TYPE:Perimeter
;WIDTH:0.419999
G1 F1200
G1 X95.653 Y95.748 E.00654
G1 X96.85 Y95.543 E.03808
G1 X98.017 Y95.209 E.03806
G1 X99.047 Y94.792 E.03484
G1 X100.207 Y94.167 E.04131
G1 X101.203 Y93.473 E.03806
G1 X102.117 Y92.673 E.03808
G1 X102.938 Y91.779 E.03806
G1 X103.656 Y90.799 E.03809
G1 X104.215 Y89.839 E.03483
G1 X104.75 Y88.635 E.04131
G1 X105.112 Y87.476 E.03807
G1 X105.345 Y86.295 E.03774
G1 X105.525 Y84.488 E.05694
G1 X105.696 Y83.883 E.01971
G1 X105.966 Y83.307 E.01995
G1 X106.324 Y82.783 E.0199
G1 X106.763 Y82.323 E.01994
G1 X107.257 Y81.949 E.01943
G1 X107.834 Y81.642 E.02049
G1 X108.435 Y81.44 E.01988
G1 X109.063 Y81.338 E.01995
G1 X109.698 Y81.338 E.01991
G1 X110.326 Y81.44 E.01995
G1 X110.928 Y81.642 E.01991
G1 X111.491 Y81.939 E.01996
G1 X111.998 Y82.323 E.01994
G1 X112.436 Y82.783 E.01992
G1 X112.795 Y83.307 E.01992
G1 X113.065 Y83.883 E.01995
G1 X113.236 Y84.488 E.01971
G1 X113.43 Y86.387 E.05985
G1 X113.674 Y87.576 E.03806
G1 X114.088 Y88.822 E.04117
G1 X114.522 Y89.797 E.03346
G1 X115.162 Y90.886 E.0396
G1 X115.823 Y91.779 E.03484
G1 X116.644 Y92.673 E.03806
G1 X117.64 Y93.536 E.04132
G1 X118.554 Y94.167 E.03482
G1 X119.62 Y94.748 E.03807
G1 X120.842 Y95.242 E.04133
G1 X122.007 Y95.565 E.03791
G1 X123.108 Y95.748 E.03499
G1 X123.316 Y95.765 E.00654
G1 X123.316 Y95.87 E.00329
G1 X123.316 Y98.693 E.08851
G1 X95.445 Y98.693 E.87387
G1 X95.445 Y95.825 E.08992
G1 X95.445 Y95.825 F9000
G1 X95.067 Y95.408
G1 F1200
G1 X95.591 Y95.376 E.01646
G1 X96.747 Y95.18 E.03676
G1 X97.875 Y94.859 E.03677
G1 X98.905 Y94.442 E.03484
G1 X99.993 Y93.857 E.03873
G1 X100.956 Y93.188 E.03677
G1 X101.84 Y92.417 E.03678
G1 X102.635 Y91.554 E.03679
G1 X103.33 Y90.61 E.03675
G1 X103.89 Y89.65 E.03485
G1 X104.391 Y88.521 E.03873
G1 X104.743 Y87.402 E.03678
G1 X104.97 Y86.258 E.03657
G1 X105.153 Y84.417 E.05801
G1 X105.342 Y83.751 E.02171
G1 X105.637 Y83.12 E.02184
G1 X106.03 Y82.545 E.02184
G1 X106.511 Y82.04 E.02187
G1 X107.053 Y81.631 E.02129
G1 X107.685 Y81.294 E.02246
G1 X108.344 Y81.073 E.02179
G1 X109.032 Y80.961 E.02186
G1 X109.729 Y80.961 E.02185
G1 X110.417 Y81.073 E.02186
G1 X111.077 Y81.295 E.02183
G1 X111.694 Y81.62 E.02187
G1 X112.249 Y82.04 E.02182
G1 X112.73 Y82.545 E.02187
G1 X113.124 Y83.12 E.02186
G1 X113.419 Y83.751 E.02184
G1 X113.608 Y84.417 E.02171
G1 X113.799 Y86.313 E.05975
G1 X114.034 Y87.462 E.03677
G1 X114.432 Y88.669 E.03985
G1 X114.857 Y89.624 E.03277
G1 X115.465 Y90.661 E.03769
G1 X116.165 Y91.602 E.03677
G1 X116.92 Y92.417 E.03483
G1 X117.854 Y93.226 E.03874
G1 X118.821 Y93.889 E.03676
G1 X119.799 Y94.416 E.03483
G1 X120.885 Y94.859 E.03677
G1 X122.013 Y95.18 E.03677
G1 X123.17 Y95.376 E.03679
G1 X123.693 Y95.408 E.01643
G1 X123.693 Y95.87 E.01449
G1 X123.693 Y99.07 E.10033
G1 X95.067 Y99.07 E.89755
G1 X95.067 Y95.468 E.11294
G1 X95.067 Y95.468 F9000
G1 X94.69 Y95.051
;TYPE:External perimeter
G1 F1200
G1 X95.529 Y95.004 E.02635
G1 X96.645 Y94.817 E.03548
G1 X97.714 Y94.516 E.03482
G1 X98.764 Y94.093 E.03549
G1 X99.778 Y93.546 E.03612
G1 X100.709 Y92.903 E.03548
G1 X101.564 Y92.161 E.0355
G1 X102.332 Y91.33 E.03548
G1 X103.004 Y90.42 E.03547
G1 X103.564 Y89.46 E.03485
G1 X104.031 Y88.407 E.03612
G1 X104.373 Y87.328 E.03549
G1 X104.594 Y86.22 E.03542
G1 X104.781 Y84.346 E.05905
G1 X104.987 Y83.619 E.02369
G1 X105.308 Y82.932 E.02378
G1 X105.736 Y82.306 E.02378
G1 X106.259 Y81.758 E.02375
G1 X106.849 Y81.312 E.02319
G1 X107.535 Y80.947 E.02436
G1 X108.253 Y80.706 E.02375
G1 X109.001 Y80.584 E.02376
G1 X109.759 Y80.584 E.02377
G1 X110.507 Y80.706 E.02376
G1 X111.226 Y80.947 E.02378
G1 X111.897 Y81.301 E.02379
G1 X112.501 Y81.758 E.02375
G1 X113.024 Y82.306 E.02375
G1 X113.452 Y82.932 E.02378
G1 X113.774 Y83.619 E.02379
G1 X113.98 Y84.346 E.02369
G1 X114.169 Y86.239 E.05965
G1 X114.393 Y87.348 E.03547
G1 X114.737 Y88.426 E.03548
G1 X115.188 Y89.441 E.03482
G1 X115.768 Y90.437 E.03614
G1 X116.429 Y91.33 E.03484
G1 X117.197 Y92.161 E.03548
G1 X118.052 Y92.903 E.0355
G1 X118.982 Y93.546 E.03545
G1 X119.997 Y94.093 E.03615
G1 X121.046 Y94.516 E.03546
G1 X122.116 Y94.817 E.03485
G1 X123.232 Y95.004 E.03548
G1 X124.07 Y95.051 E.02632
G1 X124.07 Y95.87 E.02568
G1 X124.07 Y99.447 E.11215
G1 X94.69 Y99.447 E.92119
G1 X94.69 Y95.111 E.13595
G1 E-8.75 F2700
;WIPE_START
G1 F7200
G1 X94.69 Y95.051 E-.02138
G1 X95.529 Y95.004 E-.29936
G1 X96.645 Y94.817 E-.40312
G1 X97.714 Y94.516 E-.39564
G1 X98.764 Y94.093 E-.40328
G1 X99.778 Y93.546 E-.41045
G1 X100.709 Y92.903 E-.40308
G1 X101.564 Y92.161 E-.4033
G1 X102.332 Y91.33 E-.40311
G1 X103.004 Y90.42 E-.403
G1 X103.293 Y89.925 E-.20428
;WIPE_END
G1 X106.752 Y85.476 F9000
G1 E12.5 F2400
;TYPE:Perimeter
G1 F1200
G1 X106.755 Y84.855 E.01947
G1 X106.822 Y84.543 E.01001
G1 X107.039 Y84.003 E.01825
G1 X107.206 Y83.732 E.00998
G1 X107.591 Y83.295 E.01826
G1 X107.916 Y83.052 E.01272
G1 X108.364 Y82.802 E.01609
G1 X108.7 Y82.696 E.01105
G1 X109.201 Y82.608 E.01595
G1 X109.742 Y82.62 E.01697
G1 X110.461 Y82.839 E.02357
G1 X110.812 Y83.021 E.0124
G1 X111.265 Y83.386 E.01824
G1 X111.476 Y83.625 E.01
G1 X111.781 Y84.121 E.01826
G1 X111.9 Y84.417 E.01
G1 X112.022 Y84.986 E.01825
G1 X112.036 Y85.304 E.00998
G1 X111.962 Y85.881 E.01824
G1 X111.869 Y86.186 E.01
G1 X111.607 Y86.706 E.01826
G1 X111.384 Y86.993 E.0114
G1 X110.997 Y87.365 E.01683
G1 X110.733 Y87.543 E.00998
G1 X110.202 Y87.783 E.01827
G1 X109.933 Y87.859 E.00876
G1 X109.38 Y87.922 E.01745
G1 X109.167 Y87.902 E.00671
G1 X108.647 Y87.818 E.01652
G1 X108.028 Y87.543 E.02124
G1 X107.764 Y87.365 E.00998
G1 X107.344 Y86.962 E.01825
G1 X107.154 Y86.706 E.01
G1 X106.89 Y86.181 E.01843
G1 X106.751 Y85.675 E.01645
G1 X106.752 Y85.536 E.00436
G1 X106.752 Y85.536 F9000
G1 X107.11 Y85.463
G1 F1200
G1 X107.132 Y84.871 E.01857
G1 X107.25 Y84.49 E.01251
G1 X107.49 Y83.981 E.01764
G1 X107.874 Y83.544 E.01824
G1 X108.1 Y83.381 E.00874
G1 X108.541 Y83.135 E.01583
G1 X109.266 Y82.98 E.02325
G1 X109.762 Y83.002 E.01557
G1 X110.335 Y83.195 E.01896
G1 X110.575 Y83.314 E.0084
G1 X111.028 Y83.68 E.01826
G1 X111.155 Y83.823 E.006
G1 X111.46 Y84.319 E.01826
G1 X111.602 Y84.824 E.01645
G1 X111.662 Y85.256 E.01368
G1 X111.588 Y85.833 E.01824
G1 X111.532 Y86.016 E.006
G1 X111.27 Y86.536 E.01826
G1 X111.123 Y86.721 E.00741
G1 X110.736 Y87.092 E.01681
G1 X110.578 Y87.199 E.00598
G1 X110.047 Y87.439 E.01827
G1 X109.546 Y87.528 E.01595
G1 X109.215 Y87.528 E.01038
G1 X108.714 Y87.439 E.01595
G1 X108.183 Y87.199 E.01827
G1 X108.025 Y87.092 E.00598
G1 X107.605 Y86.69 E.01823
G1 X107.491 Y86.536 E.00601
G1 X107.227 Y86.013 E.01837
G1 X107.109 Y85.523 E.0158
G1 X107.109 Y85.523 F9000
G1 X107.484 Y85.468
;TYPE:External perimeter
G1 F1200
G1 X107.509 Y84.887 E.01823
G1 X107.739 Y84.284 E.02024
G1 X108.157 Y83.793 E.02022
G1 X108.715 Y83.469 E.02023
G1 X109.33 Y83.351 E.01963
G1 X109.734 Y83.382 E.0127
G1 X110.283 Y83.576 E.01826
G1 X110.833 Y84.021 E.02218
G1 X111.139 Y84.516 E.01825
G1 X111.285 Y85.145 E.02025
G1 X111.214 Y85.786 E.02022
G1 X110.933 Y86.366 E.02021
G1 X110.475 Y86.82 E.02022
G1 X109.891 Y87.096 E.02025
G1 X109.38 Y87.168 E.01618
G1 X109.263 Y87.154 E.00369
G1 X108.869 Y87.096 E.01249
G1 X108.338 Y86.856 E.01827
G1 X107.898 Y86.449 E.01879
G1 X107.566 Y85.847 E.02156
G1 X107.497 Y85.527 E.01026
G1 E-8.75 F2700
;WIPE_START
G1 F7200
G1 X107.484 Y85.468 E-.02152
G1 X107.509 Y84.887 E-.20717
G1 X107.739 Y84.284 E-.22991
G1 X108.157 Y83.793 E-.22972
G1 X108.715 Y83.469 E-.22987
G1 X109.33 Y83.351 E-.22309
G1 X109.734 Y83.382 E-.14435
G1 X110.283 Y83.576 E-.20743
G1 X110.833 Y84.021 E-.25204
G1 X111.139 Y84.516 E-.20732
G1 X111.285 Y85.145 E-.23004
G1 X111.214 Y85.786 E-.22975
G1 X110.933 Y86.366 E-.2296
G1 X110.475 Y86.82 E-.22974
G1 X109.891 Y87.096 E-.23011
G1 X109.38 Y87.168 E-.18384
G1 X109.263 Y87.154 E-.04198
G1 X108.869 Y87.096 E-.14188
G1 X108.338 Y86.856 E-.20759
G1 X108.188 Y86.717 E-.07305
;WIPE_END
G1 X112.742 Y83.478 F9000
G1 E12.5 F2400
;TYPE:Solid infill
;WIDTH:0.420537
G1 F1200
G1 X111.804 Y82.54 E.04165
G1 X111.334 Y82.185 E.01849
G1 X110.814 Y81.91 E.01847
G1 X110.552 Y81.823 E.00867
G1 X112.822 Y84.093 E.1008
G1 X112.95 Y84.542 E.01466
G1 X112.974 Y84.778 E.00745
G1 X109.853 Y81.657 E.13859
G1 X109.675 Y81.628 E.00566
G1 X109.29 Y81.628 E.01209
G1 X110.049 Y82.387 E.0337
G1 X109.87 Y82.343 E.00579
G1 X109.437 Y82.309 E.01364
G1 X108.802 Y81.675 E.02817
G1 X108.505 Y81.723 E.00945
G1 X108.364 Y81.77 E.00467
G1 X108.954 Y82.36 E.0262
G1 X108.506 Y82.446 E.01432
G1 X107.964 Y81.905 E.02405
G1 X107.949 Y81.91 E.0005
G1 X107.614 Y82.088 E.01191
G1 X108.127 Y82.601 E.02278
G1 X107.784 Y82.793 E.01234
G1 X107.284 Y82.293 E.0222
G1 X106.98 Y82.523 E.01197
G1 X107.469 Y83.012 E.02171
G1 X107.212 Y83.288 E.01184
G1 X106.716 Y82.793 E.022
G1 X106.551 Y82.966 E.00751
G1 X106.471 Y83.082 E.00442
G1 X106.964 Y83.575 E.02189
G1 X106.799 Y83.828 E.00948
G1 X106.766 Y83.911 E.0028
G1 X106.255 Y83.399 E.02271
G1 X106.219 Y83.452 E.00201
G1 X106.076 Y83.755 E.01052
G1 X106.615 Y84.293 E.02391
G1 X106.51 Y84.559 E.00898
G1 X106.487 Y84.7 E.00449
G1 X105.925 Y84.138 E.02496
G1 X105.81 Y84.556 E.01361
G1 X106.454 Y85.2 E.0286
G1 X106.442 Y85.57 E.01162
G1 X106.485 Y85.766 E.0063
G1 X105.605 Y84.886 E.03908
G1 E-8.75 F2700
;WIPE_START
G1 F7200
G1 X106.485 Y85.766 E-.44336
G1 X106.442 Y85.57 E-.07149
G1 X106.454 Y85.2 E-.13188
G1 X105.81 Y84.556 E-.32446
G1 X105.925 Y84.138 E-.15445
G1 X106.487 Y84.7 E-.28314
G1 X106.51 Y84.559 E-.0509
G1 X106.615 Y84.293 E-.10188
G1 X106.076 Y83.755 E-.2713
G1 X106.219 Y83.452 E-.11936
G1 X106.255 Y83.399 E-.02283
G1 X106.766 Y83.911 E-.2577
G1 X106.799 Y83.828 E-.03182
G1 X106.964 Y83.575 E-.10761
G1 X106.471 Y83.082 E-.24838
G1 X106.551 Y82.966 E-.0502
G1 X106.716 Y82.793 E-.08517
G1 X107.212 Y83.288 E-.24964
G1 X107.469 Y83.012 E-.13435
G1 X106.98 Y82.523 E-.24636
G1 X107.284 Y82.293 E-.1358
G1 X107.737 Y82.745 E-.22792
;WIPE_END
G1 X111.999 Y84.337 F9000
G1 E12.5 F2400
G1 F1200
G1 X113.035 Y85.373 E.046
G1 X113.096 Y85.968 E.01878
G1 X112.33 Y85.202 E.03401
G1 X112.279 Y85.685 E.01525
G1 X113.173 Y86.579 E.0397
G1 X113.31 Y87.25 E.0215
G1 X112.196 Y86.136 E.04947
G1 X112.03 Y86.504 E.01268
G1 X113.495 Y87.97 E.06508
G1 X113.746 Y88.755 E.02588
G1 X111.851 Y86.86 E.08415
G1 X111.697 Y87.09 E.00869
G1 X111.621 Y87.163 E.00331
G1 X114.557 Y90.1 E.13039
G1 E-8.75 F2700
;WIPE_START
G1 F7200
G1 X111.621 Y87.163 E-1.47945
G1 X111.697 Y87.09 E-.03754
G1 X111.851 Y86.86 E-.09861
G1 X113.746 Y88.755 E-.95473
G1 X113.495 Y87.97 E-.2936
G1 X112.03 Y86.504 E-.73834
G1 X112.196 Y86.136 E-.14382
G1 X112.204 Y86.144 E-.00391
;WIPE_END
G1 X122.334 Y95.741 F9000
G1 E12.5 F2400
G1 F1200
G1 X123.026 Y96.432 E.03071
G1 X123.026 Y96.966 E.01677
G1 X121.893 Y95.834 E.05029
G1 X121.155 Y95.63 E.02404
G1 X123.026 Y97.5 E.08306
G1 X123.026 Y98.034 E.01677
G1 X120.349 Y95.357 E.11887
G1 X119.6 Y95.059 E.02531
G1 X119.422 Y94.964 E.00634
G1 X122.86 Y98.403 E.15269
G1 X122.326 Y98.403 E.01677
G1 X118.178 Y94.255 E.18419
G1 X117.471 Y93.772 E.02688
G1 X116.524 Y92.961 E.03915
G1 X115.592 Y91.956 E.04304
G1 X114.832 Y90.909 E.04062
G1 X111.35 Y87.426 E.15464
G1 X111.192 Y87.579 E.00691
G1 X111.061 Y87.671 E.00503
G1 X121.792 Y98.403 E.47653
G1 X121.258 Y98.403 E.01677
G1 X110.719 Y87.864 E.46798
G1 X110.346 Y88.025 E.01276
G1 X120.724 Y98.403 E.46083
G1 X120.19 Y98.403 E.01677
G1 X109.929 Y88.142 E.45564
G1 X109.456 Y88.203 E.01497
G1 X119.656 Y98.403 E.45293
G1 X119.122 Y98.403 E.01677
G1 X108.663 Y87.944 E.46443
G1 E-8.75 F2700
;WIPE_START
G1 F7200
G1 X116.106 Y95.387 E-3.75
;WIPE_END
G1 X105.556 Y85.37 F9000
G1 E12.5 F2400
G1 F1200
G1 X118.588 Y98.403 E.57871
G1 X118.054 Y98.403 E.01677
G1 X105.661 Y86.009 E.55033
G1 X105.606 Y86.489 E.01517
G1 X117.52 Y98.403 E.52904
G1 X116.986 Y98.403 E.01677
G1 X105.516 Y86.933 E.50932
G1 X105.425 Y87.376 E.0142
G1 X116.452 Y98.403 E.48965
G1 X115.918 Y98.403 E.01677
G1 X105.319 Y87.803 E.47067
G1 X105.189 Y88.208 E.01336
G1 X115.384 Y98.403 E.45271
G1 X114.85 Y98.403 E.01677
G1 X105.06 Y88.613 E.43472
G1 X104.911 Y88.998 E.01296
G1 X114.316 Y98.403 E.41763
G1 X113.782 Y98.403 E.01677
G1 X104.747 Y89.368 E.4012
G1 X104.582 Y89.737 E.01269
G1 X113.248 Y98.403 E.38481
G1 X112.714 Y98.403 E.01677
G1 X104.403 Y90.092 E.36905
G1 X104.207 Y90.43 E.01227
G1 X112.18 Y98.403 E.35404
G1 X111.646 Y98.403 E.01677
G1 X104.01 Y90.768 E.33905
G1 X103.801 Y91.092 E.01211
G1 X111.112 Y98.403 E.32464
G1 X110.578 Y98.403 E.01677
G1 X103.575 Y91.4 E.31097
G1 X103.349 Y91.708 E.012
G1 X110.044 Y98.403 E.29729
G1 X109.51 Y98.403 E.01677
G1 X103.118 Y92.011 E.28384
G1 X102.862 Y92.29 E.01189
G1 X108.976 Y98.403 E.27147
G1 X108.442 Y98.403 E.01677
G1 X102.607 Y92.568 E.2591
G1 X102.352 Y92.847 E.01187
G1 X107.908 Y98.403 E.24671
G1 X107.373 Y98.403 E.0168
G1 X102.069 Y93.098 E.23555
G1 X101.782 Y93.346 E.01191
G1 X106.839 Y98.403 E.22456
G1 X106.305 Y98.403 E.01677
G1 X101.496 Y93.594 E.21354
G1 X101.201 Y93.833 E.01192
G1 X105.771 Y98.403 E.20293
G1 X105.237 Y98.403 E.01677
G1 X100.884 Y94.049 E.19332
