; generated by PrusaSlicer 2.7.4+win64 on 2024-07-06 at 14:53:43 UTC

; 

; external perimeters extrusion width = 0.42mm
; perimeters extrusion width = 0.44mm
; infill extrusion width = 0.44mm
; solid infill extrusion width = 0.44mm
; top infill extrusion width = 0.40mm
; first layer extrusion width = 0.42mm

; external perimeters extrusion width = 0.42mm
; perimeters extrusion width = 0.44mm
; infill extrusion width = 0.44mm
; solid infill extrusion width = 0.44mm
; top infill extrusion width = 0.40mm
; first layer extrusion width = 0.42mm

M201 X500 Y500 Z100 E5000 ; sets maximum accelerations, mm/sec^2
M203 X500 Y500 Z10 E60 ; sets maximum feedrates, mm / sec
M204 S500 T1000 ; sets acceleration (S) and retract acceleration (R), mm/sec^2
M205 X8.00 Y8.00 Z0.40 E5.00 ; sets the jerk limits, mm/sec
M205 S0 T0 ; sets the minimum extruding and travel feed rate, mm/sec

; printing object 55mm_Spring.stl id:0 copy 0
; stop printing object 55mm_Spring.stl id:0 copy 0
; printing object 55mm_Body.stl id:1 copy 0
; stop printing object 55mm_Body.stl id:1 copy 0

;TYPE:Custom
G90 ; use absolute coordinates
M83 ; extruder relative mode
M104 S150 ; set temporary nozzle temp to prevent oozing during homing
M140 S60 ; set final bed temp
G4 S30 ; allow partial nozzle warmup
G28 ; home all axis
G1 Z50 F240
G1 X2.0 Y10 F3000
M104 S205 ; set final nozzle temp
M190 S60 ; wait for bed temp to stabilize
M109 S205 ; wait for nozzle temp to stabilize
G1 Z0.28 F240
G92 E0
G1 X2.0 Y140 E10 F1500 ; prime the nozzle
G1 X2.3 Y140 F5000
G92 E0
G1 X2.3 Y10 E10 F1200 ; prime the nozzle
G92 E0
G21 ; set units to millimeters
G90 ; use absolute coordinates
M83 ; use relative distances for extrusion
; Filament gcode
M107
;LAYER_CHANGE
;Z:0.2
;HEIGHT:0.2
G1 E-12.5 F2700
G1 Z.2 F9000
G1 X82.195 Y61.387
G1 Z.2
G1 E12.5 F2400
M204 S500
;TYPE:Skirt/Brim
;WIDTH:0.42
G1 F1200
G1 X83.318 Y60.205 E.05112
G1 X85.132 Y59.676 E.05925
G1 X134.868 Y59.676 E1.55944
G1 X136.451 Y60.07 E.05115
G1 X137.805 Y61.387 E.05922
G1 X137.907 Y61.567 E.00649
G1 X139.314 Y64.394 E.09901
G1 X140.479 Y67.483 E.10351
G1 X141.125 Y69.807 E.07563
G1 X141.632 Y72.401 E.08287
G1 X141.881 Y74.494 E.06609
G1 X141.996 Y76.963 E.0775
G1 X141.938 Y79.166 E.0691
G1 X137.63 Y143.782 E2.03049
G1 X137.179 Y145.255 E.0483
G1 X135.802 Y147.381 E.07942
G1 X133.632 Y150.099 E.10905
G1 X132.24 Y151.563 E.06334
G1 X129.634 Y153.864 E.109
G1 X128.008 Y155.066 E.0634
G1 X125.045 Y156.882 E.10896
G1 X123.235 Y157.786 E.06344
G1 X120.004 Y159.061 E.10891
G1 X118.063 Y159.639 E.0635
G1 X114.663 Y160.338 E.10883
G1 X112.649 Y160.572 E.06357
G1 X109.181 Y160.672 E.10878
G1 X107.157 Y160.555 E.06357
G1 X103.722 Y160.055 E.10884
G1 X101.751 Y159.59 E.0635
G1 X98.452 Y158.503 E.10891
G1 X96.592 Y157.705 E.06346
G1 X93.53 Y156.064 E.10893
G1 X90.925 Y154.285 E.09891
G1 X88.962 Y152.687 E.07936
G1 X86.493 Y150.238 E.10904
G1 X85.304 Y148.843 E.05747
G1 X84.198 Y147.381 E.05748
G1 X82.821 Y145.255 E.07942
G1 X82.37 Y143.782 E.0483
G1 X78.019 Y78.254 E2.05911
G1 X78.088 Y74.89 E.1055
G1 X78.437 Y71.976 E.09202
G1 X79.05 Y69.101 E.09217
G1 X80.076 Y65.892 E.10563
G1 X81.138 Y63.415 E.0845
G1 X82.167 Y61.441 E.0698
G1 E-8.75 F2700
;WIPE_START
G1 F7200
G1 X82.195 Y61.387 E-.02167
G1 X83.318 Y60.205 E-.58084
G1 X85.132 Y59.676 E-.67316
G1 X92.077 Y59.676 E-2.47433
;WIPE_END
; printing object 55mm_Spring.stl id:0 copy 0
G1 X85.576 Y64.48 F9000
G1 E12.5 F2400
;TYPE:Perimeter
;WIDTH:0.419999
G1 F1200
G1 X93.341 Y64.48 E.24347
G1 X93.384 Y64.529 E.00204
G1 X93.512 Y64.538 E.00402
G1 X101.72 Y64.538 E.25736
G1 X102.281 Y64.57 E.01762
G1 X102.805 Y64.659 E.01666
G1 X103.315 Y64.806 E.01664
G1 X103.807 Y65.009 E.01669
G1 X104.272 Y65.266 E.01666
G1 X104.705 Y65.574 E.01666
G1 X105.101 Y65.928 E.01665
G1 X105.456 Y66.324 E.01668
G1 X105.763 Y66.758 E.01667
G1 X106.02 Y67.223 E.01666
G1 X106.224 Y67.714 E.01667
G1 X106.371 Y68.225 E.01667
G1 X106.46 Y68.749 E.01666
G1 X106.491 Y69.309 E.01759
G1 X106.491 Y87.097 E.55773
G1 X106.362 Y87.645 E.01765
G1 X106.298 Y88.3 E.02063
G1 X106.359 Y88.992 E.02178
G1 X106.518 Y89.593 E.01949
G1 X106.829 Y90.238 E.02245
G1 X107.176 Y90.727 E.0188
G1 X107.711 Y91.237 E.02318
G1 X108.188 Y91.562 E.0181
G1 X108.888 Y91.859 E.02384
G1 X109.427 Y91.991 E.0174
G1 X110.084 Y92.035 E.02065
G1 X110.603 Y91.988 E.01634
G1 X111.112 Y91.859 E.01646
G1 X111.503 Y91.71 E.01312
G1 X111.957 Y91.477 E.016
G1 X112.482 Y91.08 E.02064
G1 X112.93 Y90.597 E.02066
G1 X113.284 Y90.042 E.02064
G1 X113.535 Y89.434 E.02062
G1 X113.674 Y88.79 E.02066
G1 X113.699 Y88.149 E.02011
G1 X113.638 Y87.645 E.01592
G1 X113.509 Y87.175 E.01528
G1 X113.509 Y69.309 E.56017
G1 X113.54 Y68.749 E.01759
G1 X113.629 Y68.225 E.01666
G1 X113.776 Y67.714 E.01667
G1 X113.98 Y67.223 E.01667
G1 X114.237 Y66.758 E.01666
G1 X114.544 Y66.324 E.01667
G1 X114.899 Y65.928 E.01668
G1 X115.295 Y65.574 E.01665
G1 X115.728 Y65.266 E.01666
G1 X116.194 Y65.009 E.01669
G1 X116.685 Y64.806 E.01666
G1 X117.195 Y64.659 E.01664
G1 X117.719 Y64.57 E.01666
G1 X118.28 Y64.538 E.01762
G1 X125.878 Y64.538 E.23823
G1 X126.616 Y64.529 E.02314
G1 X126.659 Y64.48 E.00204
G1 X134.424 Y64.48 E.24347
G1 X134.694 Y64.993 E.01818
G1 X135.312 Y66.328 E.04613
G1 X135.857 Y67.694 E.04611
G1 X136.328 Y69.087 E.04611
G1 X136.725 Y70.503 E.04611
G1 X137.044 Y71.935 E.046
G1 X137.334 Y73.734 E.05713
G1 X137.454 Y74.847 E.0351
G1 X137.542 Y76.524 E.05265
G1 X137.55 Y77.785 E.03954
G1 X137.453 Y79.602 E.05705
G1 X137.288 Y81.06 E.04601
G1 X137.045 Y82.51 E.0461
G1 X136.725 Y83.945 E.0461
G1 X136.328 Y85.361 E.04611
G1 X135.856 Y86.755 E.04615
G1 X135.445 Y87.796 E.03509
G1 X134.693 Y89.458 E.0572
G1 X134.424 Y89.967 E.01805
G1 X126.659 Y89.967 E.24347
G1 X126.616 Y89.919 E.00202
G1 X126.488 Y89.91 E.00402
G1 X122.064 Y89.91 E.13871
G1 X122.064 Y69.749 E.63213
G1 X122.061 Y69.196 E.01734
G1 X121.996 Y68.574 E.01961
G1 X121.829 Y67.966 E.01977
G1 X121.563 Y67.394 E.01978
G1 X121.207 Y66.873 E.01978
G1 X120.769 Y66.419 E.01978
G1 X120.263 Y66.042 E.01978
G1 X119.702 Y65.755 E.01976
G1 X119.101 Y65.563 E.01978
G1 X118.476 Y65.474 E.01979
G1 X117.846 Y65.489 E.01976
G1 X117.226 Y65.607 E.01979
G1 X116.618 Y65.836 E.02037
G1 X116.087 Y66.14 E.01918
G1 X115.571 Y66.571 E.02108
G1 X115.184 Y67.014 E.01844
G1 X114.827 Y67.61 E.02178
G1 X114.614 Y68.135 E.01776
G1 X114.475 Y68.75 E.01977
G1 X114.436 Y69.297 E.01719
G1 X114.542 Y87.094 E.55802
G1 X114.56 Y87.535 E.01384
G1 X114.623 Y88.103 E.01792
G1 X114.617 Y88.661 E.0175
G1 X114.544 Y89.213 E.01746
G1 X114.405 Y89.753 E.01748
G1 X114.203 Y90.272 E.01746
G1 X113.939 Y90.763 E.01748
G1 X113.619 Y91.219 E.01747
G1 X113.245 Y91.633 E.01749
G1 X112.825 Y91.999 E.01747
G1 X112.364 Y92.312 E.01747
G1 X111.869 Y92.568 E.01747
G1 X111.346 Y92.762 E.01749
G1 X110.805 Y92.891 E.01744
G1 X110.251 Y92.955 E.01749
G1 X109.693 Y92.952 E.0175
G1 X109.141 Y92.881 E.01745
G1 X108.6 Y92.745 E.01749
G1 X108.08 Y92.545 E.01747
G1 X107.588 Y92.284 E.01746
G1 X107.13 Y91.965 E.0175
G1 X106.715 Y91.594 E.01745
G1 X106.32 Y91.136 E.01896
G1 X106.032 Y90.715 E.01599
G1 X105.774 Y90.221 E.01747
G1 X105.566 Y89.654 E.01894
G1 X105.441 Y89.122 E.01713
G1 X105.38 Y88.605 E.01632
G1 X105.383 Y88.023 E.01825
G1 X105.456 Y87.348 E.02129
G1 X105.561 Y69.219 E.56843
G1 X105.5 Y68.596 E.01963
G1 X105.336 Y67.987 E.01977
G1 X105.074 Y67.414 E.01975
G1 X104.721 Y66.891 E.01978
G1 X104.287 Y66.434 E.01976
G1 X103.783 Y66.054 E.01979
G1 X103.223 Y65.763 E.01979
G1 X102.623 Y65.569 E.01977
G1 X101.999 Y65.475 E.01979
G1 X101.368 Y65.486 E.01979
G1 X100.748 Y65.601 E.01977
G1 X100.155 Y65.817 E.01979
G1 X99.606 Y66.127 E.01977
G1 X99.116 Y66.524 E.01977
G1 X98.697 Y66.996 E.01979
G1 X98.363 Y67.531 E.01978
G1 X98.121 Y68.113 E.01976
G1 X97.978 Y68.728 E.0198
G1 X97.936 Y69.274 E.01717
G1 X97.936 Y89.91 E.64703
G1 X93.512 Y89.91 E.13871
G1 X93.384 Y89.919 E.00402
G1 X93.341 Y89.967 E.00202
G1 X85.576 Y89.967 E.24347
G1 X85.307 Y89.458 E.01805
G1 X84.555 Y87.796 E.0572
G1 X84.144 Y86.755 E.03509
G1 X83.672 Y85.361 E.04615
G1 X83.275 Y83.945 E.04611
G1 X82.955 Y82.51 E.0461
G1 X82.712 Y81.06 E.0461
G1 X82.547 Y79.602 E.04601
G1 X82.45 Y77.785 E.05705
G1 X82.459 Y76.317 E.04603
G1 X82.546 Y74.847 E.04617
G1 X82.666 Y73.734 E.0351
G1 X82.956 Y71.935 E.05713
G1 X83.275 Y70.503 E.046
G1 X83.672 Y69.087 E.04611
G1 X84.144 Y67.692 E.04618
G1 X84.555 Y66.651 E.03509
G1 X85.307 Y64.99 E.05717
G1 X85.548 Y64.533 E.0162
G1 X85.548 Y64.533 F9000
G1 X85.364 Y64.076
G1 F1200
G1 X85.469 Y64.103 E.0034
G1 X93.389 Y64.103 E.24833
G1 X93.435 Y64.156 E.0022
G1 X93.512 Y64.161 E.00242
G1 X101.731 Y64.161 E.2577
G1 X102.323 Y64.194 E.01859
G1 X102.889 Y64.29 E.018
G1 X103.44 Y64.449 E.01798
G1 X103.97 Y64.669 E.01799
G1 X104.473 Y64.946 E.018
G1 X104.941 Y65.279 E.01801
G1 X105.369 Y65.661 E.01799
G1 X105.751 Y66.089 E.01799
G1 X106.083 Y66.557 E.01799
G1 X106.361 Y67.059 E.01799
G1 X106.58 Y67.589 E.01798
G1 X106.739 Y68.141 E.01801
G1 X106.835 Y68.707 E.018
G1 X106.868 Y69.299 E.01859
G1 X106.868 Y87.097 E.55804
G1 X106.737 Y87.69 E.01904
G1 X106.674 Y88.278 E.01854
G1 X106.726 Y88.904 E.0197
G1 X106.864 Y89.441 E.01738
G1 X107.142 Y90.028 E.02036
G1 X107.447 Y90.465 E.01671
G1 X107.931 Y90.931 E.02107
G1 X108.35 Y91.222 E.016
G1 X108.888 Y91.468 E.01855
G1 X109.46 Y91.616 E.01853
G1 X110.05 Y91.659 E.01855
G1 X110.639 Y91.598 E.01857
G1 X111.207 Y91.433 E.01855
G1 X111.737 Y91.17 E.01855
G1 X112.212 Y90.818 E.01854
G1 X112.617 Y90.387 E.01854
G1 X112.939 Y89.891 E.01854
G1 X113.168 Y89.346 E.01854
G1 X113.298 Y88.769 E.01854
G1 X113.324 Y88.188 E.01824
G1 X113.263 Y87.69 E.01573
G1 X113.132 Y87.231 E.01497
G1 X113.132 Y69.299 E.56224
G1 X113.165 Y68.707 E.01859
G1 X113.261 Y68.141 E.018
G1 X113.42 Y67.589 E.01801
G1 X113.639 Y67.059 E.01798
G1 X113.917 Y66.557 E.01799
G1 X114.249 Y66.089 E.01799
G1 X114.631 Y65.661 E.01799
G1 X115.059 Y65.279 E.01799
G1 X115.527 Y64.946 E.01801
G1 X116.03 Y64.669 E.018
G1 X116.56 Y64.449 E.01799
G1 X117.111 Y64.29 E.01798
G1 X117.677 Y64.194 E.018
G1 X118.269 Y64.161 E.01859
G1 X126.504 Y64.161 E.2582
G1 X126.611 Y64.103 E.00382
G1 X133.868 Y64.103 E.22754
G1 X134.636 Y64.076 E.02409
G1 X135.033 Y64.826 E.02661
G1 X135.658 Y66.179 E.04673
G1 X136.211 Y67.564 E.04676
G1 X136.689 Y68.975 E.04671
G1 X137.09 Y70.411 E.04675
G1 X137.415 Y71.864 E.04668
G1 X137.707 Y73.684 E.05779
G1 X137.829 Y74.815 E.03567
G1 X137.919 Y76.521 E.05356
G1 X137.927 Y77.794 E.03991
G1 X137.829 Y79.633 E.05774
G1 X137.662 Y81.112 E.04667
G1 X137.415 Y82.582 E.04674
G1 X137.09 Y84.037 E.04674
G1 X136.689 Y85.472 E.04672
G1 X136.21 Y86.885 E.04678
G1 X135.792 Y87.944 E.0357
G1 X135.031 Y89.624 E.05783
G1 X134.636 Y90.372 E.02652
G1 X134.531 Y90.345 E.0034
G1 X126.611 Y90.345 E.24833
G1 X126.565 Y90.292 E.0022
G1 X126.488 Y90.287 E.00242
G1 X121.687 Y90.287 E.15053
G1 X121.687 Y69.749 E.64395
G1 X121.685 Y69.228 E.01634
G1 X121.631 Y68.667 E.01767
G1 X121.483 Y68.118 E.01783
G1 X121.248 Y67.6 E.01783
G1 X120.93 Y67.129 E.01782
G1 X120.538 Y66.717 E.01783
G1 X120.084 Y66.374 E.01784
G1 X119.58 Y66.112 E.01781
G1 X119.04 Y65.936 E.01781
G1 X118.477 Y65.851 E.01785
G1 X117.909 Y65.861 E.01781
G1 X117.35 Y65.964 E.01782
G1 X116.799 Y66.167 E.01841
G1 X116.32 Y66.437 E.01724
G1 X115.85 Y66.825 E.01911
G1 X115.5 Y67.219 E.01652
G1 X115.173 Y67.76 E.01982
G1 X114.98 Y68.226 E.01581
G1 X114.851 Y68.779 E.0178
G1 X114.813 Y69.295 E.01622
G1 X114.919 Y87.091 E.55799
G1 X114.934 Y87.491 E.01255
G1 X115 Y88.105 E.01936
G1 X114.991 Y88.708 E.01891
G1 X114.91 Y89.305 E.01889
G1 X114.757 Y89.888 E.0189
G1 X114.536 Y90.449 E.01891
G1 X114.249 Y90.978 E.01887
G1 X113.9 Y91.47 E.01891
G1 X113.495 Y91.916 E.01889
G1 X113.039 Y92.31 E.0189
G1 X112.539 Y92.646 E.01889
G1 X112.002 Y92.92 E.0189
G1 X111.436 Y93.128 E.01891
G1 X110.759 Y93.277 E.02173
G1 X110.251 Y93.332 E.01602
G1 X109.648 Y93.326 E.01891
G1 X108.976 Y93.229 E.02129
G1 X108.467 Y93.098 E.01648
G1 X107.905 Y92.879 E.01891
G1 X107.299 Y92.542 E.02174
G1 X106.82 Y92.194 E.01856
G1 X106.433 Y91.844 E.01636
G1 X105.998 Y91.333 E.02104
G1 X105.671 Y90.839 E.01857
G1 X105.422 Y90.356 E.01704
G1 X105.201 Y89.746 E.02034
G1 X105.067 Y89.169 E.01857
G1 X105.002 Y88.606 E.01777
G1 X105.009 Y87.979 E.01966
G1 X105.079 Y87.346 E.01997
G1 X105.185 Y69.248 E.56746
G1 X105.134 Y68.687 E.01766
G1 X104.99 Y68.137 E.01783
G1 X104.758 Y67.618 E.01782
G1 X104.443 Y67.145 E.01782
G1 X104.054 Y66.73 E.01783
G1 X103.602 Y66.385 E.01783
G1 X103.099 Y66.12 E.01783
G1 X102.56 Y65.94 E.01782
G1 X101.998 Y65.853 E.01783
G1 X101.429 Y65.859 E.01784
G1 X100.87 Y65.958 E.0178
G1 X100.334 Y66.149 E.01784
G1 X99.837 Y66.425 E.01782
G1 X99.393 Y66.78 E.01782
G1 X99.013 Y67.203 E.01783
G1 X98.708 Y67.683 E.01783
G1 X98.486 Y68.206 E.01781
G1 X98.354 Y68.759 E.01783
G1 X98.313 Y69.274 E.0162
G1 X98.313 Y90.287 E.65885
G1 X93.512 Y90.287 E.15053
G1 X93.435 Y90.292 E.00242
G1 X93.389 Y90.345 E.0022
G1 X86.125 Y90.345 E.22776
G1 X85.364 Y90.372 E.02388
G1 X84.969 Y89.624 E.02652
G1 X84.208 Y87.944 E.05783
G1 X83.79 Y86.885 E.0357
G1 X83.311 Y85.472 E.04678
G1 X82.91 Y84.037 E.04672
G1 X82.585 Y82.582 E.04674
G1 X82.338 Y81.112 E.04674
G1 X82.171 Y79.633 E.04667
G1 X82.073 Y77.794 E.05774
G1 X82.082 Y76.305 E.04669
G1 X82.171 Y74.815 E.0468
G1 X82.293 Y73.684 E.03567
G1 X82.585 Y71.864 E.05779
G1 X82.91 Y70.411 E.04668
G1 X83.311 Y68.975 E.04675
G1 X83.79 Y67.563 E.04675
G1 X84.208 Y66.504 E.0357
G1 X84.969 Y64.824 E.05783
G1 X85.336 Y64.129 E.02464
G1 X85.336 Y64.129 F9000
G1 X85.19 Y63.597
;TYPE:External perimeter
G1 F1200
G1 X85.469 Y63.726 E.00964
G1 X93.438 Y63.726 E.24986
G1 X93.512 Y63.784 E.00295
G1 X101.741 Y63.784 E.25801
G1 X102.365 Y63.819 E.0196
G1 X102.973 Y63.922 E.01933
G1 X103.565 Y64.093 E.01932
G1 X104.134 Y64.329 E.01931
G1 X104.674 Y64.627 E.01934
G1 X105.176 Y64.983 E.0193
G1 X105.636 Y65.394 E.01934
G1 X106.046 Y65.853 E.0193
G1 X106.403 Y66.356 E.01934
G1 X106.701 Y66.895 E.01931
G1 X106.937 Y67.465 E.01934
G1 X107.107 Y68.057 E.01931
G1 X107.211 Y68.664 E.01931
G1 X107.246 Y69.288 E.0196
G1 X107.246 Y87.288 E.56438
G1 X107.111 Y87.735 E.01464
G1 X107.051 Y88.257 E.01647
G1 X107.084 Y88.78 E.01643
G1 X107.209 Y89.29 E.01646
G1 X107.422 Y89.769 E.01644
G1 X107.717 Y90.203 E.01645
G1 X108.085 Y90.577 E.01645
G1 X108.512 Y90.881 E.01643
G1 X108.987 Y91.104 E.01645
G1 X109.494 Y91.24 E.01646
G1 X110.017 Y91.284 E.01646
G1 X110.539 Y91.234 E.01644
G1 X111.044 Y91.093 E.01644
G1 X111.517 Y90.864 E.01648
G1 X111.941 Y90.556 E.01643
G1 X112.304 Y90.177 E.01645
G1 X112.594 Y89.739 E.01647
G1 X112.802 Y89.258 E.01643
G1 X112.921 Y88.747 E.01645
G1 X112.95 Y88.247 E.0157
G1 X112.889 Y87.735 E.01617
G1 X112.754 Y87.288 E.01464
G1 X112.754 Y69.288 E.56438
G1 X112.789 Y68.664 E.0196
G1 X112.893 Y68.057 E.01931
G1 X113.063 Y67.465 E.01931
G1 X113.299 Y66.895 E.01934
G1 X113.597 Y66.356 E.01931
G1 X113.954 Y65.853 E.01934
G1 X114.364 Y65.394 E.0193
G1 X114.824 Y64.983 E.01934
G1 X115.326 Y64.627 E.0193
G1 X115.866 Y64.329 E.01934
G1 X116.435 Y64.093 E.01931
G1 X117.027 Y63.922 E.01932
G1 X117.635 Y63.819 E.01933
G1 X118.259 Y63.784 E.0196
G1 X126.488 Y63.784 E.25801
G1 X126.562 Y63.726 E.00295
G1 X134.531 Y63.726 E.24986
G1 X134.81 Y63.597 E.00964
G1 X135.371 Y64.659 E.03766
G1 X136.005 Y66.03 E.04736
G1 X136.565 Y67.433 E.04736
G1 X137.049 Y68.864 E.04736
G1 X137.456 Y70.319 E.04737
G1 X137.785 Y71.793 E.04735
G1 X138.081 Y73.634 E.05846
G1 X138.205 Y74.784 E.03627
G1 X138.297 Y76.519 E.05448
G1 X138.304 Y77.803 E.04026
G1 X138.205 Y79.664 E.05843
G1 X138.035 Y81.165 E.04736
G1 X137.785 Y82.654 E.04734
G1 X137.456 Y84.129 E.04738
G1 X137.049 Y85.584 E.04737
G1 X136.565 Y87.015 E.04736
G1 X136.139 Y88.091 E.03629
G1 X135.37 Y89.79 E.05847
G1 X134.81 Y90.851 E.03762
G1 X134.531 Y90.722 E.00964
G1 X126.562 Y90.722 E.24986
G1 X126.488 Y90.664 E.00295
G1 X121.31 Y90.664 E.16235
G1 X121.31 Y69.749 E.65577
G1 X121.27 Y68.79 E.03009
G1 X121.148 Y68.299 E.01586
G1 X120.947 Y67.834 E.01588
G1 X120.672 Y67.409 E.01587
G1 X120.33 Y67.036 E.01587
