; generated by PrusaSlicer 2.7.4+win64 on 2024-08-04 at 03:14:24 UTC

; 

; external perimeters extrusion width = 0.42mm
; perimeters extrusion width = 0.44mm
; infill extrusion width = 0.44mm
; solid infill extrusion width = 0.44mm
; top infill extrusion width = 0.40mm
; support material extrusion width = 0.36mm
; first layer extrusion width = 0.42mm

M201 X500 Y500 Z100 E5000 ; sets maximum accelerations, mm/sec^2
M203 X500 Y500 Z10 E60 ; sets maximum feedrates, mm / sec
M204 S500 T1000 ; sets acceleration (S) and retract acceleration (R), mm/sec^2
M205 X8.00 Y8.00 Z0.40 E5.00 ; sets the jerk limits, mm/sec
M205 S0 T0 ; sets the minimum extruding and travel feed rate, mm/sec

; printing object 3齿轮罩.STL id:0 copy 0
; stop printing object 3齿轮罩.STL id:0 copy 0

;TYPE:Custom
G90 ; use absolute coordinates
M83 ; extruder relative mode
M104 S150 ; set temporary nozzle temp to prevent oozing during homing
M140 S70 ; set final bed temp
G4 S30 ; allow partial nozzle warmup
G28 ; home all axis
G1 Z50 F240
G1 X2.0 Y10 F3000
M104 S240 ; set final nozzle temp
M190 S70 ; wait for bed temp to stabilize
M109 S240 ; wait for nozzle temp to stabilize
G1 Z0.28 F240
G92 E0
G1 X2.0 Y140 E10 F1500 ; prime the nozzle
G1 X2.3 Y140 F5000
G92 E0
G1 X2.3 Y10 E10 F1200 ; prime the nozzle
G92 E0
G21 ; set units to millimeters
G90 ; use absolute coordinates
M83 ; use relative distances for extrusion
; Filament gcode
M107
;LAYER_CHANGE
;Z:0.2
;HEIGHT:0.2
G1 E-11 F3600
G1 Z.2 F9000
G1 X94.417 Y91.235
G1 Z.2
G1 E11 F2400
M204 S500
;TYPE:Skirt/Brim
;WIDTH:0.42
G1 F1200
G1 X96.515 Y90.504 E.06966
G1 X105.516 Y90.541 E.28222
G1 X131.888 Y94.492 E.8361
G1 X133.776 Y95.444 E.0663
G1 X135.093 Y96.761 E.0584
G1 X135.933 Y98.159 E.05114
G1 X136.082 Y99.149 E.03139
G1 X136.082 Y111.631 E.39136
G1 X135.688 Y113.215 E.05118
G1 X135.093 Y114.019 E.03136
G1 X133.776 Y115.336 E.0584
G1 X132.898 Y115.969 E.03394
G1 X130.151 Y117.34 E.09626
G1 X101.175 Y130.511 E.99798
G1 X99.778 Y130.813 E.04481
G1 X88.612 Y130.813 E.3501
G1 X87.029 Y130.419 E.05115
G1 X86.224 Y129.824 E.03139
G1 X84.907 Y128.507 E.0584
G1 X84.067 Y127.109 E.05114
G1 X83.918 Y126.119 E.03139
G1 X83.918 Y114.954 E.35007
G1 X84.201 Y113.6 E.04337
G1 X93.421 Y92.527 E.7212
G1 X94.38 Y91.282 E.04927
G1 E-7.7 F3600
;WIPE_START
G1 F7200
G1 X94.417 Y91.235 E-.02841
G1 X96.515 Y90.504 E-1.05531
G1 X101.181 Y90.523 E-2.21628
;WIPE_END
; printing object 3齿轮罩.STL id:0 copy 0
G1 X131.388 Y99.149 F9000
G1 E11 F2400
;TYPE:Support material
G1 F1200
G1 X132.705 Y99.149 E.04129
G1 X132.705 Y111.631 E.39136
G1 X131.388 Y111.631 E.04129
G1 X131.388 Y112.948 E.04129
G1 X128.753 Y112.948 E.08262
G1 X128.753 Y114.266 E.04132
G1 X120.32 Y114.266 E.26441
G1 X120.014 Y113.033 E.03983
G1 X123.435 Y111.218 E.12142
G1 X123.567 Y110.998 E.00804
G1 X123.567 Y108.744 E.07067
G1 X123.459 Y108.54 E.00724
G1 X122.839 Y108.124 E.02341
G1 X122.407 Y107.718 E.01859
G1 X122.046 Y107.247 E.01861
G1 X121.577 Y106.162 E.03706
G1 X121.481 Y105.577 E.01859
G1 X121.481 Y104.983 E.01862
G1 X121.767 Y103.837 E.03703
G1 X122.407 Y102.842 E.03709
G1 X122.839 Y102.436 E.01859
G1 X123.459 Y102.02 E.02341
G1 X123.567 Y101.816 E.00724
G1 X123.567 Y101.13 E.02151
G1 X123.39 Y100.887 E.00943
G1 X119.231 Y99.545 E.13702
G1 X119.501 Y97.832 E.05437
G1 X131.388 Y97.832 E.37271
G1 X131.388 Y99.093 E.03954
G1 X131.388 Y99.093 F9000
G1 X132.206 Y111.462
G1 F1200
G1 X132.206 Y99.488 E.37544
G1 X131.787 Y99.488 E.01314
G1 X131.787 Y111.292 E.37011
G1 X131.368 Y111.292 E.01314
G1 X131.368 Y99.488 E.37011
G1 X131.048 Y99.488 E.01003
G1 X131.048 Y98.171 E.04129
G1 X130.949 Y98.171 E.0031
G1 X130.949 Y112.609 E.45269
G1 X130.53 Y112.609 E.01314
G1 X130.53 Y98.171 E.45269
G1 X130.111 Y98.171 E.01314
G1 X130.111 Y112.609 E.45269
G1 X129.692 Y112.609 E.01314
G1 X129.692 Y98.171 E.45269
G1 X129.273 Y98.171 E.01314
G1 X129.273 Y112.609 E.45269
G1 X128.854 Y112.609 E.01314
G1 X128.854 Y98.171 E.45269
G1 X128.435 Y98.171 E.01314
G1 X128.414 Y113.926 E.49399
G1 X128.016 Y113.926 E.01248
G1 X128.016 Y98.171 E.49399
G1 X127.597 Y98.171 E.01314
G1 X127.597 Y113.926 E.49399
G1 X127.178 Y113.926 E.01314
G1 X127.178 Y98.171 E.49399
G1 X126.759 Y98.171 E.01314
G1 X126.759 Y113.926 E.49399
G1 X126.34 Y113.926 E.01314
G1 X126.34 Y98.171 E.49399
G1 X125.921 Y98.171 E.01314
G1 X125.921 Y113.926 E.49399
G1 X125.502 Y113.926 E.01314
G1 X125.502 Y98.171 E.49399
G1 X125.083 Y98.171 E.01314
G1 X125.083 Y113.926 E.49399
G1 X124.664 Y113.926 E.01314
G1 X124.664 Y98.171 E.49399
G1 X124.245 Y98.171 E.01314
G1 X124.245 Y113.926 E.49399
G1 X123.826 Y113.926 E.01314
G1 X123.826 Y98.171 E.49399
G1 X123.407 Y98.171 E.01314
G1 X123.407 Y100.535 E.07412
G1 X122.988 Y100.4 E.0138
G1 X122.988 Y98.171 E.06989
G1 X122.569 Y98.171 E.01314
G1 X122.569 Y100.265 E.06566
G1 X122.15 Y100.13 E.0138
G1 X122.15 Y98.171 E.06142
G1 X121.731 Y98.171 E.01314
G1 X121.731 Y99.995 E.05719
G1 X121.312 Y99.859 E.01381
G1 X121.312 Y98.171 E.05293
G1 X120.893 Y98.171 E.01314
G1 X120.893 Y99.724 E.04869
G1 X120.474 Y99.589 E.0138
G1 X120.474 Y98.171 E.04446
G1 X120.055 Y98.171 E.01314
G1 X120.055 Y99.454 E.04023
G1 X119.636 Y99.319 E.0138
G1 X119.636 Y98.062 E.03941
G1 E-7.7 F3600
;WIPE_START
G1 F7200
G1 X119.636 Y99.319 E-.59708
G1 X120.055 Y99.454 E-.2091
G1 X120.055 Y98.171 E-.60943
G1 X120.474 Y98.171 E-.19902
G1 X120.474 Y99.589 E-.67355
G1 X120.893 Y99.724 E-.2091
G1 X120.893 Y98.171 E-.73767
G1 X121.03 Y98.171 E-.06505
;WIPE_END
G1 X123.407 Y114.096 F9000
G1 E11 F2400
G1 F1200
G1 X123.407 Y111.617 E.07773
G1 X122.988 Y111.839 E.01487
G1 X122.988 Y113.926 E.06544
G1 X122.569 Y113.926 E.01314
G1 X122.569 Y112.061 E.05848
G1 X122.15 Y112.284 E.01488
G1 X122.15 Y113.926 E.05148
G1 X121.731 Y113.926 E.01314
G1 X121.731 Y112.506 E.04452
G1 X121.312 Y112.728 E.01487
G1 X121.312 Y113.926 E.03756
G1 X120.893 Y113.926 E.01314
G1 X120.893 Y112.951 E.03057
G1 X120.474 Y113.173 E.01487
G1 X120.474 Y114.096 E.02894
G1 E-7.7 F3600
;WIPE_START
G1 F7200
G1 X120.474 Y113.173 E-.43843
G1 X120.893 Y112.951 E-.22523
G1 X120.893 Y113.926 E-.46312
G1 X121.312 Y113.926 E-.19902
G1 X121.312 Y112.728 E-.56905
G1 X121.731 Y112.506 E-.22523
G1 X121.731 Y113.926 E-.6745
G1 X122.15 Y113.926 E-.19902
G1 X122.15 Y113.281 E-.3064
;WIPE_END
G1 X123.407 Y108.301 F9000
G1 E11 F2400
G1 F1200
G1 X123.407 Y102.463 E.18305
G1 X122.988 Y102.761 E.01612
G1 X122.988 Y107.799 E.15796
G1 X122.569 Y107.372 E.01876
G1 X122.569 Y103.188 E.13119
G1 X122.15 Y103.84 E.0243
G1 X122.15 Y107.081 E.10162
G1 E-7.7 F3600
;WIPE_START
G1 F7200
G1 X122.15 Y103.84 E-1.53947
G1 X122.569 Y103.188 E-.36814
G1 X122.569 Y106.119 E-1.39239
;WIPE_END
G1 X105.305 Y95.444 F9000
G1 E11 F2400
G1 F1200
G1 X97.128 Y98.583 E.27463
G1 X96.972 Y98.932 E.01199
G1 X97.278 Y99.73 E.0268
G1 X96.515 Y100.023 E.02563
G1 X96.515 Y93.881 E.19258
G1 X105.015 Y93.881 E.26651
G1 X105.295 Y95.388 E.04806
G1 X105.295 Y95.388 F9000
G1 X104.553 Y95.551
G1 F1200
G1 X104.553 Y94.22 E.04173
G1 X104.134 Y94.22 E.01314
G1 X104.134 Y95.53 E.04107
G1 X103.715 Y95.691 E.01407
G1 X103.715 Y94.22 E.04612
G1 X103.296 Y94.22 E.01314
G1 X103.296 Y95.851 E.05114
G1 X102.877 Y96.012 E.01407
G1 X102.877 Y94.22 E.05619
G1 X102.458 Y94.22 E.01314
G1 X102.458 Y96.173 E.06123
G1 X102.039 Y96.334 E.01407
G1 X102.039 Y94.22 E.06628
G1 X101.62 Y94.22 E.01314
G1 X101.62 Y96.495 E.07133
G1 X101.201 Y96.656 E.01407
G1 X101.201 Y94.22 E.07638
G1 X100.783 Y94.22 E.01311
G1 X100.783 Y96.816 E.0814
G1 X100.364 Y96.977 E.01407
G1 X100.364 Y94.22 E.08644
G1 X99.945 Y94.22 E.01314
G1 X99.945 Y97.138 E.09149
G1 X99.526 Y97.299 E.01407
G1 X99.526 Y94.22 E.09654
G1 X99.107 Y94.22 E.01314
G1 X99.107 Y97.46 E.10159
G1 X98.688 Y97.621 E.01407
G1 X98.688 Y94.22 E.10664
G1 X98.269 Y94.22 E.01314
G1 X98.269 Y97.781 E.11165
G1 X97.85 Y97.942 E.01407
G1 X97.85 Y94.22 E.1167
G1 X97.431 Y94.22 E.01314
G1 X97.431 Y98.103 E.12175
G1 X97.012 Y98.264 E.01407
G1 X97.012 Y94.05 E.13213
G1 E-7.7 F3600
;WIPE_START
G1 F7200
G1 X97.012 Y98.264 E-2.00165
G1 X97.431 Y98.103 E-.21321
G1 X97.431 Y95.819 E-1.08514
;WIPE_END
G1 X94.423 Y115.688 F9000
G1 E11 F2400
G1 F1200
G1 X91.776 Y117.805 E.10627
G1 X91.733 Y118.185 E.01199
G1 X92.589 Y119.256 E.04299
G1 X92.946 Y119.311 E.01133
G1 X93.713 Y118.863 E.02785
G1 X94.372 Y118.744 E.021
G1 X95.035 Y118.846 E.02103
G1 X95.345 Y118.977 E.01055
G1 X95.879 Y119.382 E.02101
G1 X96.089 Y119.644 E.01053
G1 X96.366 Y120.255 E.02103
G1 X96.43 Y120.922 E.02101
G1 X96.274 Y121.574 E.02102
G1 X95.914 Y122.14 E.02103
G1 X95.511 Y122.521 E.01739
G1 X95.486 Y122.881 E.01131
G1 X96.288 Y123.885 E.04029
G1 X96.478 Y123.976 E.00661
G1 X99.778 Y123.976 E.10347
G1 X99.778 Y127.436 E.10849
G1 X88.612 Y127.436 E.3501
G1 X88.612 Y126.119 E.04129
G1 X87.295 Y126.119 E.04129
G1 X87.295 Y114.954 E.35007
G1 X94.166 Y114.954 E.21544
G1 X94.405 Y115.635 E.02263
G1 E-7.7 F3600
;WIPE_START
G1 F7200
G1 X94.166 Y114.954 E-.34282
G1 X87.941 Y114.954 E-2.95718
;WIPE_END
G1 X99.107 Y127.267 F9000
G1 E11 F2400
G1 F1200
G1 X99.107 Y124.316 E.09253
G1 X98.688 Y124.316 E.01314
G1 X98.688 Y127.097 E.0872
G1 X98.269 Y127.097 E.01314
G1 X98.269 Y124.316 E.0872
G1 X97.85 Y124.316 E.01314
G1 X97.85 Y127.097 E.0872
G1 X97.431 Y127.097 E.01314
G1 X97.431 Y124.316 E.0872
G1 X97.012 Y124.316 E.01314
G1 X97.012 Y127.097 E.0872
G1 X96.593 Y127.097 E.01314
G1 X96.593 Y124.316 E.0872
G1 X96.174 Y124.206 E.01358
G1 X96.174 Y127.097 E.09065
G1 X95.755 Y127.097 E.01314
G1 X95.755 Y123.761 E.1046
G1 X95.336 Y123.237 E.02104
G1 X95.336 Y127.097 E.12103
G1 X94.917 Y127.097 E.01314
G1 X94.917 Y119.166 E.24867
G1 X94.498 Y119.093 E.01334
G1 X94.498 Y127.097 E.25096
G1 X94.079 Y127.097 E.01314
G1 X94.079 Y119.116 E.25024
G1 X93.66 Y119.259 E.01388
G1 X93.66 Y127.097 E.24575
G1 X93.241 Y127.097 E.01314
G1 X93.241 Y119.522 E.23751
G1 X93.025 Y119.667 E.00816
G1 X92.822 Y119.635 E.00644
G1 X92.822 Y127.097 E.23397
G1 X92.403 Y127.097 E.01314
G1 X92.403 Y119.567 E.2361
G1 X91.984 Y119.042 E.02106
G1 X91.984 Y127.097 E.25256
G1 X91.565 Y127.097 E.01314
G1 X91.565 Y118.518 E.26899
G1 X91.38 Y118.287 E.00928
G1 X91.454 Y117.627 E.02082
G1 X91.565 Y117.538 E.00446
G1 X91.565 Y115.293 E.07039
G1 X91.984 Y115.293 E.01314
G1 X91.984 Y117.203 E.05989
G1 X92.403 Y116.869 E.0168
G1 X92.403 Y115.293 E.04941
G1 X92.822 Y115.293 E.01314
G1 X92.822 Y116.534 E.03891
G1 X93.241 Y116.199 E.01682
G1 X93.241 Y115.293 E.02841
G1 X93.66 Y115.293 E.01314
G1 X93.66 Y116.081 E.02471
G1 E-7.7 F3600
;WIPE_START
G1 F7200
G1 X93.66 Y115.293 E-.3743
G1 X93.241 Y115.293 E-.19902
G1 X93.241 Y116.199 E-.43035
G1 X92.822 Y116.534 E-.25482
G1 X92.822 Y115.293 E-.58947
G1 X92.403 Y115.293 E-.19902
G1 X92.403 Y116.869 E-.7486
G1 X91.984 Y117.203 E-.25452
G1 X91.984 Y116.677 E-.2499
;WIPE_END
G1 X95.755 Y122.057 F9000
G1 E11 F2400
G1 F1200
G1 X95.755 Y119.77 E.07171
G1 X95.336 Y119.373 E.0181
G1 X95.336 Y122.593 E.10096
G1 X95.336 Y122.593 F9000
G1 X91.146 Y127.267
G1 F1200
G1 X91.146 Y115.293 E.37544
G1 X90.727 Y115.293 E.01314
G1 X90.727 Y127.097 E.37011
G1 X90.308 Y127.097 E.01314
G1 X90.308 Y115.293 E.37011
G1 X89.889 Y115.293 E.01314
G1 X89.889 Y127.097 E.37011
G1 X89.47 Y127.097 E.01314
G1 X89.47 Y115.293 E.37011
G1 X89.051 Y115.293 E.01314
G1 X89.051 Y127.097 E.37011
G1 X88.952 Y127.097 E.0031
G1 X88.952 Y125.78 E.04129
G1 X88.632 Y125.78 E.01003
G1 X88.632 Y115.293 E.32881
G1 X88.213 Y115.293 E.01314
G1 X88.213 Y125.78 E.32881
G1 X87.794 Y125.78 E.01314
G1 X87.794 Y115.124 E.33411
G1 E-7.7 F3600
;WIPE_START
G1 F7200
G1 X87.794 Y122.071 E-3.3
;WIPE_END
G1 X94.907 Y117.255 F9000
G1 E11 F2400
;TYPE:Perimeter
;WIDTH:0.419999
G1 F1200
G1 X95.614 Y116.69 E.02838
G1 X96.673 Y115.72 E.04503
G1 X97.572 Y114.659 E.0436
G1 X98.342 Y113.471 E.04439
G1 X98.937 Y112.238 E.04293
G1 X99.35 Y111.033 E.03994
G1 X99.656 Y109.555 E.04732
G1 X99.757 Y108.166 E.04367
G1 X99.7 Y106.973 E.03745
G1 X99.642 Y106.54 E.0137
G1 X99.454 Y105.476 E.03388
G1 X98.677 Y102.253 E.10395
G1 X98.783 Y102.06 E.0069
G1 X99.164 Y101.481 E.02173
G1 X99.292 Y101.189 E.01
G1 X99.315 Y100.876 E.00984
G1 X99.257 Y100.625 E.00808
G1 X98.847 Y99.558 E.03584
G1 X105.905 Y96.848 E.23705
G1 X121.284 Y101.811 E.50668
G1 X120.722 Y102.553 E.02918
G1 X120.337 Y103.302 E.02641
G1 X120.079 Y104.103 E.02639
G1 X119.967 Y104.783 E.02161
G1 X119.955 Y105.195 E.01292
G1 X119.967 Y105.777 E.01825
G1 X120.116 Y106.606 E.02641
G1 X120.398 Y107.399 E.02639
G1 X120.805 Y108.136 E.0264
G1 X121.327 Y108.797 E.02641
G1 X122.041 Y109.426 E.02983
G1 X122.041 Y109.538 E.00351
G1 X122.041 Y110.229 E.02167
G1 X115.305 Y113.8 E.23905
;WIDTH:0.450399
G1 X114.582 Y114.166 E.02746
G1 X114.011 Y114.482 E.02211
;WIDTH:0.423618
G1 X113.49 Y114.655 E.01738
;WIDTH:0.419999
G1 X110.521 Y115.261 E.09501
G1 X107.953 Y115.997 E.08376
G1 X105.404 Y116.941 E.08523
G1 X104.878 Y117.225 E.01874
G1 X104.406 Y117.596 E.01882
G1 X104.002 Y118.04 E.01882
G1 X103.678 Y118.546 E.01884
G1 X103.44 Y119.118 E.01943
G1 X103.307 Y119.684 E.01823
G1 X103.267 Y120.199 E.0162
G1 X103.267 Y122.45 E.07058
G1 X97.538 Y122.45 E.17963
G1 X97.708 Y122.097 E.01228
G1 X97.88 Y121.534 E.01846
G1 X97.957 Y120.951 E.01844
G1 X97.936 Y120.363 E.01845
G1 X97.816 Y119.777 E.01875
G1 X97.592 Y119.206 E.01923
G1 X97.311 Y118.729 E.01736
G1 X96.934 Y118.278 E.01843
G1 X96.488 Y117.895 E.01843
G1 X95.984 Y117.59 E.01847
G1 X95.438 Y117.373 E.01842
G1 X94.966 Y117.268 E.01516
G1 X94.966 Y117.268 F9000
G1 X93.81 Y117.649
G1 F1200
G1 X95.378 Y116.396 E.06293
G1 X96.387 Y115.475 E.04283
G1 X97.256 Y114.452 E.04209
G1 X98.003 Y113.305 E.04292
G1 X98.58 Y112.116 E.04144
G1 X98.993 Y110.911 E.03994
G1 X99.28 Y109.525 E.04438
G1 X99.38 Y108.184 E.04216
G1 X99.324 Y106.991 E.03745
G1 X99.087 Y105.564 E.04536
G1 X98.277 Y102.2 E.10849
G1 X98.459 Y101.866 E.01193
G1 X98.849 Y101.274 E.02223
G1 X98.939 Y101.025 E.0083
G1 X98.905 Y100.76 E.00838
G1 X98.36 Y99.341 E.04766
G1 X105.894 Y96.449 E.25303
G1 X122.002 Y101.646 E.53069
G1 X121.523 Y102.106 E.02082
G1 X121.055 Y102.731 E.02448
G1 X120.694 Y103.423 E.02447
G1 X120.451 Y104.164 E.02445
G1 X120.339 Y104.844 E.02161
G1 X120.339 Y105.716 E.02734
G1 X120.474 Y106.485 E.02448
G1 X120.731 Y107.222 E.02447
G1 X121.105 Y107.907 E.02447
G1 X121.585 Y108.522 E.02446
G1 X122.067 Y108.976 E.02076
G1 X122.418 Y109.225 E.01349
G1 X122.418 Y109.538 E.00981
G1 X122.418 Y110.456 E.02878
G1 X114.211 Y114.806 E.29124
G1 X113.727 Y114.99 E.01624
G1 X110.624 Y115.624 E.0993
G1 X108.083 Y116.351 E.08287
G1 X105.597 Y117.266 E.08306
G1 X105.149 Y117.497 E.0158
G1 X104.712 Y117.823 E.01709
G1 X104.338 Y118.218 E.01706
G1 X104.054 Y118.64 E.01595
G1 X103.823 Y119.149 E.01753
G1 X103.689 Y119.668 E.01681
G1 X103.644 Y120.199 E.01671
G1 X103.644 Y122.827 E.0824
G1 X96.939 Y122.827 E.21023
G1 X96.874 Y122.777 E.00257
G1 X97.113 Y122.449 E.01272
G1 X97.35 Y121.979 E.0165
G1 X97.507 Y121.477 E.01649
G1 X97.58 Y120.956 E.0165
G1 X97.565 Y120.43 E.0165
G1 X97.461 Y119.904 E.01681
G1 X97.28 Y119.421 E.01617
G1 X97.017 Y118.965 E.01651
G1 X96.682 Y118.559 E.0165
G1 X96.285 Y118.213 E.01651
G1 X95.837 Y117.938 E.01648
G1 X95.35 Y117.739 E.0165
G1 X94.836 Y117.624 E.01651
G1 X94.311 Y117.595 E.01649
G1 X93.87 Y117.643 E.01391
G1 X93.87 Y117.643 F9000
G1 X92.902 Y118.411
;TYPE:External perimeter
G1 F1200
G1 X92.649 Y118.095 E.01269
G1 X95.027 Y116.194 E.09546
G1 X95.501 Y115.777 E.01979
G1 X96.1 Y115.23 E.02543
G1 X96.941 Y114.245 E.04061
G1 X97.664 Y113.14 E.0414
G1 X98.223 Y111.994 E.03998
G1 X98.636 Y110.789 E.03994
G1 X98.904 Y109.496 E.0414
G1 X99.004 Y108.202 E.04069
G1 X98.947 Y107.009 E.03745
G1 X98.721 Y105.653 E.0431
G1 X97.876 Y102.147 E.11308
G1 X98.165 Y101.628 E.01863
G1 X98.539 Y101.058 E.02138
G1 X98.553 Y100.895 E.00513
G1 X97.873 Y99.124 E.05948
G1 X105.883 Y96.049 E.26902
G1 X122.779 Y101.5 E.55665
G1 X122.785 Y101.543 E.00136
G1 X122.345 Y101.841 E.01666
G1 X121.823 Y102.335 E.02253
G1 X121.388 Y102.908 E.02256
G1 X121.052 Y103.544 E.02255
G1 X120.823 Y104.226 E.02256
G1 X120.709 Y104.936 E.02255
G1 X120.711 Y105.655 E.02254
G1 X120.831 Y106.364 E.02255
