; generated by PrusaSlicer 2.8.0+win64 on 2024-11-17 at 14:51:46 UTC

; 

; external perimeters extrusion width = 0.42mm
; perimeters extrusion width = 0.44mm
; infill extrusion width = 0.44mm
; solid infill extrusion width = 0.44mm
; top infill extrusion width = 0.40mm
; support material extrusion width = 0.36mm
; first layer extrusion width = 0.42mm

M201 X500 Y500 Z100 E5000 ; sets maximum accelerations, mm/sec^2
M203 X500 Y500 Z10 E60 ; sets maximum feedrates, mm / sec
M204 S500 T1000 ; sets acceleration (S) and retract acceleration (R), mm/sec^2
M205 X8.00 Y8.00 Z0.40 E5.00 ; sets the jerk limits, mm/sec
M205 S0 T0 ; sets the minimum extruding and travel feed rate, mm/sec

; printing object 1调焦桶盖.STL id:0 copy 0
; stop printing object 1调焦桶盖.STL id:0 copy 0

;TYPE:Custom
G90 ; use absolute coordinates
M83 ; extruder relative mode
M104 S150 ; set temporary nozzle temp to prevent oozing during homing
M140 S70 ; set final bed temp
G4 S30 ; allow partial nozzle warmup
G28 ; home all axis
G1 Z50 F240
G1 X2.0 Y10 F3000
M104 S240 ; set final nozzle temp
M190 S70 ; wait for bed temp to stabilize
M109 S240 ; wait for nozzle temp to stabilize
G1 Z0.28 F240
G92 E0
G1 X2.0 Y140 E10 F1500 ; prime the nozzle
G1 X2.3 Y140 F5000
G92 E0
G1 X2.3 Y10 E10 F1200 ; prime the nozzle
G92 E0
G21 ; set units to millimeters
G90 ; use absolute coordinates
M83 ; use relative distances for extrusion
; Filament gcode
M107
;LAYER_CHANGE
;Z:0.2
;HEIGHT:0.2
G1 E-12.5 F2400
G1 Z.2 F9000
G1 X70.897 Y74.973
G1 Z.2
G1 E12.5 F2400
M204 S500
;TYPE:Skirt/Brim
;WIDTH:0.42
G1 F1200
G1 X72.005 Y74.2 E.04236
G1 X73.225 Y73.62 E.04236
G1 X74.904 Y73.178 E.05444
G1 X104.51 Y69.455 E.93559
G1 X108.124 Y69.105 E.11384
G1 X111.485 Y69.099 E.10538
G1 X115.655 Y69.477 E.13128
G1 X145.475 Y73.249 E.94244
G1 X146.775 Y73.62 E.04239
G1 X147.995 Y74.2 E.04236
G1 X148.687 Y74.651 E.0259
G1 X149.666 Y75.49 E.04043
G1 X150.578 Y76.569 E.0443
G1 X151.473 Y78.217 E.0588
G1 X151.873 Y79.508 E.04238
G1 X152.047 Y80.63 E.0356
G1 X155.409 Y128.699 E1.51085
G1 X155.403 Y129.79 E.03421
G1 X155.071 Y131.616 E.05819
G1 X154.796 Y132.386 E.02564
G1 X154.184 Y133.575 E.04193
G1 X153.03 Y135.029 E.0582
G1 X152.424 Y135.577 E.02562
G1 X151.324 Y136.338 E.04194
G1 X128.656 Y146.699 E.78146
G1 X124.603 Y148.389 E.13768
G1 X120.489 Y149.64 E.13482
G1 X116.272 Y150.475 E.13479
G1 X112.309 Y150.871 E.12488
G1 X108.007 Y150.887 E.13489
G1 X103.729 Y150.475 E.13475
G1 X99.511 Y149.64 E.13482
G1 X95.099 Y148.281 E.14475
G1 X91.344 Y146.699 E.12776
G1 X69.082 Y136.559 E.76701
G1 X67.989 Y135.895 E.0401
G1 X66.97 Y135.029 E.04193
G1 X65.816 Y133.575 E.0582
G1 X65.204 Y132.386 E.04193
G1 X64.794 Y131.113 E.04193
G1 X64.597 Y129.79 E.04194
G1 X64.591 Y128.699 E.03421
G1 X67.953 Y80.63 E1.51085
G1 X68.127 Y79.508 E.0356
G1 X68.527 Y78.217 E.04238
G1 X69.133 Y77.009 E.04237
G1 X69.931 Y75.918 E.04238
G1 X70.854 Y75.015 E.04049
G1 E-8.75 F2400
;WIPE_START
G1 F7200
G1 X70.897 Y74.973 E-.01903
G1 X72.005 Y74.2 E-.42782
G1 X73.225 Y73.62 E-.42777
G1 X74.904 Y73.178 E-.5498
G1 X82.19 Y72.262 E-2.32558
;WIPE_END
; printing object 1调焦桶盖.STL id:0 copy 0
G1 X84.909 Y86.614 F9000
G1 E12.5 F2400
;TYPE:Perimeter
;WIDTH:0.419999
G1 F1200
G1 X87.443 Y83.919 E.11599
G1 X90.451 Y81.394 E.12314
G1 X93.623 Y79.318 E.11886
G1 X96.955 Y77.64 E.11697
G1 X100.537 Y76.33 E.11959
G1 X104.248 Y75.443 E.11963
G1 X108.037 Y74.994 E.11963
G1 X111.853 Y74.988 E.11965
G1 X115.753 Y75.444 E.12311
G1 X119.463 Y76.33 E.1196
G1 X123.047 Y77.641 E.11966
G1 X126.359 Y79.304 E.1162
G1 X129.55 Y81.395 E.11962
G1 X132.478 Y83.843 E.11966
G1 X133.205 Y84.605 E.03302
G1 X135.101 Y86.614 E.08661
G1 X137.385 Y89.671 E.11965
G1 X139.298 Y92.973 E.11965
G1 X140.815 Y96.474 E.11963
G1 X141.943 Y100.248 E.1235
G1 X142.594 Y103.954 E.11798
G1 X142.711 Y105.148 E.03762
G1 X142.814 Y107.712 E.08046
G1 X142.597 Y111.503 E.11906
G1 X141.941 Y115.262 E.11964
G1 X140.815 Y119.022 E.12306
G1 X139.347 Y122.425 E.1162
G1 X137.445 Y125.733 E.11964
G1 X135.171 Y128.798 E.11966
G1 X132.557 Y131.578 E.11965
G1 X129.55 Y134.101 E.12307
G1 X126.359 Y136.192 E.11962
G1 X122.946 Y137.899 E.11965
G1 X119.358 Y139.198 E.11964
G1 X115.752 Y140.053 E.1162
G1 X111.963 Y140.502 E.11963
G1 X111.784 Y140.509 E.00562
G1 X108.036 Y140.502 E.11752
G1 X104.248 Y140.053 E.1196
G1 X100.537 Y139.167 E.11963
G1 X96.953 Y137.856 E.11966
G1 X93.641 Y136.192 E.11621
G1 X90.45 Y134.101 E.11962
G1 X87.443 Y131.578 E.12307
G1 X84.899 Y128.882 E.11622
G1 X82.584 Y125.78 E.12136
G1 X80.702 Y122.523 E.11794
G1 X79.185 Y119.022 E.11963
G1 X78.059 Y115.262 E.12306
G1 X77.415 Y111.612 E.11621
G1 X77.187 Y107.804 E.11961
G1 X77.286 Y105.197 E.0818
G1 X77.406 Y103.954 E.03915
G1 X78.059 Y100.234 E.11842
G1 X79.185 Y96.474 E.12306
G1 X80.653 Y93.071 E.1162
G1 X82.555 Y89.763 E.11964
G1 X84.829 Y86.698 E.11966
G1 X84.867 Y86.657 E.00175
G1 X84.867 Y86.657 F9000
G1 X85.181 Y86.871
G1 F1200
G1 X87.717 Y84.177 E.11601
G1 X90.658 Y81.71 E.12036
G1 X93.83 Y79.634 E.11886
G1 X97.124 Y77.977 E.11561
G1 X100.666 Y76.684 E.11823
G1 X104.335 Y75.81 E.11826
G1 X108.214 Y75.365 E.12242
G1 X111.919 Y75.369 E.11617
G1 X115.601 Y75.799 E.11623
G1 X119.271 Y76.665 E.11823
G1 X122.817 Y77.952 E.11828
G1 X126.247 Y79.674 E.12034
G1 X129.396 Y81.75 E.11826
G1 X132.235 Y84.132 E.1162
G1 X134.827 Y86.873 E.11828
G1 X137.082 Y89.897 E.11827
G1 X138.971 Y93.161 E.11824
G1 X140.469 Y96.623 E.11827
G1 X141.572 Y100.313 E.12076
G1 X142.219 Y103.991 E.11709
G1 X142.335 Y105.182 E.03752
G1 X142.437 Y107.727 E.07986
G1 X142.221 Y111.481 E.1179
G1 X141.57 Y115.196 E.11826
G1 X140.469 Y118.873 E.12035
G1 X139.001 Y122.276 E.1162
G1 X137.118 Y125.545 E.11829
G1 X134.869 Y128.573 E.11826
G1 X132.283 Y131.319 E.11827
G1 X129.343 Y133.786 E.12034
G1 X126.247 Y135.822 E.11618
G1 X122.878 Y137.519 E.11828
G1 X119.334 Y138.812 E.11828
G1 X115.665 Y139.686 E.11826
G1 X111.784 Y140.131 E.12248
G1 X108.079 Y140.127 E.11617
G1 X104.335 Y139.686 E.1182
G1 X100.666 Y138.812 E.11826
G1 X97.183 Y137.545 E.11621
G1 X93.81 Y135.855 E.11829
G1 X90.657 Y133.786 E.11824
G1 X87.717 Y131.319 E.12034
G1 X85.173 Y128.623 E.11622
G1 X82.899 Y125.573 E.11928
G1 X81.029 Y122.335 E.11724
G1 X79.531 Y118.873 E.11827
G1 X78.43 Y115.196 E.12035
G1 X77.787 Y111.546 E.11621
G1 X77.564 Y107.782 E.11822
G1 X77.663 Y105.212 E.08064
G1 X77.781 Y103.991 E.03846
G1 X78.43 Y100.3 E.1175
G1 X79.531 Y96.623 E.12035
G1 X80.999 Y93.22 E.1162
G1 X82.882 Y89.952 E.11826
G1 X85.131 Y86.924 E.11826
G1 X85.14 Y86.914 E.00042
G1 X85.14 Y86.914 F9000
G1 X85.454 Y87.128
;TYPE:External perimeter
G1 F1200
G1 X87.991 Y84.436 E.11598
G1 X90.864 Y82.025 E.1176
G1 X94.036 Y79.949 E.11886
G1 X97.294 Y78.314 E.11429
G1 X100.795 Y77.038 E.11683
G1 X104.422 Y76.177 E.11688
G1 X108.214 Y75.742 E.11968
G1 X111.875 Y75.743 E.11479
G1 X115.557 Y76.174 E.11623
G1 X119.184 Y77.032 E.11686
G1 X122.688 Y78.306 E.1169
G1 X126.039 Y79.989 E.11758
G1 X129.154 Y82.039 E.11692
G1 X131.993 Y84.421 E.1162
G1 X134.552 Y87.132 E.11689
G1 X136.78 Y90.122 E.11691
G1 X138.645 Y93.35 E.11689
G1 X140.123 Y96.773 E.1169
G1 X141.201 Y100.379 E.11801
G1 X141.843 Y104.027 E.11614
G1 X141.96 Y105.217 E.03749
G1 X142.06 Y107.742 E.07923
G1 X141.844 Y111.459 E.11674
G1 X141.198 Y115.131 E.1169
G1 X140.123 Y118.724 E.11759
G1 X138.655 Y122.127 E.1162
G1 X136.792 Y125.356 E.11689
G1 X134.566 Y128.347 E.1169
G1 X134.248 Y128.686 E.01457
G1 X132.007 Y131.063 E.10243
G1 X129.136 Y133.471 E.11749
G1 X126.02 Y135.518 E.1169
G1 X122.708 Y137.182 E.11621
G1 X119.205 Y138.458 E.11689
G1 X115.578 Y139.319 E.11688
G1 X111.785 Y139.754 E.11971
G1 X108.123 Y139.753 E.11482
G1 X104.422 Y139.319 E.11684
G1 X100.795 Y138.458 E.11688
G1 X97.292 Y137.182 E.11689
G1 X93.98 Y135.518 E.11621
G1 X90.861 Y133.469 E.11701
G1 X87.991 Y131.06 E.11749
G1 X85.448 Y128.364 E.1162
G1 X83.214 Y125.366 E.11723
G1 X81.355 Y122.146 E.11658
G1 X79.877 Y118.724 E.11687
G1 X78.802 Y115.131 E.11759
G1 X78.158 Y111.481 E.11621
G1 X77.94 Y107.76 E.11687
G1 X78.04 Y105.227 E.07948
G1 X78.157 Y104.027 E.0378
G1 X78.802 Y100.365 E.11659
G1 X79.877 Y96.773 E.11756
G1 X81.345 Y93.369 E.11623
G1 X83.208 Y90.14 E.11689
G1 X85.415 Y87.174 E.11592
G1 E-8.75 F2400
;WIPE_START
G1 F7200
G1 X85.454 Y87.128 E-.0191
G1 X87.991 Y84.436 E-1.17138
G1 X90.864 Y82.025 E-1.18769
G1 X94.036 Y79.949 E-1.20047
G1 X94.52 Y79.706 E-.17136
;WIPE_END
G1 X73.405 Y126.68 F9000
G1 E12.5 F2400
;TYPE:Perimeter
G1 F1200
G1 X73.827 Y126.808 E.01383
G1 X74.393 Y127.153 E.02078
G1 X74.632 Y127.363 E.00998
G1 X74.998 Y127.816 E.01826
G1 X75.153 Y128.094 E.00998
G1 X75.347 Y128.643 E.01826
G1 X75.401 Y128.957 E.00999
G1 X75.401 Y129.539 E.01825
G1 X75.347 Y129.853 E.00999
G1 X75.153 Y130.402 E.01826
G1 X74.998 Y130.68 E.00998
G1 X74.632 Y131.133 E.01826
G1 X74.393 Y131.343 E.00998
G1 X73.897 Y131.649 E.01827
G1 X73.602 Y131.767 E.00996
G1 X73.033 Y131.89 E.01825
G1 X72.714 Y131.904 E.01001
G1 X72.137 Y131.83 E.01824
G1 X71.832 Y131.736 E.01001
G1 X71.313 Y131.474 E.01823
G1 X71.056 Y131.285 E.01
G1 X70.654 Y130.865 E.01823
G1 X70.475 Y130.601 E.01
G1 X70.236 Y130.07 E.01826
G1 X70.155 Y129.762 E.00999
G1 X70.106 Y129.182 E.01825
G1 X70.133 Y128.865 E.00998
G1 X70.28 Y128.301 E.01827
G1 X70.511 Y127.824 E.01662
G1 X71.056 Y127.211 E.02572
G1 X71.313 Y127.022 E.01
G1 X71.832 Y126.76 E.01823
G1 X72.135 Y126.667 E.00994
G1 X72.697 Y126.594 E.01777
G1 X73.235 Y126.629 E.0169
G1 X73.348 Y126.663 E.0037
G1 X73.299 Y127.028 F9000
G1 F1200
G1 X73.699 Y127.169 E.0133
G1 X74.195 Y127.474 E.01826
G1 X74.446 Y127.734 E.01133
G1 X74.758 Y128.133 E.01588
G1 X74.991 Y128.769 E.02124
G1 X75.024 Y128.957 E.00598
G1 X75.024 Y129.539 E.01825
G1 X74.991 Y129.728 E.00602
G1 X74.797 Y130.276 E.01823
G1 X74.339 Y130.896 E.02417
G1 X73.699 Y131.327 E.02419
G1 X72.953 Y131.521 E.02417
G1 X72.762 Y131.529 E.00599
G1 X72.185 Y131.456 E.01824
G1 X71.482 Y131.138 E.02419
G1 X71.108 Y130.794 E.01593
G1 X70.819 Y130.445 E.01421
G1 X70.579 Y129.915 E.01824
G1 X70.51 Y129.483 E.01372
G1 X70.498 Y128.96 E.0164
G1 X70.644 Y128.396 E.01827
G1 X70.88 Y127.947 E.0159
G1 X71.329 Y127.472 E.02049
G1 X71.639 Y127.28 E.01143
G1 X72.184 Y127.041 E.01866
G1 X72.745 Y126.968 E.01774
G1 X73.24 Y127.019 E.0156
G1 X73.24 Y127.019 F9000
G1 X73.189 Y127.388
;TYPE:External perimeter
G1 F1200
G1 X73.502 Y127.49 E.01032
G1 X73.997 Y127.795 E.01823
G1 X74.411 Y128.29 E.02023
G1 X74.636 Y128.894 E.02021
G1 X74.647 Y129.539 E.02023
G1 X74.442 Y130.151 E.02024
G1 X74.045 Y130.659 E.02021
G1 X73.502 Y131.006 E.0202
G1 X72.874 Y131.153 E.02022
G1 X72.233 Y131.082 E.02022
G1 X71.652 Y130.801 E.02024
G1 X71.198 Y130.343 E.02022
G1 X70.923 Y129.76 E.02021
G1 X70.857 Y129.118 E.02024
G1 X71.009 Y128.491 E.02023
G1 X71.198 Y128.153 E.01214
G1 X71.601 Y127.733 E.01825
G1 X72.172 Y127.433 E.02022
G1 X72.794 Y127.341 E.01971
G1 X73.13 Y127.379 E.0106
G1 E-8.75 F2400
;WIPE_START
G1 F7200
G1 X73.189 Y127.388 E-.0189
G1 X73.502 Y127.49 E-.10425
G1 X73.997 Y127.795 E-.18412
G1 X74.411 Y128.29 E-.20435
G1 X74.636 Y128.894 E-.20411
G1 X74.647 Y129.539 E-.20428
G1 X74.442 Y130.151 E-.20438
G1 X74.045 Y130.659 E-.20416
G1 X73.502 Y131.006 E-.20406
G1 X72.874 Y131.153 E-.20424
G1 X72.233 Y131.082 E-.20422
G1 X71.652 Y130.801 E-.20437
G1 X71.198 Y130.343 E-.20421
G1 X70.923 Y129.76 E-.20412
G1 X70.857 Y129.118 E-.20437
G1 X71.009 Y128.491 E-.2043
G1 X71.198 Y128.153 E-.12263
G1 X71.601 Y127.733 E-.18432
G1 X72.172 Y127.433 E-.20425
G1 X72.794 Y127.341 E-.19911
G1 X73.036 Y127.368 E-.07725
;WIPE_END
G1 X75.69 Y83.893 F9000
G1 E12.5 F2400
;TYPE:Perimeter
G1 F1200
G1 X75.621 Y83.884 E.00218
G1 X75.064 Y83.714 E.01826
G1 X74.78 Y83.57 E.00998
G1 X74.312 Y83.224 E.01825
G1 X74.091 Y82.994 E.01
G1 X73.766 Y82.512 E.01823
G1 X73.634 Y82.222 E.00999
G1 X73.488 Y81.658 E.01827
G1 X73.461 Y81.341 E.00998
G1 X73.51 Y80.761 E.01825
G1 X73.59 Y80.453 E.00998
G1 X73.83 Y79.922 E.01827
G1 X74.008 Y79.658 E.00998
G1 X74.411 Y79.238 E.01825
G1 X74.667 Y79.049 E.00998
G1 X75.187 Y78.786 E.01827
G1 X75.489 Y78.693 E.00991
G1 X76.051 Y78.62 E.01777
G1 X76.589 Y78.655 E.0169
G1 X76.952 Y78.766 E.0119
G1 X77.399 Y78.946 E.01511
G1 X77.768 Y79.213 E.01428
G1 X78.155 Y79.562 E.01634
G1 X78.562 Y80.241 E.02482
G1 X78.668 Y80.542 E.01001
G1 X78.767 Y81.115 E.01823
G1 X78.767 Y81.434 E.01
G1 X78.668 Y82.008 E.01826
G1 X78.562 Y82.308 E.00998
G1 X78.278 Y82.816 E.01825
G1 X78.078 Y83.064 E.00999
G1 X77.641 Y83.449 E.01826
G1 X77.37 Y83.616 E.00998
G1 X76.83 Y83.833 E.01825
G1 X76.518 Y83.9 E.01001
G1 X75.937 Y83.924 E.01823
G1 X75.75 Y83.901 E.00591
G1 X75.75 Y83.901 F9000
G1 X75.773 Y83.509
G1 F1200
G1 X75.175 Y83.353 E.01938
G1 X74.757 Y83.084 E.01559
G1 X74.404 Y82.783 E.01455
G1 X74.078 Y82.301 E.01824
G1 X73.919 Y81.818 E.01594
G1 X73.836 Y81.373 E.01419
G1 X73.886 Y80.793 E.01825
G1 X74.041 Y80.371 E.0141
G1 X74.281 Y79.919 E.01605
G1 X74.683 Y79.499 E.01823
G1 X75.017 Y79.294 E.01229
G1 X75.472 Y79.08 E.01577
G1 X76.1 Y78.994 E.01987
G1 X76.618 Y79.043 E.01631
G1 X77.247 Y79.291 E.0212
G1 X77.829 Y79.768 E.02359
G1 X77.949 Y79.917 E.006
G1 X78.233 Y80.425 E.01825
G1 X78.395 Y81.179 E.02418
G1 X78.395 Y81.37 E.00599
G1 X78.297 Y81.944 E.01826
G1 X78.097 Y82.368 E.0147
G1 X77.829 Y82.781 E.01544
G1 X77.392 Y83.166 E.01826
G1 X77.229 Y83.266 E.006
G1 X76.689 Y83.483 E.01825
G1 X76.502 Y83.523 E.006
G1 X75.921 Y83.548 E.01823
G1 X75.831 Y83.524 E.00292
G1 X75.831 Y83.524 F9000
G1 X75.849 Y83.155
;TYPE:External perimeter
G1 F1200
G1 X75.285 Y82.992 E.01841
G1 X74.76 Y82.618 E.02021
G1 X74.39 Y82.09 E.02022
G1 X74.217 Y81.468 E.02024
G1 X74.261 Y80.825 E.02021
G1 X74.517 Y80.233 E.02022
G1 X74.956 Y79.76 E.02023
G1 X75.526 Y79.46 E.0202
G1 X76.149 Y79.368 E.01975
G1 X76.549 Y79.416 E.01263
G1 X77.094 Y79.636 E.01843
G1 X77.58 Y80.051 E.02004
G1 X77.904 Y80.609 E.02023
G1 X78.023 Y81.243 E.02023
G1 X77.925 Y81.88 E.02021
G1 X77.62 Y82.448 E.02021
G1 X77.143 Y82.882 E.02022
G1 X76.549 Y83.133 E.02022
G1 X75.907 Y83.171 E.02016
G1 E-8.75 F2400
;WIPE_START
G1 F7200
G1 X75.849 Y83.155 E-.01905
G1 X75.285 Y82.992 E-.18591
G1 X74.76 Y82.618 E-.20412
G1 X74.39 Y82.09 E-.20417
G1 X74.217 Y81.468 E-.20444
G1 X74.261 Y80.825 E-.20409
G1 X74.517 Y80.233 E-.20424
G1 X74.956 Y79.76 E-.20435
G1 X75.526 Y79.46 E-.20397
G1 X76.149 Y79.368 E-.19942
G1 X76.549 Y79.416 E-.12758
G1 X77.094 Y79.636 E-.18611
G1 X77.58 Y80.051 E-.20237
G1 X77.904 Y80.609 E-.20433
G1 X78.023 Y81.243 E-.20427
G1 X77.925 Y81.88 E-.20409
G1 X77.62 Y82.448 E-.20416
G1 X77.143 Y82.882 E-.20422
G1 X76.549 Y83.133 E-.2042
G1 X75.997 Y83.166 E-.17491
;WIPE_END
G1 X141.235 Y81.41 F9000
G1 E12.5 F2400
;TYPE:Perimeter
G1 F1200
G1 X141.229 Y81.34 E.0022
G1 X141.279 Y80.76 E.01825
G1 X141.359 Y80.452 E.00998
G1 X141.599 Y79.922 E.01824
G1 X141.777 Y79.658 E.00998
G1 X142.18 Y79.238 E.01825
G1 X142.436 Y79.049 E.00998
G1 X142.956 Y78.786 E.01827
G1 X143.258 Y78.693 E.00991
G1 X143.82 Y78.62 E.01777
G1 X144.346 Y78.654 E.01653
G1 X144.706 Y78.76 E.01177
G1 X145.181 Y78.952 E.01606
G1 X145.475 Y79.158 E.01126
G1 X145.861 Y79.498 E.01613
G1 X146.075 Y79.783 E.01117
G1 X146.331 Y80.241 E.01645
G1 X146.442 Y80.569 E.01086
G1 X146.536 Y81.115 E.01737
G1 X146.536 Y81.434 E.01
G1 X146.437 Y82.008 E.01826
G1 X146.331 Y82.308 E.00998
G1 X146.047 Y82.816 E.01825
G1 X145.847 Y83.064 E.00999
G1 X145.41 Y83.449 E.01826
G1 X145.139 Y83.616 E.00998
G1 X144.599 Y83.833 E.01825
G1 X144.287 Y83.9 E.01001
G1 X143.706 Y83.924 E.01823
G1 X143.39 Y83.884 E.00999
G1 X142.833 Y83.714 E.01826
G1 X142.549 Y83.57 E.00998
G1 X142.081 Y83.224 E.01825
G1 X141.86 Y82.994 E.01
G1 X141.534 Y82.512 E.01824
G1 X141.403 Y82.221 E.01001
G1 X141.256 Y81.657 E.01827
G1 X141.24 Y81.47 E.00588
G1 X141.24 Y81.47 F9000
G1 X141.608 Y81.41
G1 F1200
G1 X141.605 Y81.372 E.0012
G1 X141.655 Y80.793 E.01822
G1 X141.942 Y80.077 E.02419
G1 X142.049 Y79.919 E.00598
G1 X142.452 Y79.499 E.01825
G1 X142.775 Y79.3 E.0119
G1 X143.24 Y79.08 E.01613
G1 X143.869 Y78.994 E.01991
G1 X144.385 Y79.043 E.01625
G1 X144.998 Y79.284 E.02065
G1 X145.226 Y79.441 E.00868
