; generated by PrusaSlicer 2.7.4+win64 on 2024-06-29 at 14:47:16 UTC

; 

; external perimeters extrusion width = 0.42mm
; perimeters extrusion width = 0.44mm
; infill extrusion width = 0.44mm
; solid infill extrusion width = 0.44mm
; top infill extrusion width = 0.40mm
; support material extrusion width = 0.36mm
; first layer extrusion width = 0.42mm

; external perimeters extrusion width = 0.42mm
; perimeters extrusion width = 0.44mm
; infill extrusion width = 0.44mm
; solid infill extrusion width = 0.44mm
; top infill extrusion width = 0.40mm
; support material extrusion width = 0.36mm
; first layer extrusion width = 0.42mm

; external perimeters extrusion width = 0.42mm
; perimeters extrusion width = 0.44mm
; infill extrusion width = 0.44mm
; solid infill extrusion width = 0.44mm
; top infill extrusion width = 0.40mm
; support material extrusion width = 0.36mm
; first layer extrusion width = 0.42mm

M201 X500 Y500 Z100 E5000 ; sets maximum accelerations, mm/sec^2
M203 X500 Y500 Z10 E60 ; sets maximum feedrates, mm / sec
M204 S500 T1000 ; sets acceleration (S) and retract acceleration (R), mm/sec^2
M205 X8.00 Y8.00 Z0.40 E5.00 ; sets the jerk limits, mm/sec
M205 S0 T0 ; sets the minimum extruding and travel feed rate, mm/sec

; printing object 1吐片钣金固定销.STL id:0 copy 0
; stop printing object 1吐片钣金固定销.STL id:0 copy 0
; printing object 1吐片钣金固定销.STL id:1 copy 0
; stop printing object 1吐片钣金固定销.STL id:1 copy 0
; printing object 2吐片钣金连接件.STL id:2 copy 0
; stop printing object 2吐片钣金连接件.STL id:2 copy 0

;TYPE:Custom
G90 ; use absolute coordinates
M83 ; extruder relative mode
M104 S150 ; set temporary nozzle temp to prevent oozing during homing
M140 S60 ; set final bed temp
G4 S30 ; allow partial nozzle warmup
G28 ; home all axis
G1 Z50 F240
G1 X2.0 Y10 F3000
M104 S205 ; set final nozzle temp
M190 S60 ; wait for bed temp to stabilize
M109 S205 ; wait for nozzle temp to stabilize
G1 Z0.28 F240
G92 E0
G1 X2.0 Y140 E10 F1500 ; prime the nozzle
G1 X2.3 Y140 F5000
G92 E0
G1 X2.3 Y10 E10 F1200 ; prime the nozzle
G92 E0
G21 ; set units to millimeters
G90 ; use absolute coordinates
M83 ; use relative distances for extrusion
; Filament gcode
M107
;LAYER_CHANGE
;Z:0.2
;HEIGHT:0.2
G1 E-12.5 F2700
G1 Z.2 F9000
G1 X63.429 Y93.011
G1 Z.2
G1 E12.5 F2400
M204 S500
;TYPE:Skirt/Brim
;WIDTH:0.42
G1 F1200
G1 X106.006 Y70.635 E1.5081
G1 X107.001 Y70.176 E.03436
G1 X108.047 Y69.852 E.03433
G1 X109.126 Y69.666 E.03433
G1 X110.221 Y69.624 E.03436
G1 X111.311 Y69.724 E.03432
G1 X112.38 Y69.966 E.03437
G1 X114.071 Y70.674 E.05748
G1 X156.571 Y93.011 E1.5054
G1 X157.789 Y94.096 E.05114
G1 X158.377 Y96 E.06248
G1 X158.377 Y124 E.87792
G1 X157.983 Y125.583 E.05115
G1 X156.571 Y126.989 E.06248
G1 X113.994 Y149.365 E1.5081
G1 X113.019 Y149.815 E.03367
G1 X111.953 Y150.148 E.03502
G1 X110.874 Y150.334 E.03433
G1 X109.779 Y150.376 E.03436
G1 X108.689 Y150.276 E.03432
G1 X107.62 Y150.034 E.03437
G1 X105.941 Y149.332 E.05706
G1 X63.429 Y126.989 E1.50582
G1 X62.211 Y125.904 E.05114
G1 X61.623 Y124 E.06248
G1 X61.623 Y96 E.87792
G1 X62.017 Y94.417 E.05115
G1 X63.386 Y93.053 E.06059
G1 E-8.75 F2700
;WIPE_START
G1 F7200
G1 X63.429 Y93.011 E-.02141
G1 X72.694 Y88.142 E-3.72859
;WIPE_END
; printing object 1吐片钣金固定销.STL id:1 copy 0
G1 X106.592 Y77.066 F9000
G1 E12.5 F2400
;TYPE:Perimeter
;WIDTH:0.465358
G1 F1200
G1 X106.783 Y76.542 E.01959
;WIDTH:0.462243
G1 X107.072 Y76.027 E.02059
;WIDTH:0.466024
G1 X107.512 Y75.486 E.02453
G1 X107.901 Y75.155 E.01797
;WIDTH:0.463265
G1 X108.358 Y74.87 E.01882
;WIDTH:0.460815
G1 X108.845 Y74.66 E.01843
;WIDTH:0.473968
G1 X109.554 Y74.494 E.0261
G1 X110.104 Y74.466 E.01974
;WIDTH:0.463262
G1 X110.731 Y74.542 E.02208
;WIDTH:0.465555
G1 X111.364 Y74.736 E.02327
G1 X111.849 Y74.987 E.01919
;WIDTH:0.462466
G1 X112.272 Y75.294 E.01823
;WIDTH:0.460383
G1 X112.651 Y75.665 E.01841
;WIDTH:0.46026
G1 X112.97 Y76.088 E.01839
;WIDTH:0.462212
G1 X113.223 Y76.554 E.01849
;WIDTH:0.465357
G1 X113.408 Y77.066 E.01912
;WIDTH:0.466385
G1 X113.503 Y77.546 E.01723
;WIDTH:0.467864
G1 X113.535 Y78.048 E.01777
;WIDTH:0.474221
G1 X113.545 Y78.91 E.03092
;WIDTH:0.44711
G1 X113.559 Y79.27 E.01211
;WIDTH:0.419999
G1 X113.559 Y84.644 E.1685
G1 X113.54 Y85.226 E.01826
G1 X113.435 Y85.914 E.02182
G1 X113.182 Y86.563 E.02184
G1 X112.821 Y87.158 E.02182
G1 X112.339 Y87.661 E.02184
G1 X111.778 Y88.073 E.02182
G1 X111.14 Y88.353 E.02185
G1 X110.464 Y88.519 E.02183
G1 X109.768 Y88.534 E.02183
G1 X109.08 Y88.428 E.02183
G1 X108.431 Y88.176 E.02183
G1 X107.835 Y87.814 E.02186
G1 X107.332 Y87.333 E.02182
G1 X106.921 Y86.771 E.02183
G1 X106.64 Y86.134 E.02183
G1 X106.475 Y85.458 E.02182
G1 X106.441 Y84.946 E.01609
G1 X106.441 Y79.429 E.17298
;WIDTH:0.425863
G1 X106.444 Y78.852 E.01837
;WIDTH:0.472881
G1 X106.484 Y77.708 E.04092
;WIDTH:0.465358
G1 X106.582 Y77.125 E.02077
G1 X106.582 Y77.125 F9000
G1 X106.213 Y76.938
;WIDTH:0.419999
G1 F1200
G1 X106.384 Y76.452 E.01615
G1 X106.616 Y75.994 E.0161
G1 X106.906 Y75.569 E.01613
G1 X107.249 Y75.186 E.01612
G1 X107.639 Y74.851 E.01612
G1 X108.069 Y74.569 E.01612
G1 X108.533 Y74.347 E.01613
G1 X109.022 Y74.186 E.01614
G1 X109.527 Y74.091 E.01611
G1 X110.04 Y74.063 E.01611
G1 X110.553 Y74.101 E.01613
G1 X111.056 Y74.207 E.01612
G1 X111.541 Y74.377 E.01611
G1 X112 Y74.609 E.01613
G1 X112.425 Y74.899 E.01613
G1 X112.808 Y75.242 E.01612
G1 X113.143 Y75.632 E.01612
G1 X113.424 Y76.063 E.01613
G1 X113.647 Y76.526 E.01611
G1 X113.807 Y77.015 E.01613
G1 X113.903 Y77.52 E.01612
G1 X113.936 Y78.048 E.01659
G1 X113.936 Y84.959 E.21669
G1 X113.9 Y85.507 E.01722
G1 X113.8 Y86.012 E.01614
G1 X113.634 Y86.499 E.01613
G1 X113.407 Y86.96 E.01611
G1 X113.121 Y87.388 E.01614
G1 X112.781 Y87.775 E.01615
G1 X112.395 Y88.114 E.01611
G1 X111.967 Y88.4 E.01614
G1 X111.505 Y88.628 E.01615
G1 X111.018 Y88.793 E.01612
G1 X110.513 Y88.893 E.01614
G1 X110 Y88.927 E.01612
G1 X109.487 Y88.893 E.01612
G1 X108.982 Y88.793 E.01614
G1 X108.495 Y88.628 E.01612
G1 X108.033 Y88.4 E.01615
G1 X107.605 Y88.114 E.01614
G1 X107.219 Y87.775 E.01611
G1 X106.879 Y87.388 E.01615
G1 X106.593 Y86.96 E.01614
G1 X106.366 Y86.499 E.01611
G1 X106.2 Y86.012 E.01613
G1 X106.1 Y85.507 E.01614
G1 X106.064 Y84.959 E.01722
G1 X106.07 Y77.944 E.21995
G1 X106.108 Y77.441 E.01582
G1 X106.201 Y76.996 E.01425
G1 X106.201 Y76.996 F9000
G1 X105.856 Y76.816
G1 F1200
G1 X106.045 Y76.286 E.01764
G1 X106.302 Y75.784 E.01768
G1 X106.622 Y75.32 E.01767
G1 X107 Y74.902 E.01767
G1 X107.47 Y74.51 E.01919
G1 X107.902 Y74.231 E.01612
G1 X108.454 Y73.975 E.01908
G1 X108.948 Y73.816 E.01627
G1 X109.502 Y73.715 E.01766
G1 X110.065 Y73.686 E.01768
G1 X110.626 Y73.732 E.01765
G1 X111.177 Y73.85 E.01767
G1 X111.708 Y74.039 E.01767
G1 X112.209 Y74.296 E.01765
G1 X112.673 Y74.616 E.01767
G1 X113.091 Y74.994 E.01767
G1 X113.457 Y75.423 E.01768
G1 X113.779 Y75.93 E.01883
G1 X114.004 Y76.405 E.01648
G1 X114.184 Y76.973 E.01868
G1 X114.279 Y77.496 E.01667
G1 X114.313 Y78.048 E.01734
G1 X114.313 Y84.971 E.21707
G1 X114.275 Y85.556 E.01838
G1 X114.165 Y86.109 E.01768
G1 X113.983 Y86.643 E.01769
G1 X113.734 Y87.149 E.01768
G1 X113.42 Y87.618 E.0177
G1 X113.049 Y88.042 E.01766
G1 X112.625 Y88.414 E.01769
G1 X112.156 Y88.727 E.01768
G1 X111.65 Y88.977 E.0177
G1 X111.116 Y89.158 E.01768
G1 X110.563 Y89.268 E.01768
G1 X110 Y89.305 E.01769
G1 X109.437 Y89.268 E.01769
G1 X108.884 Y89.158 E.01768
G1 X108.35 Y88.977 E.01768
G1 X107.844 Y88.727 E.0177
G1 X107.375 Y88.414 E.01768
G1 X106.951 Y88.042 E.01769
G1 X106.58 Y87.618 E.01766
G1 X106.266 Y87.149 E.0177
G1 X106.017 Y86.643 E.01768
G1 X105.835 Y86.109 E.01769
G1 X105.725 Y85.556 E.01768
G1 X105.687 Y84.971 E.01838
G1 X105.693 Y77.92 E.22108
G1 X105.738 Y77.367 E.0174
G1 X105.844 Y76.875 E.01578
G1 X105.844 Y76.875 F9000
G1 X105.499 Y76.695
;TYPE:External perimeter
G1 F1200
G1 X105.75 Y76.032 E.02223
G1 X106.073 Y75.449 E.0209
G1 X106.399 Y75.003 E.01732
G1 X106.751 Y74.619 E.01633
G1 X107.261 Y74.196 E.02078
G1 X107.849 Y73.837 E.0216
G1 X108.332 Y73.618 E.01663
G1 X108.874 Y73.446 E.01783
G1 X109.62 Y73.329 E.02368
G1 X110.18 Y73.316 E.01756
G1 X110.7 Y73.362 E.01637
G1 X111.298 Y73.493 E.01919
G1 X111.875 Y73.701 E.01923
G1 X112.489 Y74.029 E.02183
G1 X113.031 Y74.428 E.0211
G1 X113.427 Y74.805 E.01714
G1 X113.77 Y75.213 E.01671
G1 X114.117 Y75.763 E.02039
G1 X114.4 Y76.397 E.02177
G1 X114.553 Y76.9 E.01648
G1 X114.655 Y77.471 E.01819
G1 X114.69 Y78.048 E.01812
G1 X114.69 Y84.983 E.21744
G1 X114.649 Y85.606 E.01958
G1 X114.53 Y86.207 E.01921
G1 X114.332 Y86.788 E.01925
G1 X114.061 Y87.338 E.01922
G1 X113.72 Y87.848 E.01924
G1 X113.316 Y88.309 E.01922
G1 X112.855 Y88.714 E.01924
G1 X112.345 Y89.055 E.01924
G1 X111.795 Y89.326 E.01922
G1 X111.214 Y89.523 E.01924
G1 X110.612 Y89.643 E.01925
G1 X110 Y89.683 E.01923
G1 X109.388 Y89.643 E.01923
G1 X108.786 Y89.523 E.01925
G1 X108.205 Y89.326 E.01924
G1 X107.655 Y89.055 E.01922
G1 X107.145 Y88.714 E.01924
G1 X106.684 Y88.309 E.01924
G1 X106.28 Y87.848 E.01922
G1 X105.939 Y87.338 E.01924
G1 X105.668 Y86.788 E.01922
G1 X105.47 Y86.207 E.01925
G1 X105.351 Y85.606 E.01921
G1 X105.31 Y84.983 E.01958
G1 X105.317 Y77.895 E.22224
G1 X105.368 Y77.294 E.01891
G1 X105.486 Y76.754 E.01733
G1 E-8.75 F2700
;WIPE_START
G1 F7200
G1 X105.499 Y76.695 E-.02152
G1 X105.75 Y76.032 E-.25255
G1 X106.073 Y75.449 E-.23744
G1 X106.399 Y75.003 E-.19681
G1 X106.751 Y74.619 E-.18558
G1 X107.261 Y74.196 E-.23605
G1 X107.849 Y73.837 E-.24543
G1 X108.332 Y73.618 E-.18893
G1 X108.874 Y73.446 E-.20258
G1 X109.62 Y73.329 E-.26901
G1 X110.18 Y73.316 E-.19955
G1 X110.7 Y73.362 E-.18597
G1 X111.298 Y73.493 E-.21809
G1 X111.875 Y73.701 E-.2185
G1 X112.489 Y74.029 E-.24799
G1 X113.031 Y74.428 E-.23977
G1 X113.427 Y74.805 E-.19478
G1 X113.77 Y75.213 E-.18989
G1 X113.799 Y75.259 E-.01956
;WIPE_END
G1 X107.264 Y79.408 F9000
G1 E12.5 F2400
;TYPE:Perimeter
G1 F1200
G1 X107.193 Y79.283 E.00451
;WIDTH:0.425863
G1 X107.013 Y78.791 E.01668
;WIDTH:0.454933
G1 X106.962 Y78.622 E.00605
;WIDTH:0.484003
G1 X106.911 Y78.452 E.00651
G1 X106.893 Y77.831 E.02279
;WIDTH:0.463705
G1 X106.985 Y77.227 E.02138
G1 X107.153 Y76.74 E.01802
;WIDTH:0.463967
G1 X107.308 Y76.432 E.01207
G1 X107.663 Y75.94 E.02124
;WIDTH:0.46379
G1 X108.101 Y75.528 E.02104
G1 X108.543 Y75.245 E.01837
;WIDTH:0.460815
G1 X108.979 Y75.054 E.01654
;WIDTH:0.473968
G1 X109.605 Y74.922 E.02293
G1 X110.075 Y74.886 E.01689
;WIDTH:0.463262
G1 X110.637 Y74.95 E.01977
;WIDTH:0.463386
G1 X111.143 Y75.1 E.01845
G1 X111.609 Y75.332 E.0182
;WIDTH:0.462455
G1 X112.041 Y75.647 E.01865
;WIDTH:0.462329
G1 X112.408 Y76.026 E.0184
;WIDTH:0.46357
G1 X112.707 Y76.461 E.01846
G1 X112.926 Y76.94 E.01842
;WIDTH:0.461605
G1 X113.062 Y77.45 E.01838
;WIDTH:0.464399
G1 X113.111 Y77.975 E.01848
;WIDTH:0.474221
G1 X113.074 Y78.502 E.01895
G1 X112.973 Y78.804 E.01142
;WIDTH:0.44711
G1 X112.873 Y79.107 E.01072
;WIDTH:0.419999
G1 X112.603 Y79.641 E.01876
G1 X112.217 Y80.145 E.0199
G1 X111.821 Y80.488 E.01643
G1 X111.373 Y80.76 E.01643
G1 X110.886 Y80.953 E.01642
G1 X110.167 Y81.074 E.02286
G1 X109.833 Y81.074 E.01047
G1 X109.114 Y80.953 E.02286
G1 X108.627 Y80.76 E.01642
G1 X108.179 Y80.488 E.01643
G1 X107.783 Y80.145 E.01643
G1 X107.452 Y79.739 E.01642
G1 X107.293 Y79.46 E.01007
G1 X107.293 Y79.46 F9000
G1 X107.593 Y79.229
G1 F1200
G1 X107.543 Y79.143 E.00312
G1 X107.384 Y78.711 E.01443
G1 X107.301 Y78.259 E.01441
G1 X107.315 Y77.638 E.01948
G1 X107.454 Y77.057 E.01873
G1 X107.66 Y76.62 E.01515
G1 X107.961 Y76.201 E.01618
G1 X108.334 Y75.851 E.01604
G1 X108.748 Y75.588 E.01538
G1 X109.247 Y75.394 E.01679
G1 X109.815 Y75.295 E.01808
G1 X110.368 Y75.307 E.01734
G1 X110.893 Y75.43 E.01691
G1 X111.349 Y75.638 E.01571
G1 X111.765 Y75.934 E.01601
G1 X112.142 Y76.336 E.01728
G1 X112.351 Y76.64 E.01157
G1 X112.546 Y77.057 E.01443
G1 X112.685 Y77.638 E.01873
G1 X112.699 Y78.259 E.01948
G1 X112.616 Y78.711 E.01441
G1 X112.266 Y79.471 E.02623
G1 X111.934 Y79.896 E.01691
G1 X111.452 Y80.285 E.01942
G1 X111.044 Y80.497 E.01442
G1 X110.566 Y80.643 E.01567
G1 X110 Y80.708 E.01786
G1 X109.434 Y80.643 E.01786
G1 X108.956 Y80.497 E.01567
G1 X108.416 Y80.195 E.0194
G1 X108.066 Y79.896 E.01443
G1 X107.773 Y79.541 E.01443
G1 X107.623 Y79.281 E.00941
G1 X107.623 Y79.281 F9000
G1 X107.92 Y79.048
G1 F1200
G1 X107.893 Y79.002 E.00167
G1 X107.753 Y78.632 E.0124
G1 X107.677 Y78.243 E.01243
G1 X107.689 Y77.686 E.01747
G1 X107.815 Y77.167 E.01675
G1 X107.992 Y76.798 E.01283
G1 X108.336 Y76.359 E.01749
G1 X108.57 Y76.146 E.00992
G1 X108.903 Y75.931 E.01243
G1 X109.312 Y75.766 E.01383
G1 X109.88 Y75.666 E.01808
G1 X110.41 Y75.692 E.01664
G1 X110.864 Y75.826 E.01484
G1 X111.181 Y75.978 E.01102
G1 X111.505 Y76.207 E.01244
G1 X111.839 Y76.56 E.01524
G1 X112.149 Y77.078 E.01893
G1 X112.293 Y77.548 E.01541
G1 X112.333 Y78.006 E.01441
G1 X112.31 Y78.338 E.01043
G1 X112.199 Y78.767 E.01389
G1 X111.93 Y79.302 E.01878
G1 X111.581 Y79.713 E.01691
G1 X111.268 Y79.955 E.01241
G1 X110.918 Y80.141 E.01243
G1 X110.518 Y80.269 E.01317
G1 X110 Y80.331 E.01636
G1 X109.482 Y80.269 E.01636
G1 X108.994 Y80.102 E.01617
G1 X108.652 Y79.902 E.01242
G1 X108.349 Y79.646 E.01244
G1 X108.094 Y79.344 E.01239
G1 X107.95 Y79.099 E.00891
G1 X107.95 Y79.099 F9000
G1 X108.243 Y78.862
;TYPE:External perimeter
G1 F1200
G1 X108.121 Y78.552 E.01045
G1 X108.044 Y77.99 E.01779
G1 X108.097 Y77.534 E.01439
G1 X108.188 Y77.248 E.00941
G1 X108.325 Y76.976 E.00955
G1 X108.597 Y76.632 E.01375
G1 X109.03 Y76.29 E.0173
G1 X109.377 Y76.137 E.01189
G1 X109.945 Y76.038 E.01808
G1 X110.347 Y76.065 E.01263
G1 X110.709 Y76.169 E.01181
G1 X111.219 Y76.459 E.0184
G1 X111.536 Y76.784 E.01423
G1 X111.812 Y77.248 E.01693
G1 X111.937 Y77.734 E.01573
G1 X111.943 Y78.251 E.01621
G1 X111.863 Y78.597 E.01113
G1 X111.593 Y79.132 E.01879
G1 X111.344 Y79.419 E.01191
G1 X111.084 Y79.626 E.01042
G1 X110.793 Y79.786 E.01041
G1 X110.47 Y79.895 E.01069
G1 X109.976 Y79.952 E.01559
G1 X109.491 Y79.886 E.01535
G1 X109.178 Y79.773 E.01043
G1 X108.889 Y79.608 E.01043
G1 X108.632 Y79.397 E.01043
G1 X108.415 Y79.146 E.0104
G1 X108.274 Y78.913 E.00854
G1 E-8.75 F2700
;WIPE_START
G1 F7200
G1 X108.243 Y78.862 E-.02126
G1 X108.121 Y78.552 E-.11868
G1 X108.044 Y77.99 E-.20208
G1 X108.097 Y77.534 E-.16354
G1 X108.188 Y77.248 E-.10692
G1 X108.325 Y76.976 E-.1085
G1 X108.597 Y76.632 E-.15623
G1 X109.03 Y76.29 E-.19657
G1 X109.377 Y76.137 E-.1351
G1 X109.945 Y76.038 E-.2054
G1 X110.347 Y76.065 E-.14354
G1 X110.709 Y76.169 E-.13418
G1 X111.219 Y76.459 E-.20901
G1 X111.536 Y76.784 E-.16174
G1 X111.812 Y77.248 E-.19233
G1 X111.937 Y77.734 E-.17877
G1 X111.943 Y78.251 E-.18419
G1 X111.863 Y78.597 E-.12651
G1 X111.593 Y79.132 E-.21349
G1 X111.344 Y79.419 E-.13536
G1 X111.084 Y79.626 E-.1184
G1 X110.793 Y79.786 E-.11831
G1 X110.47 Y79.895 E-.12144
G1 X109.976 Y79.952 E-.17716
G1 X109.638 Y79.906 E-.12129
;WIPE_END
G1 X113.438 Y79.58 F9000
G1 E12.5 F2400
;TYPE:Solid infill
;WIDTH:0.423823
G1 F1200
G1 X113.12 Y79.261 E.01427
G1 X112.939 Y79.619 E.01271
G1 X113.268 Y79.949 E.01476
G1 X113.268 Y80.487 E.01704
G1 X112.738 Y79.957 E.02374
G1 X112.637 Y80.108 E.00575
G1 X112.497 Y80.254 E.00641
G1 X113.268 Y81.026 E.03456
G1 X113.268 Y81.565 E.01707
G1 X112.233 Y80.529 E.04638
G1 X111.924 Y80.759 E.0122
G1 X113.268 Y82.103 E.0602
G1 X113.268 Y82.642 E.01707
G1 X111.589 Y80.963 E.0752
G1 X111.228 Y81.14 E.01273
G1 X113.268 Y83.181 E.0914
G1 X113.268 Y83.719 E.01704
G1 X110.816 Y81.267 E.10983
G1 X110.654 Y81.305 E.00527
G1 X110.349 Y81.338 E.00972
G1 X113.268 Y84.258 E.13077
G1 X113.268 Y84.797 E.01707
G1 X109.829 Y81.357 E.15406
G1 X109.346 Y81.305 E.01539
G1 X109.205 Y81.272 E.00459
G1 X113.244 Y85.311 E.18091
G1 X113.167 Y85.772 E.0148
G1 X106.732 Y79.337 E.28823
G1 X106.732 Y79.876 E.01707
G1 X113.037 Y86.181 E.28241
G1 X112.865 Y86.548 E.01284
G1 X106.732 Y80.415 E.2747
G1 X106.732 Y80.953 E.01704
G1 X112.658 Y86.88 E.26546
G1 X112.417 Y87.178 E.01214
G1 X106.732 Y81.492 E.25466
G1 X106.732 Y82.031 E.01707
G1 X112.146 Y87.445 E.2425
G1 X111.843 Y87.68 E.01214
G1 X106.732 Y82.569 E.22893
G1 X106.732 Y83.108 E.01707
G1 X111.507 Y87.883 E.21388
