; generated by PrusaSlicer 2.7.4+win64 on 2024-06-30 at 05:07:35 UTC

; 

; external perimeters extrusion width = 0.42mm
; perimeters extrusion width = 0.44mm
; infill extrusion width = 0.44mm
; solid infill extrusion width = 0.44mm
; top infill extrusion width = 0.40mm
; support material extrusion width = 0.36mm
; first layer extrusion width = 0.42mm

M201 X500 Y500 Z100 E5000 ; sets maximum accelerations, mm/sec^2
M203 X500 Y500 Z10 E60 ; sets maximum feedrates, mm / sec
M204 S500 T1000 ; sets acceleration (S) and retract acceleration (R), mm/sec^2
M205 X8.00 Y8.00 Z0.40 E5.00 ; sets the jerk limits, mm/sec
M205 S0 T0 ; sets the minimum extruding and travel feed rate, mm/sec

; printing object 2吐片钣金连接件.STL id:0 copy 0
; stop printing object 2吐片钣金连接件.STL id:0 copy 0

;TYPE:Custom
G90 ; use absolute coordinates
M83 ; extruder relative mode
M104 S150 ; set temporary nozzle temp to prevent oozing during homing
M140 S60 ; set final bed temp
G4 S30 ; allow partial nozzle warmup
G28 ; home all axis
G1 Z50 F240
G1 X2.0 Y10 F3000
M104 S205 ; set final nozzle temp
M190 S60 ; wait for bed temp to stabilize
M109 S205 ; wait for nozzle temp to stabilize
G1 Z0.28 F240
G92 E0
G1 X2.0 Y140 E10 F1500 ; prime the nozzle
G1 X2.3 Y140 F5000
G92 E0
G1 X2.3 Y10 E10 F1200 ; prime the nozzle
G92 E0
G21 ; set units to millimeters
G90 ; use absolute coordinates
M83 ; use relative distances for extrusion
; Filament gcode
M107
;LAYER_CHANGE
;Z:0.2
;HEIGHT:0.2
G1 E-12.5 F2700
G1 Z.2 F9000
G1 X68.195 Y93.432
G1 Z.2
G1 E12.5 F2400
M204 S500
;TYPE:Skirt/Brim
;WIDTH:0.42
G1 F1200
G1 X68.301 Y93.355 E.00411
G1 X69.09 Y92.978 E.02742
G1 X69.899 Y92.741 E.02643
G1 X70.99 Y92.624 E.0344
G1 X149.265 Y92.633 E2.45426
G1 X150.101 Y92.741 E.02643
G1 X150.884 Y92.969 E.02557
G1 X151.916 Y93.488 E.03622
G1 X152.982 Y94.393 E.04384
G1 X153.661 Y95.328 E.03623
G1 X154.114 Y96.339 E.03474
G1 X158.212 Y108.957 E.41597
G1 X158.377 Y110 E.03311
G1 X158.377 Y124 E.43896
G1 X157.983 Y125.583 E.05115
G1 X156.893 Y126.797 E.05116
G1 X155 Y127.377 E.06208
G1 X65 Y127.377 E2.82189
G1 X63.417 Y126.983 E.05115
G1 X62.203 Y125.893 E.05116
G1 X61.623 Y124 E.06208
G1 X61.623 Y110 E.43896
G1 X61.788 Y108.957 E.03311
G1 X66.094 Y95.809 E.43379
G1 X66.503 Y95.06 E.02676
G1 X67.393 Y94.018 E.04297
G1 X68.147 Y93.467 E.02928
G1 E-8.75 F2700
;WIPE_START
G1 F7200
G1 X68.195 Y93.432 E-.02116
G1 X68.301 Y93.355 E-.04667
G1 X69.09 Y92.978 E-.31152
G1 X69.899 Y92.741 E-.30032
G1 X70.99 Y92.624 E-.3909
G1 X78.511 Y92.625 E-2.67943
;WIPE_END
; printing object 2吐片钣金连接件.STL id:0 copy 0
G1 X84.833 Y100.538 F9000
G1 E12.5 F2400
;TYPE:Perimeter
;WIDTH:0.419999
G1 F1200
G1 X84.979 Y100.564 E.00465
G1 X89.221 Y100.564 E.133
G1 X89.344 Y100.556 E.00386
G1 X89.66 Y100.456 E.01039
G1 X89.904 Y100.271 E.0096
G1 X90.09 Y99.989 E.01059
G1 X90.164 Y99.621 E.01177
G1 X90.164 Y97.064 E.08017
G1 X129.836 Y97.064 E1.24389
G1 X129.836 Y99.621 E.08017
G1 X129.86 Y99.832 E.00666
G1 X129.97 Y100.106 E.00926
G1 X130.141 Y100.315 E.00847
G1 X130.433 Y100.499 E.01082
G1 X130.779 Y100.564 E.01104
G1 X134.688 Y100.564 E.12256
G1 X135.194 Y100.548 E.01587
G1 X135.547 Y100.404 E.01195
G1 X135.763 Y100.203 E.00925
G1 X135.908 Y99.941 E.00939
G1 X135.964 Y99.621 E.01019
G1 X135.964 Y97.064 E.08017
G1 X148.835 Y97.064 E.40356
G1 X149.286 Y97.122 E.01426
G1 X149.541 Y97.252 E.00897
G1 X149.748 Y97.457 E.00913
G1 X149.878 Y97.714 E.00903
G1 X149.936 Y98.079 E.01159
G1 X149.936 Y107.444 E.29363
G1 X149.956 Y108.297 E.02675
G1 X150.065 Y108.876 E.01847
G1 X150.239 Y109.324 E.01507
G1 X150.467 Y109.72 E.01433
G1 X150.783 Y110.113 E.01581
G1 X151.141 Y110.433 E.01506
G1 X151.544 Y110.694 E.01505
G1 X151.984 Y110.889 E.01509
G1 X152.448 Y111.012 E.01505
G1 X152.995 Y111.064 E.01723
G1 X153.936 Y111.064 E.0295
G1 X153.936 Y112.005 E.0295
G1 X153.936 Y122.936 E.34273
G1 X66.064 Y122.936 E2.75516
G1 X66.064 Y111.064 E.37224
G1 X67.406 Y111.036 E.04209
G1 X67.876 Y110.935 E.01507
G1 X68.324 Y110.762 E.01506
G1 X68.74 Y110.52 E.01509
G1 X69.113 Y110.217 E.01507
G1 X69.433 Y109.859 E.01506
G1 X69.694 Y109.456 E.01505
G1 X69.889 Y109.016 E.01509
G1 X70.012 Y108.552 E.01505
G1 X70.064 Y108.005 E.01723
G1 X70.064 Y98.165 E.30853
G1 X70.122 Y97.714 E.01426
G1 X70.253 Y97.457 E.00904
G1 X70.457 Y97.253 E.00905
G1 X70.714 Y97.122 E.00904
G1 X71.079 Y97.064 E.01159
G1 X84.036 Y97.064 E.40626
G1 X84.036 Y99.057 E.06249
G1 X84.067 Y99.86 E.0252
G1 X84.195 Y100.145 E.0098
G1 X84.403 Y100.368 E.00956
G1 X84.654 Y100.507 E.009
G1 X84.774 Y100.528 E.00382
G1 X84.774 Y100.528 F9000
G1 X84.893 Y100.166
G1 F1200
G1 X84.979 Y100.187 E.00278
G1 X89.221 Y100.187 E.133
G1 X89.295 Y100.182 E.00233
G1 X89.532 Y100.094 E.00793
G1 X89.707 Y99.912 E.00792
G1 X89.787 Y99.621 E.00946
G1 X89.787 Y96.687 E.09199
G1 X130.213 Y96.687 E1.26753
G1 X130.213 Y99.621 E.09199
G1 X130.227 Y99.748 E.00401
G1 X130.329 Y99.964 E.00749
G1 X130.515 Y100.122 E.00765
G1 X130.779 Y100.187 E.00852
G1 X135.073 Y100.185 E.13464
G1 X135.337 Y100.091 E.00879
G1 X135.519 Y99.89 E.0085
G1 X135.587 Y99.621 E.0087
G1 X135.587 Y96.687 E.09199
G1 X148.835 Y96.687 E.41538
G1 X149.404 Y96.759 E.01798
G1 X149.765 Y96.943 E.0127
G1 X150.056 Y97.233 E.01288
G1 X150.242 Y97.596 E.01279
G1 X150.313 Y98.049 E.01438
G1 X150.313 Y108.005 E.31216
G1 X150.354 Y108.464 E.01445
G1 X150.497 Y108.962 E.01625
G1 X150.789 Y109.523 E.01983
G1 X151.07 Y109.868 E.01395
G1 X151.385 Y110.147 E.01319
G1 X151.741 Y110.373 E.01322
G1 X152.128 Y110.541 E.01323
G1 X152.536 Y110.646 E.01321
G1 X152.995 Y110.687 E.01445
G1 X154.313 Y110.687 E.04132
G1 X154.313 Y112.005 E.04132
G1 X154.313 Y123.313 E.35455
G1 X65.687 Y123.313 E2.7788
G1 X65.687 Y110.687 E.39588
G1 X67.005 Y110.687 E.04132
G1 X67.376 Y110.66 E.01166
G1 X67.788 Y110.568 E.01324
G1 X68.18 Y110.413 E.01322
G1 X68.543 Y110.199 E.01321
G1 X68.868 Y109.93 E.01323
G1 X69.147 Y109.615 E.01319
G1 X69.373 Y109.259 E.01322
G1 X69.541 Y108.872 E.01323
G1 X69.646 Y108.464 E.01321
G1 X69.687 Y108.005 E.01445
G1 X69.687 Y98.165 E.30853
G1 X69.758 Y97.596 E.01798
G1 X69.944 Y97.233 E.01279
G1 X70.233 Y96.944 E.01281
G1 X70.596 Y96.758 E.01279
G1 X71.049 Y96.687 E.01438
G1 X84.413 Y96.687 E.41902
G1 X84.416 Y99.677 E.09375
G1 X84.508 Y99.936 E.00862
G1 X84.714 Y100.121 E.00868
G1 X84.835 Y100.151 E.00391
G1 X84.835 Y100.151 F9000
G1 X84.979 Y99.81
;TYPE:External perimeter
G1 F1200
G1 X89.221 Y99.81 E.133
G1 X89.338 Y99.77 E.00388
G1 X89.41 Y99.621 E.00519
G1 X89.41 Y96.31 E.10381
G1 X130.59 Y96.31 E1.29117
G1 X130.59 Y99.621 E.10381
G1 X130.635 Y99.743 E.00408
G1 X130.779 Y99.81 E.00498
G1 X135.021 Y99.81 E.133
G1 X135.139 Y99.769 E.00392
G1 X135.21 Y99.621 E.00515
G1 X135.21 Y96.31 E.10381
G1 X148.98 Y96.31 E.43175
G1 X149.521 Y96.395 E.01717
G1 X149.99 Y96.634 E.0165
G1 X150.365 Y97.008 E.01661
G1 X150.605 Y97.479 E.01657
G1 X150.69 Y98.02 E.01717
G1 X150.69 Y107.444 E.29548
G1 X150.716 Y108.347 E.02832
G1 X150.845 Y108.817 E.01528
G1 X151.11 Y109.326 E.01799
G1 X151.356 Y109.623 E.01209
G1 X151.63 Y109.86 E.01136
G1 X151.938 Y110.051 E.01136
G1 X152.272 Y110.192 E.01137
G1 X152.624 Y110.279 E.01137
G1 X152.995 Y110.31 E.01167
G1 X154.69 Y110.31 E.05315
G1 X154.69 Y112.005 E.05315
G1 X154.69 Y123.69 E.36637
G1 X65.31 Y123.69 E2.80244
G1 X65.31 Y110.31 E.41952
G1 X67.005 Y110.31 E.05315
G1 X67.347 Y110.284 E.01075
G1 X67.7 Y110.201 E.01137
G1 X68.035 Y110.065 E.01134
G1 X68.346 Y109.877 E.01139
G1 X68.623 Y109.644 E.01135
G1 X68.86 Y109.37 E.01136
G1 X69.06 Y109.047 E.01191
G1 X69.233 Y108.567 E.016
G1 X69.31 Y108.005 E.01779
G1 X69.31 Y98.02 E.31307
G1 X69.395 Y97.479 E.01717
G1 X69.635 Y97.008 E.01657
G1 X70.008 Y96.635 E.01654
G1 X70.479 Y96.395 E.01657
G1 X71.02 Y96.31 E.01717
G1 X84.79 Y96.31 E.43175
G1 X84.79 Y99.621 E.10381
G1 X84.831 Y99.739 E.00392
G1 X84.924 Y99.784 E.00324
G1 E-8.75 F2700
;WIPE_START
G1 F7200
G1 X84.979 Y99.81 E-.02167
G1 X89.221 Y99.81 E-1.51121
G1 X89.338 Y99.77 E-.04405
G1 X89.41 Y99.621 E-.05895
G1 X89.41 Y96.31 E-1.17954
G1 X92.033 Y96.31 E-.93458
;WIPE_END
G1 X143.754 Y105.797 F9000
G1 E12.5 F2400
;TYPE:Perimeter
G1 F1200
G1 X143.449 Y105.977 E.0111
G1 X142.912 Y106.184 E.01804
G1 X142.36 Y106.293 E.01764
G1 X141.8 Y106.306 E.01756
G1 X141.243 Y106.225 E.01765
G1 X140.709 Y106.05 E.01762
G1 X140.212 Y105.788 E.01762
G1 X139.767 Y105.446 E.0176
G1 X139.385 Y105.033 E.01764
G1 X139.079 Y104.562 E.01761
G1 X138.857 Y104.046 E.01761
G1 X138.726 Y103.5 E.01761
G1 X138.688 Y102.939 E.01763
G1 X138.759 Y102.304 E.02003
G1 X138.924 Y101.765 E.01767
G1 X139.178 Y101.261 E.0177
G1 X139.481 Y100.847 E.01609
G1 X139.858 Y100.474 E.01663
G1 X140.315 Y100.148 E.0176
G1 X140.822 Y99.905 E.01763
G1 X141.362 Y99.75 E.01761
G1 X141.904 Y99.69 E.0171
G1 X142.475 Y99.722 E.01793
G1 X143.028 Y99.851 E.0178
G1 X143.545 Y100.07 E.0176
G1 X144.018 Y100.374 E.01763
G1 X144.433 Y100.752 E.0176
G1 X144.778 Y101.196 E.01763
G1 X145.043 Y101.691 E.0176
G1 X145.22 Y102.224 E.01761
G1 X145.305 Y102.78 E.01764
G1 X145.295 Y103.341 E.01759
G1 X145.189 Y103.893 E.01762
G1 X144.993 Y104.419 E.0176
G1 X144.71 Y104.905 E.01763
G1 X144.349 Y105.335 E.0176
G1 X143.92 Y105.699 E.01764
G1 X143.806 Y105.767 E.00416
G1 X143.806 Y105.767 F9000
G1 X143.595 Y105.456
G1 F1200
G1 X143.556 Y105.486 E.00154
G1 X143.165 Y105.695 E.0139
G1 X142.67 Y105.857 E.01633
G1 X142.2 Y105.929 E.01491
G1 X141.704 Y105.921 E.01555
G1 X141.214 Y105.829 E.01563
G1 X140.747 Y105.655 E.01563
G1 X140.316 Y105.405 E.01562
G1 X139.934 Y105.086 E.0156
G1 X139.611 Y104.707 E.01561
G1 X139.357 Y104.279 E.0156
G1 X139.179 Y103.814 E.01561
G1 X139.082 Y103.325 E.01563
G1 X139.069 Y102.827 E.01562
G1 X139.128 Y102.383 E.01404
G1 X139.277 Y101.899 E.01588
G1 X139.526 Y101.42 E.01693
G1 X139.839 Y101.014 E.01607
G1 X140.193 Y100.686 E.01513
G1 X140.61 Y100.414 E.01561
G1 X141.067 Y100.216 E.01562
G1 X141.551 Y100.099 E.01561
G1 X142.028 Y100.066 E.01499
G1 X142.543 Y100.115 E.01622
G1 X143.023 Y100.248 E.01562
G1 X143.474 Y100.461 E.01564
G1 X143.881 Y100.746 E.01558
G1 X144.235 Y101.097 E.01563
G1 X144.525 Y101.502 E.01562
G1 X144.742 Y101.95 E.01561
G1 X144.88 Y102.428 E.0156
G1 X144.935 Y102.923 E.01562
G1 X144.906 Y103.42 E.01561
G1 X144.793 Y103.905 E.01561
G1 X144.6 Y104.364 E.01561
G1 X144.332 Y104.784 E.01562
G1 X143.997 Y105.152 E.0156
G1 X143.643 Y105.42 E.01392
G1 X143.643 Y105.42 F9000
G1 X143.372 Y105.157
;TYPE:External perimeter
G1 F1200
G1 X143.04 Y105.339 E.01187
G1 X142.606 Y105.485 E.01436
G1 X142.2 Y105.552 E.0129
G1 X141.768 Y105.549 E.01355
G1 X141.34 Y105.473 E.01363
G1 X140.931 Y105.326 E.01363
G1 X140.553 Y105.112 E.01362
G1 X140.217 Y104.837 E.01361
G1 X139.932 Y104.509 E.01362
G1 X139.707 Y104.138 E.0136
G1 X139.548 Y103.734 E.01361
G1 X139.459 Y103.309 E.01361
G1 X139.443 Y102.875 E.01362
G1 X139.497 Y102.461 E.01309
G1 X139.665 Y101.963 E.01648
G1 X139.829 Y101.644 E.01125
G1 X140.1 Y101.287 E.01405
G1 X140.404 Y100.998 E.01315
G1 X140.766 Y100.757 E.01364
G1 X141.162 Y100.581 E.01359
G1 X141.583 Y100.474 E.01362
G1 X141.999 Y100.442 E.01308
G1 X142.448 Y100.48 E.01413
G1 X142.868 Y100.592 E.01363
G1 X143.262 Y100.773 E.01359
G1 X143.621 Y101.018 E.01363
G1 X143.932 Y101.321 E.01361
G1 X144.188 Y101.672 E.01362
G1 X144.381 Y102.06 E.01359
G1 X144.506 Y102.476 E.01362
G1 X144.558 Y102.907 E.01361
G1 X144.537 Y103.341 E.01362
G1 X144.443 Y103.765 E.01362
G1 X144.278 Y104.167 E.01362
G1 X144.049 Y104.535 E.01359
G1 X143.617 Y104.974 E.01931
G1 X143.42 Y105.121 E.00771
G1 E-8.75 F2700
;WIPE_START
G1 F7200
G1 X143.372 Y105.157 E-.02138
G1 X143.04 Y105.339 E-.13488
G1 X142.606 Y105.485 E-.16313
G1 X142.2 Y105.552 E-.14659
G1 X141.768 Y105.549 E-.1539
G1 X141.34 Y105.473 E-.15486
G1 X140.931 Y105.326 E-.15483
G1 X140.553 Y105.112 E-.15475
G1 X140.217 Y104.837 E-.15468
G1 X139.932 Y104.509 E-.1548
G1 X139.707 Y104.138 E-.15458
G1 X139.548 Y103.734 E-.15467
G1 X139.459 Y103.309 E-.15469
G1 X139.443 Y102.875 E-.15472
G1 X139.497 Y102.461 E-.14874
G1 X139.665 Y101.963 E-.18724
G1 X139.829 Y101.644 E-.12778
G1 X140.1 Y101.287 E-.15967
G1 X140.404 Y100.998 E-.14943
G1 X140.766 Y100.757 E-.15493
G1 X141.162 Y100.581 E-.15438
G1 X141.583 Y100.474 E-.15475
G1 X141.999 Y100.442 E-.14864
G1 X142.448 Y100.48 E-.16053
G1 X142.868 Y100.592 E-.15485
G1 X142.961 Y100.635 E-.0366
;WIPE_END
G1 X135.719 Y109.762 F9000
G1 E12.5 F2400
;TYPE:Perimeter
G1 F1200
G1 X135.863 Y109.954 E.00753
G1 X135.958 Y110.271 E.01038
G1 X135.964 Y115.621 E.16775
G1 X135.907 Y115.944 E.01028
G1 X135.776 Y116.187 E.00866
G1 X135.54 Y116.408 E.01014
G1 X135.184 Y116.55 E.01202
G1 X135.021 Y116.564 E.00513
G1 X130.779 Y116.564 E.133
G1 X130.592 Y116.545 E.00589
G1 X130.26 Y116.408 E.01126
G1 X130.024 Y116.187 E.01014
G1 X129.859 Y115.828 E.01239
G1 X129.836 Y115.621 E.00653
G1 X129.836 Y110.379 E.16436
G1 X129.889 Y110.065 E.00998
G1 X130.059 Y109.77 E.01068
G1 X130.34 Y109.544 E.01131
G1 X130.696 Y109.439 E.01164
G1 X130.779 Y109.436 E.0026
G1 X135.021 Y109.436 E.133
G1 X135.38 Y109.507 E.01147
G1 X135.662 Y109.687 E.01049
G1 X135.683 Y109.714 E.00107
G1 X135.683 Y109.714 F9000
G1 X135.104 Y109.833
G1 F1200
G1 X135.279 Y109.875 E.00564
G1 X135.476 Y110.042 E.0081
G1 X135.583 Y110.314 E.00916
G1 X135.587 Y115.621 E.1664
G1 X135.521 Y115.888 E.00862
G1 X135.333 Y116.094 E.00874
G1 X135.119 Y116.179 E.00722
G1 X135.021 Y116.187 E.00308
G1 X130.667 Y116.176 E.13652
G1 X130.467 Y116.094 E.00678
G1 X130.279 Y115.888 E.00874
G1 X130.213 Y115.621 E.00862
G1 X130.213 Y110.379 E.16436
G1 X130.279 Y110.114 E.00856
G1 X130.468 Y109.906 E.00881
G1 X130.729 Y109.815 E.00867
G1 X135.021 Y109.813 E.13457
G1 X135.046 Y109.819 E.00081
G1 X135.046 Y109.819 F9000
G1 X135.021 Y110.19
;TYPE:External perimeter
G1 F1200
G1 X135.163 Y110.255 E.0049
G1 X135.21 Y110.379 E.00416
G1 X135.21 Y115.621 E.16436
G1 X135.151 Y115.758 E.00468
G1 X135.021 Y115.81 E.00439
G1 X130.741 Y115.806 E.1342
G1 X130.612 Y115.71 E.00504
G1 X130.59 Y115.621 E.00287
G1 X130.59 Y110.379 E.16436
G1 X130.651 Y110.24 E.00476
G1 X130.779 Y110.19 E.00431
G1 X134.961 Y110.19 E.13112
G1 E-8.75 F2700
;WIPE_START
G1 F7200
G1 X135.021 Y110.19 E-.02138
G1 X135.163 Y110.255 E-.05564
G1 X135.21 Y110.379 E-.04724
G1 X135.21 Y115.621 E-1.86746
G1 X135.151 Y115.758 E-.05314
G1 X135.021 Y115.81 E-.04988
G1 X130.741 Y115.806 E-1.52475
G1 X130.612 Y115.71 E-.05729
G1 X130.59 Y115.621 E-.03266
G1 X130.59 Y115.507 E-.04056
;WIPE_END
G1 X84.835 Y116.536 F9000
G1 E12.5 F2400
;TYPE:Perimeter
G1 F1200
G1 X84.616 Y116.492 E.007
G1 X84.328 Y116.304 E.01078
G1 X84.147 Y116.065 E.0094
G1 X84.041 Y115.72 E.01132
G1 X84.036 Y110.355 E.16822
G1 X84.099 Y110.039 E.0101
G1 X84.275 Y109.751 E.01058
G1 X84.562 Y109.533 E.0113
G1 X84.889 Y109.44 E.01066
G1 X89.221 Y109.436 E.13583
G1 X89.567 Y109.501 E.01104
G1 X89.859 Y109.685 E.01082
G1 X90.054 Y109.937 E.00999
G1 X90.161 Y110.3 E.01187
G1 X90.164 Y110.379 E.00248
G1 X90.164 Y115.621 E.16436
G1 X90.107 Y115.944 E.01028
G1 X89.976 Y116.187 E.00866
G1 X89.74 Y116.408 E.01014
G1 X89.384 Y116.55 E.01202
G1 X89.221 Y116.564 E.00513
G1 X84.979 Y116.564 E.133
G1 X84.894 Y116.547 E.00272
G1 X84.894 Y116.547 F9000
G1 X84.907 Y116.173
G1 F1200
G1 X84.761 Y116.144 E.00467
G1 X84.526 Y115.961 E.00934
G1 X84.427 Y115.746 E.00742
G1 X84.413 Y110.365 E.16872
G1 X84.471 Y110.129 E.00762
G1 X84.65 Y109.918 E.00868
G1 X84.877 Y109.822 E.00773
G1 X89.221 Y109.813 E.1362
G1 X89.485 Y109.878 E.00852
G1 X89.698 Y110.075 E.0091
G1 X89.787 Y110.379 E.00993
G1 X89.787 Y115.621 E.16436
G1 X89.721 Y115.888 E.00862
G1 X89.533 Y116.094 E.00874
G1 X89.319 Y116.179 E.00722
G1 X89.221 Y116.187 E.00308
G1 X84.979 Y116.187 E.133
G1 X84.966 Y116.185 E.00041
G1 X84.966 Y116.185 F9000
G1 X84.979 Y115.81
;TYPE:External perimeter
G1 F1200
G1 X84.849 Y115.758 E.00439
G1 X84.79 Y115.621 E.00468
G1 X84.79 Y110.374 E.16452
G1 X84.865 Y110.228 E.00515
G1 X84.979 Y110.19 E.00377
G1 X89.221 Y110.19 E.133
G1 X89.365 Y110.257 E.00498
G1 X89.41 Y110.379 E.00408
G1 X89.41 Y115.621 E.16436
G1 X89.351 Y115.758 E.00468
G1 X89.221 Y115.81 E.00439
G1 X85.039 Y115.81 E.13112
G1 E-8.75 F2700
